; generated by Slic3r 0.9.8 on 2013-03-04 at 18:38:06

; layer_height = 0.3
; perimeters = 3
; top_solid_layers = 3
; bottom_solid_layers = 3
; fill_density = 0.4
; perimeter_speed = 30
; infill_speed = 60
; travel_speed = 130
; scale = 1
; nozzle_diameter = 0.5
; filament_diameter = 3
; extrusion_multiplier = 1
; perimeters extrusion width = 0.70mm
; infill extrusion width = 0.70mm
; first layer extrusion width = 0.60mm

M107
M190 S80 ; wait for bed temperature to be reached
M104 S230 ; set temperature
G28 ; home all axes
M92 X64.8592 ; calibrate X
M92 Y64.8592 ; calibrate Y
M92 Z2387.0719 ; calibrate Z
M92 E487 ; calibrate E
M109 S230 ; wait for temperature to be reached
G90 ; use absolute coordinates
G21 ; set units to millimeters
G92 E0
M82 ; use absolute distances for extrusion
G1 F1800.000 E-1.00000
G92 E0
G1 Z0.300 F7800.000
G1 X91.270 Y74.690
G1 F1800.000 E1.00000
G1 X91.250 Y75.220 F540.000 E1.01302
G1 X91.140 Y76.010 E1.03261
G1 X91.010 Y76.520 E1.04553
G1 X90.740 Y77.270 E1.06510
G1 X90.520 Y77.750 E1.07807
G1 X90.250 Y78.210 E1.09116
G1 X89.790 Y78.850 E1.11052
G1 X89.430 Y79.250 E1.12373
G1 X88.850 Y79.790 E1.14319
G1 X88.430 Y80.100 E1.15601
G1 X87.750 Y80.520 E1.17563
G1 X87.270 Y80.740 E1.18860
G1 X86.520 Y81.010 E1.20817
G1 X86.010 Y81.140 E1.22109
G1 X85.220 Y81.250 E1.24068
G1 X84.690 Y81.270 E1.25370
G1 X45.300 Y81.270 E2.22088
G1 X44.770 Y81.250 E2.23390
G1 X44.510 Y81.220 E2.24033
G1 X43.980 Y81.140 E2.25349
G1 X43.470 Y81.010 E2.26641
G1 X42.970 Y80.840 E2.27938
G1 X42.240 Y80.520 E2.29895
G1 X41.780 Y80.250 E2.31205
G1 X41.140 Y79.790 E2.33140
G1 X40.740 Y79.430 E2.34462
G1 X40.200 Y78.850 E2.36407
G1 X39.740 Y78.210 E2.38343
G1 X39.470 Y77.750 E2.39652
G1 X39.250 Y77.270 E2.40949
G1 X39.060 Y76.770 E2.42262
G1 X38.850 Y76.010 E2.44198
G1 X38.740 Y75.220 E2.46157
G1 X38.720 Y74.690 E2.47459
G1 X38.720 Y35.300 E3.44177
G1 X38.740 Y34.770 E3.45479
G1 X38.770 Y34.510 E3.46122
G1 X38.850 Y33.980 E3.47438
G1 X38.980 Y33.470 E3.48730
G1 X39.150 Y32.970 E3.50027
G1 X39.470 Y32.240 E3.51984
G1 X39.740 Y31.780 E3.53294
G1 X40.200 Y31.140 E3.55229
G1 X40.560 Y30.740 E3.56551
G1 X41.140 Y30.200 E3.58496
G1 X41.780 Y29.740 E3.60432
G1 X42.240 Y29.470 E3.61741
G1 X42.720 Y29.250 E3.63038
G1 X43.220 Y29.060 E3.64351
G1 X43.980 Y28.850 E3.66287
G1 X44.770 Y28.740 E3.68246
G1 X45.300 Y28.720 E3.69548
G1 X54.690 Y28.720 E3.92604
G1 X55.230 Y28.740 E3.93931
G1 X55.500 Y28.770 E3.94598
G1 X56.040 Y28.860 E3.95942
G1 X56.570 Y28.990 E3.97282
G1 X57.080 Y29.170 E3.98610
G1 X57.580 Y29.390 E3.99951
G1 X57.820 Y29.510 E4.00610
G1 X58.290 Y29.790 E4.01954
G1 X58.730 Y30.110 E4.03289
G1 X59.150 Y30.460 E4.04632
G1 X89.530 Y60.840 E5.10125
G1 X89.880 Y61.260 E5.11468
G1 X90.200 Y61.700 E5.12803
G1 X90.480 Y62.170 E5.14147
G1 X90.820 Y62.910 E5.16146
G1 X91.000 Y63.420 E5.17474
G1 X91.070 Y63.690 E5.18159
G1 X91.180 Y64.220 E5.19488
G1 X91.250 Y64.760 E5.20825
G1 X91.270 Y65.300 E5.22152
G1 X91.270 Y74.603 E5.44995
G1 X91.270 Y74.690 E5.45208
G1 F1800.000 E4.45208
G92 E0
G1 X83.543 Y73.543 F7800.000
G1 F1800.000 E1.00000
G1 X46.457 Y73.543 F540.000 E1.91061
G1 X46.457 Y36.457 E2.82121
G1 X53.543 Y36.457 E2.99520
G1 X53.543 Y56.457 E3.48628
G1 X63.543 Y56.457 E3.73182
G1 X63.543 Y66.457 E3.97736
G1 X83.543 Y66.457 E4.46844
G1 X83.543 Y73.456 E4.64029
G1 X83.543 Y73.543 E4.64242
G1 X84.121 Y74.121 F7800.000
G1 X45.879 Y74.121 F540.000 E5.58144
G1 X45.879 Y35.879 E6.52045
G1 X54.121 Y35.879 E6.72285
G1 X54.121 Y55.879 E7.21393
G1 X64.121 Y55.879 E7.45947
G1 X64.121 Y65.879 E7.70501
G1 X84.121 Y65.879 E8.19609
G1 X84.121 Y74.035 E8.39636
G1 X84.121 Y74.121 E8.39849
G1 X84.700 Y74.700 F7800.000
G1 X45.300 Y74.700 F540.000 E9.36591
G1 X45.300 Y35.300 E10.33334
G1 X54.700 Y35.300 E10.56415
G1 X54.700 Y55.300 E11.05523
G1 X64.700 Y55.300 E11.30077
G1 X64.700 Y65.300 E11.54631
G1 X84.700 Y65.300 E12.03739
G1 X84.700 Y74.613 E12.26607
G1 X84.700 Y74.700 E12.26820
G1 X84.199 Y74.411 F7800.000
G1 F1800.000 E11.26820
G92 E0
G1 X83.149 Y67.220 F7800.000
G1 F1800.000 E1.00000
G1 X82.780 Y66.851 F1080.000 E1.01283
G1 X81.960 Y66.851 E1.03304
G1 X83.149 Y68.040 E1.07446
G1 X83.149 Y68.861 E1.09468
G1 X81.139 Y66.851 E1.16468
G1 X80.318 Y66.851 E1.18490
G1 X83.149 Y69.682 E1.28349
G1 X83.149 Y70.503 E1.30371
G1 X79.497 Y66.851 E1.43090
G1 X78.677 Y66.851 E1.45111
G1 X83.149 Y71.323 E1.60688
G1 X83.149 Y72.144 E1.62710
G1 X77.856 Y66.851 E1.81146
G1 X77.035 Y66.851 E1.83168
G1 X83.149 Y72.965 E2.04463
G1 X82.512 Y73.149 E2.06096
G1 X76.214 Y66.851 E2.28031
G1 X75.394 Y66.851 E2.30052
G1 X81.691 Y73.149 E2.51987
G1 X80.870 Y73.149 E2.54009
G1 X74.573 Y66.851 E2.75944
G1 X73.752 Y66.851 E2.77965
G1 X80.049 Y73.149 E2.99900
G1 X79.229 Y73.149 E3.01922
G1 X72.931 Y66.851 E3.23857
G1 X72.111 Y66.851 E3.25878
G1 X78.408 Y73.149 E3.47813
G1 X77.587 Y73.149 E3.49835
G1 X71.290 Y66.851 E3.71770
G1 X70.469 Y66.851 E3.73791
G1 X76.766 Y73.149 E3.95726
G1 X75.946 Y73.149 E3.97748
G1 X69.648 Y66.851 E4.19683
G1 X68.828 Y66.851 E4.21704
G1 X75.125 Y73.149 E4.43639
G1 X74.304 Y73.149 E4.45661
G1 X68.007 Y66.851 E4.67596
G1 X67.186 Y66.851 E4.69617
G1 X73.483 Y73.149 E4.91552
G1 X72.663 Y73.149 E4.93574
G1 X66.365 Y66.851 E5.15509
G1 X65.545 Y66.851 E5.17530
G1 X71.842 Y73.149 E5.39465
G1 X71.021 Y73.149 E5.41487
G1 X64.724 Y66.851 E5.63422
G1 X63.903 Y66.851 E5.65443
G1 X70.200 Y73.149 E5.87378
G1 X69.380 Y73.149 E5.89400
G1 X63.083 Y66.851 E6.11335
G1 X63.149 Y66.917 F7800.000
G1 X53.083 Y56.851 F1080.000 E6.46398
G1 X53.149 Y56.917 F7800.000
G1 X46.851 Y50.620 F1080.000 E6.68333
G1 X46.851 Y51.441 E6.70354
G1 X68.559 Y73.149 E7.45969
G1 X67.738 Y73.149 E7.47990
G1 X46.851 Y52.262 E8.20746
G1 X46.851 Y53.083 E8.22767
G1 X66.917 Y73.149 E8.92664
G1 X66.097 Y73.149 E8.94685
G1 X46.851 Y53.903 E9.61723
G1 X46.851 Y54.724 E9.63745
G1 X65.276 Y73.149 E10.27924
G1 X64.455 Y73.149 E10.29945
G1 X46.851 Y55.545 E10.91265
G1 X46.851 Y56.365 E10.93287
G1 X63.635 Y73.149 E11.51748
G1 X62.814 Y73.149 E11.53769
G1 X46.851 Y57.186 E12.09371
G1 X46.851 Y58.007 E12.11393
G1 X61.993 Y73.149 E12.64136
G1 X61.172 Y73.149 E12.66157
G1 X46.851 Y58.828 E13.16042
G1 X46.851 Y59.648 E13.18063
G1 X60.352 Y73.149 E13.65089
G1 X59.531 Y73.149 E13.67110
G1 X46.851 Y60.469 E14.11277
G1 X46.851 Y61.290 E14.13299
G1 X58.710 Y73.149 E14.54606
G1 X57.889 Y73.149 E14.56627
G1 X46.851 Y62.111 E14.95076
G1 X46.851 Y62.931 E14.97098
G1 X57.069 Y73.149 E15.32688
G1 X56.248 Y73.149 E15.34709
G1 X46.851 Y63.752 E15.67440
G1 X46.851 Y64.573 E15.69462
G1 X55.427 Y73.149 E15.99334
G1 X54.606 Y73.149 E16.01355
G1 X46.851 Y65.394 E16.28369
G1 X46.851 Y66.214 E16.30390
G1 X53.786 Y73.149 E16.54544
G1 X52.965 Y73.149 E16.56566
G1 X46.851 Y67.035 E16.77861
G1 X46.851 Y67.856 E16.79883
G1 X52.144 Y73.149 E16.98319
G1 X51.324 Y73.149 E17.00341
G1 X46.851 Y68.676 E17.15918
G1 X46.851 Y69.497 E17.17940
G1 X50.503 Y73.149 E17.30659
G1 X49.682 Y73.149 E17.32680
G1 X46.851 Y70.318 E17.42540
G1 X46.851 Y71.139 E17.44562
G1 X48.861 Y73.149 E17.51562
G1 X48.041 Y73.149 E17.53584
G1 X46.851 Y71.959 E17.57726
G1 X46.851 Y72.780 E17.59748
G1 X47.220 Y73.149 E17.61031
G1 F1800.000 E16.61031
G92 E0
G1 X63.149 Y66.097 F7800.000
G1 F1800.000 E1.00000
G1 X53.903 Y56.851 F1080.000 E1.32204
G1 X54.724 Y56.851 E1.34226
G1 X63.149 Y65.276 E1.63571
G1 X63.149 Y64.455 E1.65593
G1 X55.545 Y56.851 E1.92080
G1 X56.365 Y56.851 E1.94101
G1 X63.149 Y63.635 E2.17729
G1 X63.149 Y62.814 E2.19750
G1 X57.186 Y56.851 E2.40519
G1 X58.007 Y56.851 E2.42541
G1 X63.149 Y61.993 E2.60450
G1 X63.149 Y61.172 E2.62472
G1 X58.828 Y56.851 E2.77523
G1 X59.648 Y56.851 E2.79545
G1 X63.149 Y60.352 E2.91737
G1 X63.149 Y59.531 E2.93758
G1 X60.469 Y56.851 E3.03091
G1 X61.290 Y56.851 E3.05113
G1 X63.149 Y58.710 E3.11587
G1 X63.149 Y57.889 E3.13609
G1 X62.111 Y56.851 E3.17224
G1 F1800.000 E2.17224
G92 E0
G1 X53.149 Y56.097 F7800.000
G1 F1800.000 E1.00000
G1 X46.851 Y49.800 F1080.000 E1.21935
G1 X46.851 Y48.979 E1.23956
G1 X53.149 Y55.276 E1.45892
G1 X53.149 Y54.455 E1.47913
G1 X46.851 Y48.158 E1.69848
G1 X46.851 Y47.337 E1.71870
G1 X53.149 Y53.635 E1.93805
G1 X53.149 Y52.814 E1.95827
G1 X46.851 Y46.517 E2.17762
G1 X46.851 Y45.696 E2.19783
G1 X53.149 Y51.993 E2.41718
G1 X53.149 Y51.172 E2.43740
G1 X46.851 Y44.875 E2.65675
G1 X46.851 Y44.054 E2.67696
G1 X53.149 Y50.352 E2.89632
G1 X53.149 Y49.531 E2.91653
G1 X46.851 Y43.234 E3.13588
G1 X46.851 Y42.413 E3.15610
G1 X53.149 Y48.710 E3.37545
G1 X53.149 Y47.889 E3.39567
G1 X46.851 Y41.592 E3.61502
G1 X46.851 Y40.771 E3.63523
G1 X53.149 Y47.069 E3.85458
G1 X53.149 Y46.248 E3.87480
G1 X46.851 Y39.951 E4.09415
G1 X46.851 Y39.130 E4.11436
G1 X53.149 Y45.427 E4.33372
G1 X53.149 Y44.606 E4.35393
G1 X46.851 Y38.309 E4.57328
G1 X46.851 Y37.488 E4.59350
G1 X53.149 Y43.786 E4.81285
G1 X53.149 Y42.965 E4.83307
G1 X47.035 Y36.851 E5.04602
G1 X47.856 Y36.851 E5.06623
G1 X53.149 Y42.144 E5.25060
G1 X53.149 Y41.323 E5.27082
G1 X48.677 Y36.851 E5.42659
G1 X49.497 Y36.851 E5.44681
G1 X53.149 Y40.503 E5.57399
G1 X53.149 Y39.682 E5.59421
G1 X50.318 Y36.851 E5.69280
G1 X51.139 Y36.851 E5.71302
G1 X53.149 Y38.861 E5.78303
G1 X53.149 Y38.040 E5.80325
G1 X51.960 Y36.851 E5.84466
G1 X52.780 Y36.851 E5.86488
G1 X53.149 Y37.220 E5.87771
M106 S205
G1 F1800.000 E4.87771
G92 E0
G1 Z0.600 F7800.000
G1 X83.343 Y73.343
G1 F1800.000 E1.00000
G1 X46.657 Y73.343 F1800.000 E2.01904
G1 X46.657 Y36.657 E3.03807
G1 X53.343 Y36.657 E3.22377
G1 X53.343 Y56.657 E3.77933
G1 X63.343 Y56.657 E4.05711
G1 X63.343 Y66.657 E4.33489
G1 X83.343 Y66.657 E4.89044
G1 X83.343 Y73.244 E5.07342
G1 X83.343 Y73.343 E5.07614
G1 X83.997 Y73.997 F7800.000
G1 X46.003 Y73.997 F1800.000 E6.13154
G1 X46.003 Y36.003 E7.18694
G1 X53.997 Y36.003 E7.40900
G1 X53.997 Y56.003 E7.96456
G1 X63.997 Y56.003 E8.24233
G1 X63.997 Y66.003 E8.52011
G1 X83.997 Y66.003 E9.07567
G1 X83.997 Y73.899 E9.29500
G1 X83.997 Y73.997 E9.29773
G1 X84.652 Y74.652 F7800.000
G1 X45.348 Y74.652 F1800.000 E10.38949
G1 X45.348 Y35.348 E11.48125
G1 X54.652 Y35.348 E11.73967
G1 X54.652 Y55.348 E12.29523
G1 X64.652 Y55.348 E12.57301
G1 X64.652 Y65.348 E12.85078
G1 X84.652 Y65.348 E13.40634
G1 X84.652 Y74.553 E13.66204
G1 X84.652 Y74.652 E13.66476
G1 X84.085 Y74.324 F7800.000
G1 F1800.000 E12.66476
G92 E0
G1 X82.897 Y72.480 F7800.000
G1 F1800.000 E1.00000
G1 X82.480 Y72.897 F3600.000 E1.01646
G1 X81.549 Y72.897 E1.04247
G1 X82.897 Y71.549 E1.09572
G1 X82.897 Y70.618 E1.12173
G1 X80.618 Y72.897 E1.21176
G1 X79.687 Y72.897 E1.23777
G1 X82.897 Y69.687 E1.36458
G1 X82.897 Y68.756 E1.39059
G1 X78.756 Y72.897 E1.55419
G1 X77.825 Y72.897 E1.58020
G1 X82.897 Y67.825 E1.78058
G1 X82.687 Y67.103 E1.80158
G1 X76.894 Y72.897 E2.03047
G1 X75.963 Y72.896 E2.05647
G1 X81.756 Y67.103 E2.28536
G1 X80.825 Y67.104 E2.31137
G1 X75.032 Y72.897 E2.54026
G1 X74.101 Y72.897 E2.56627
G1 X79.894 Y67.103 E2.79516
G1 X78.963 Y67.103 E2.82117
G1 X73.170 Y72.897 E3.05006
G1 X72.239 Y72.897 E3.07607
G1 X78.032 Y67.103 E3.30496
G1 X77.101 Y67.103 E3.33097
G1 X71.308 Y72.897 E3.55986
G1 X70.377 Y72.897 E3.58587
G1 X76.170 Y67.103 E3.81476
G1 X75.239 Y67.103 E3.84077
G1 X69.446 Y72.896 E4.06966
G1 X68.516 Y72.897 E4.09567
G1 X74.309 Y67.104 E4.32455
G1 X73.378 Y67.104 E4.35056
G1 X67.585 Y72.897 E4.57945
G1 X66.654 Y72.897 E4.60546
G1 X72.447 Y67.103 E4.83435
G1 X71.516 Y67.103 E4.86036
G1 X65.723 Y72.897 E5.08925
G1 X64.792 Y72.897 E5.11526
G1 X70.585 Y67.103 E5.34415
G1 X69.654 Y67.103 E5.37016
G1 X63.861 Y72.897 E5.59905
G1 X62.930 Y72.897 E5.62506
G1 X68.723 Y67.103 E5.85396
G1 X67.792 Y67.104 E5.87996
G1 X61.999 Y72.897 E6.10885
G1 X61.068 Y72.897 E6.13486
G1 X66.861 Y67.104 E6.36375
G1 X65.930 Y67.103 E6.38976
G1 X60.137 Y72.897 E6.61865
G1 X59.206 Y72.897 E6.64466
G1 X64.999 Y67.103 E6.87355
G1 X64.068 Y67.103 E6.89956
G1 X58.275 Y72.897 E7.12845
G1 X57.344 Y72.897 E7.15446
G1 X63.137 Y67.103 E7.38335
G1 X62.897 Y66.413 F7800.000
G1 X56.413 Y72.897 F3600.000 E7.63952
G1 X55.482 Y72.897 E7.66553
G1 X62.897 Y65.482 E7.95848
G1 X62.897 Y64.551 E7.98449
G1 X54.551 Y72.897 E8.31422
G1 X53.620 Y72.897 E8.34023
G1 X62.897 Y63.620 E8.70675
G1 X62.897 Y62.689 E8.73276
G1 X52.689 Y72.897 E9.13607
G1 X51.758 Y72.897 E9.16208
G1 X62.897 Y61.758 E9.60216
G1 X62.897 Y60.827 E9.62817
G1 X50.827 Y72.897 E10.10504
G1 X49.896 Y72.897 E10.13105
G1 X62.897 Y59.896 E10.64471
G1 X62.897 Y58.965 E10.67071
G1 X48.965 Y72.897 E11.22115
G1 X48.034 Y72.897 E11.24716
G1 X62.897 Y58.034 E11.83438
G1 X62.897 Y57.103 E11.86039
G1 X47.104 Y72.896 E12.48438
G1 X47.103 Y71.966 E12.51039
G1 X61.966 Y57.103 E13.09761
G1 X61.035 Y57.103 E13.12362
G1 X47.103 Y71.035 E13.67405
G1 X47.103 Y70.104 E13.70006
G1 X60.104 Y57.103 E14.21371
G1 X59.173 Y57.103 E14.23972
G1 X47.103 Y69.173 E14.71658
G1 X47.104 Y68.242 E14.74259
G1 X58.242 Y57.103 E15.18267
G1 X57.311 Y57.103 E15.20868
G1 X47.103 Y67.311 E15.61199
G1 X47.103 Y66.380 E15.63800
G1 X56.380 Y57.103 E16.00452
G1 X55.449 Y57.103 E16.03053
G1 X47.103 Y65.449 E16.36026
G1 X47.103 Y64.518 E16.38627
G1 X54.518 Y57.103 E16.67922
G1 X53.587 Y57.103 E16.70523
G1 X47.103 Y63.587 E16.96140
G1 X47.103 Y62.656 E16.98741
G1 X52.896 Y56.863 E17.21630
G1 X52.897 Y55.932 E17.24230
G1 X47.104 Y61.725 E17.47119
G1 X47.103 Y60.794 E17.49720
G1 X52.897 Y55.001 E17.72609
G1 X52.897 Y54.070 E17.75210
G1 X47.103 Y59.863 E17.98099
G1 X47.103 Y58.932 E18.00700
G1 X52.897 Y53.139 E18.23589
G1 X52.897 Y52.208 E18.26190
G1 X47.103 Y58.001 E18.49079
G1 X47.103 Y57.070 E18.51680
G1 X52.897 Y51.277 E18.74569
G1 X52.896 Y50.346 E18.77170
G1 X47.103 Y56.139 E19.00059
G1 X47.104 Y55.208 E19.02660
G1 X52.897 Y49.415 E19.25548
G1 X52.897 Y48.484 E19.28149
G1 X47.103 Y54.277 E19.51038
G1 X47.103 Y53.346 E19.53640
G1 X52.897 Y47.553 E19.76529
G1 X52.897 Y46.622 E19.79130
G1 X47.103 Y52.415 E20.02019
G1 X47.103 Y51.484 E20.04620
G1 X52.897 Y45.691 E20.27509
G1 X52.897 Y44.760 E20.30110
G1 X47.103 Y50.554 E20.52999
G1 X47.103 Y49.623 E20.55600
G1 X52.896 Y43.830 E20.78489
G1 X52.897 Y42.899 E20.81089
G1 X47.104 Y48.692 E21.03978
G1 X47.103 Y47.761 E21.06579
G1 X52.897 Y41.968 E21.29468
G1 X52.897 Y41.037 E21.32069
G1 X47.103 Y46.830 E21.54958
G1 X47.103 Y45.899 E21.57559
G1 X52.897 Y40.106 E21.80448
G1 X52.897 Y39.175 E21.83049
G1 X47.103 Y44.968 E22.05938
G1 X47.103 Y44.037 E22.08539
G1 X52.897 Y38.244 E22.31428
G1 X52.896 Y37.313 E22.34029
G1 X47.103 Y43.106 E22.56918
G1 X47.104 Y42.175 E22.59519
G1 X52.175 Y37.104 E22.79556
G1 X51.244 Y37.104 E22.82157
G1 X47.103 Y41.244 E22.98517
G1 X47.103 Y40.313 E23.01118
G1 X50.313 Y37.103 E23.13799
G1 X49.382 Y37.103 E23.16400
G1 X47.103 Y39.382 E23.25403
G1 X47.103 Y38.451 E23.28004
G1 X48.451 Y37.103 E23.33329
G1 X47.520 Y37.103 E23.35930
G1 X47.103 Y37.520 E23.37576
M106 S205
G1 F1800.000 E22.37576
G92 E0
G1 Z0.900 F7800.000
G1 X46.657 Y73.343
G1 F1800.000 E1.00000
G1 X46.657 Y36.657 F1800.000 E2.01904
G1 X53.343 Y36.657 E2.20474
G1 X53.343 Y56.657 E2.76029
G1 X63.343 Y56.657 E3.03807
G1 X63.343 Y66.657 E3.31585
G1 X83.343 Y66.657 E3.87141
G1 X83.343 Y73.343 E4.05711
G1 X46.756 Y73.343 E5.07342
G1 X46.657 Y73.343 E5.07614
G1 X46.003 Y73.997 F7800.000
G1 X46.003 Y36.003 F1800.000 E6.13154
G1 X53.997 Y36.003 E6.35360
G1 X53.997 Y56.003 E6.90916
G1 X63.997 Y56.003 E7.18694
G1 X63.997 Y66.003 E7.46472
G1 X83.997 Y66.003 E8.02027
G1 X83.997 Y73.997 E8.24233
G1 X46.101 Y73.997 E9.29500
G1 X46.003 Y73.997 E9.29773
G1 X45.348 Y74.652 F7800.000
G1 X45.348 Y35.348 F1800.000 E10.38949
G1 X54.652 Y35.348 E10.64791
G1 X54.652 Y55.348 E11.20347
G1 X64.652 Y55.348 E11.48125
G1 X64.652 Y65.348 E11.75902
G1 X84.652 Y65.348 E12.31458
G1 X84.652 Y74.652 E12.57301
G1 X45.447 Y74.652 E13.66204
G1 X45.348 Y74.652 E13.66476
G1 X45.676 Y74.085 F7800.000
G1 F1800.000 E12.66476
G92 E0
G1 X47.520 Y72.897 F7800.000
G1 F1800.000 E1.00000
G1 X47.103 Y72.480 F3600.000 E1.01638
G1 X47.103 Y71.554 E1.04213
G1 X48.446 Y72.897 E1.09492
G1 X49.373 Y72.897 E1.12066
G1 X47.103 Y70.627 E1.20986
G1 X47.103 Y69.701 E1.23560
G1 X50.299 Y72.897 E1.36121
G1 X51.225 Y72.897 E1.38695
G1 X47.103 Y68.775 E1.54896
G1 X47.104 Y67.849 E1.57471
