; generated by Slic3r 1.0.0RC2 on 2014-02-08 at 16:31:07

; layer_height = 0.2937
; perimeters = 3
; top_solid_layers = 3
; bottom_solid_layers = 3
; fill_density = 0.3
; perimeter_speed = 30
; infill_speed = 60
; travel_speed = 130
; nozzle_diameter = 0.4
; filament_diameter = 2.88
; extrusion_multiplier = 1
; perimeters extrusion width = 0.40mm
; infill extrusion width = 0.44mm
; solid infill extrusion width = 0.44mm
; top infill extrusion width = 0.44mm
; first layer extrusion width = 0.59mm

G21 ; set units to millimeters
M107
M190 S50 ; wait for bed temperature to be reached
M104 S185 ; set temperature
G28 ; home all axes
M92 X100.0; calibrate X
M92 Y100.0 ; calibrate Y
M92 Z2015.75 ; calibrate Z
M92 E436.5396 ; calibrate E
M109 S185 ; wait for temperature to be reached
G90 ; use absolute coordinates
G92 E0
M82 ; use absolute distances for extrusion
G1 F1800.000 E-1.00000
G92 E0
G1 Z0.294 F7800.000
G1 X39.100 Y31.060 F7800.000
G1 E1.00000 F1800.000
G1 X39.980 Y29.980 E1.03437 F540.000
G1 X41.060 Y29.100 E1.06874
G1 X42.290 Y28.450 E1.10306
G1 X43.620 Y28.040 E1.13739
G1 X45.000 Y27.910 E1.17158
G1 X55.000 Y27.910 E1.41828
G1 X56.380 Y28.040 E1.45248
G1 X57.710 Y28.450 E1.48681
G1 X58.940 Y29.100 E1.52113
G1 X60.020 Y29.980 E1.55550
G1 X90.020 Y59.980 E2.60214
G1 X90.900 Y61.060 E2.63651
G1 X91.550 Y62.290 E2.67083
G1 X91.960 Y63.620 E2.70516
G1 X92.090 Y65.000 E2.73936
G1 X92.090 Y75.000 E2.98605
G1 X91.960 Y76.380 E3.02025
G1 X91.550 Y77.710 E3.05458
G1 X90.900 Y78.940 E3.08890
G1 X90.020 Y80.020 E3.12327
G1 X88.940 Y80.900 E3.15764
G1 X87.710 Y81.550 E3.19196
G1 X86.380 Y81.960 E3.22629
G1 X85.000 Y82.090 E3.26049
G1 X45.000 Y82.090 E4.24727
G1 X43.620 Y81.960 E4.28147
G1 X42.290 Y81.550 E4.31580
G1 X41.060 Y80.900 E4.35012
G1 X39.980 Y80.020 E4.38449
G1 X39.100 Y78.940 E4.41886
G1 X38.450 Y77.710 E4.45318
G1 X38.040 Y76.380 E4.48751
G1 X37.910 Y75.000 E4.52170
G1 X37.910 Y35.000 E5.50849
G1 X38.040 Y33.620 E5.54268
G1 X38.450 Y32.290 E5.57702
G1 X39.062 Y31.133 E5.60931
G1 X39.560 Y31.360 F7800.000
G1 X40.370 Y30.370 E5.64087 F540.000
G1 X41.360 Y29.560 E5.67242
G1 X42.490 Y28.950 E5.70410
G1 X43.720 Y28.580 E5.73579
G1 X45.000 Y28.450 E5.76753
G1 X55.000 Y28.450 E6.01423
G1 X56.280 Y28.580 E6.04597
G1 X57.510 Y28.950 E6.07765
G1 X58.640 Y29.560 E6.10933
G1 X59.630 Y30.370 E6.14089
G1 X89.630 Y60.370 E7.18753
G1 X90.440 Y61.360 E7.21909
G1 X91.050 Y62.490 E7.25077
G1 X91.420 Y63.720 E7.28245
G1 X91.550 Y65.000 E7.31419
G1 X91.550 Y75.000 E7.56089
G1 X91.420 Y76.280 E7.59263
G1 X91.050 Y77.510 E7.62431
G1 X90.440 Y78.640 E7.65599
G1 X89.630 Y79.630 E7.68755
G1 X88.640 Y80.440 E7.71910
G1 X87.510 Y81.050 E7.75078
G1 X86.280 Y81.420 E7.78247
G1 X85.000 Y81.550 E7.81421
G1 X45.000 Y81.550 E8.80099
G1 X43.720 Y81.420 E8.83273
G1 X42.490 Y81.050 E8.86442
G1 X41.360 Y80.440 E8.89610
G1 X40.370 Y79.630 E8.92766
G1 X39.560 Y78.640 E8.95921
G1 X38.950 Y77.510 E8.99089
G1 X38.580 Y76.280 E9.02258
G1 X38.450 Y75.000 E9.05432
G1 X38.450 Y35.000 E10.04110
G1 X38.580 Y33.720 E10.07284
G1 X38.950 Y32.490 E10.10453
G1 X39.521 Y31.432 E10.13418
G1 F1800.000 E9.13418
G92 E0
G1 X46.388 Y36.388 F7800.000
G1 E1.00000 F1800.000
G1 X53.612 Y36.388 E1.17821 F540.000
G1 X53.612 Y56.388 E1.67160
G1 X63.612 Y56.388 E1.91830
G1 X63.612 Y66.388 E2.16499
G1 X83.612 Y66.388 E2.65839
G1 X83.612 Y73.612 E2.83660
G1 X46.388 Y73.612 E3.75489
G1 X46.388 Y36.470 E4.67117
G1 X45.841 Y35.841 F7800.000
G1 X54.159 Y35.841 E4.87637 F540.000
G1 X54.159 Y55.841 E5.36977
G1 X64.159 Y55.841 E5.61646
G1 X64.159 Y65.841 E5.86316
G1 X84.159 Y65.841 E6.35655
G1 X84.159 Y74.159 E6.56176
G1 X45.841 Y74.159 E7.50705
G1 X45.841 Y35.923 E8.45032
G1 X45.294 Y35.294 F7800.000
G1 X54.706 Y35.294 E8.68253 F378.000
G1 X54.706 Y55.294 E9.17592
G1 X64.706 Y55.294 E9.42262
G1 X64.706 Y65.294 E9.66931
G1 X84.706 Y65.294 E10.16271
G1 X84.706 Y74.706 E10.39491
G1 X45.294 Y74.706 E11.36720
G1 X45.294 Y35.376 E12.33747
G1 X45.768 Y35.567 F7800.000
G1 X53.243 Y36.812 F7800.000
G1 X53.188 Y36.757 E12.33941 F1080.000
G1 X52.408 Y36.757 E12.35877
G1 X53.243 Y37.592 E12.38808
G1 X53.243 Y38.371 E12.40744
G1 X51.629 Y36.757 E12.46414
G1 X50.850 Y36.757 E12.48350
G1 X53.243 Y39.150 E12.56757
G1 X53.243 Y39.929 E12.58693
G1 X50.071 Y36.757 E12.69838
G1 X49.291 Y36.757 E12.71774
G1 X53.243 Y40.709 E12.85658
G1 X53.243 Y41.488 E12.87594
G1 X48.512 Y36.757 E13.04215
G1 X47.733 Y36.757 E13.06151
G1 X53.243 Y42.267 E13.25510
G1 X53.243 Y43.047 E13.27446
G1 X46.953 Y36.757 E13.49543
G1 X46.757 Y37.340 E13.51072
G1 X53.243 Y43.826 E13.73858
G1 X53.243 Y44.605 E13.75794
G1 X46.757 Y38.120 E13.98581
G1 X46.757 Y38.899 E14.00517
G1 X53.243 Y45.384 E14.23304
G1 X53.243 Y46.164 E14.25240
G1 X46.757 Y39.678 E14.48026
G1 X46.757 Y40.457 E14.49962
G1 X53.243 Y46.943 E14.72749
G1 X53.243 Y47.722 E14.74685
G1 X46.757 Y41.237 E14.97471
G1 X46.757 Y42.016 E14.99407
G1 X53.243 Y48.502 E15.22194
G1 X53.243 Y49.281 E15.24130
G1 X46.757 Y42.795 E15.46917
G1 X46.757 Y43.575 E15.48853
G1 X53.243 Y50.060 E15.71639
G1 X53.243 Y50.840 E15.73575
G1 X46.757 Y44.354 E15.96362
G1 X46.757 Y45.133 E15.98298
G1 X53.243 Y51.619 E16.21084
G1 X53.243 Y52.398 E16.23020
G1 X46.757 Y45.912 E16.45807
G1 X46.757 Y46.692 E16.47743
G1 X53.243 Y53.177 E16.70530
G1 X53.243 Y53.957 E16.72466
G1 X46.757 Y47.471 E16.95252
G1 X46.757 Y48.250 E16.97188
G1 X53.243 Y54.736 E17.19975
G1 X53.243 Y55.515 E17.21911
G1 X46.757 Y49.030 E17.44697
G1 X46.757 Y49.809 E17.46633
G1 X70.191 Y73.243 E18.28966
G1 X69.412 Y73.243 E18.30902
G1 X46.757 Y50.588 E19.10497
G1 X46.757 Y51.368 E19.12433
G1 X68.632 Y73.243 E19.89290
G1 X67.853 Y73.243 E19.91226
G1 X46.757 Y52.147 E20.65345
G1 X46.757 Y52.926 E20.67281
G1 X67.074 Y73.243 E21.38662
G1 X66.295 Y73.243 E21.40598
G1 X46.757 Y53.705 E22.09240
G1 X46.757 Y54.485 E22.11177
G1 X65.515 Y73.243 E22.77081
G1 X64.736 Y73.243 E22.79017
G1 X46.757 Y55.264 E23.42184
G1 X46.757 Y56.043 E23.44120
G1 X63.957 Y73.243 E24.04549
G1 X63.177 Y73.243 E24.06485
G1 X46.757 Y56.823 E24.64176
G1 X46.757 Y57.602 E24.66113
G1 X62.398 Y73.243 E25.21066
G1 X61.619 Y73.243 E25.23002
G1 X46.757 Y58.381 E25.75217
G1 X46.757 Y59.160 E25.77153
G1 X60.840 Y73.243 E26.26630
G1 X60.060 Y73.243 E26.28566
G1 X46.757 Y59.940 E26.75305
G1 X46.757 Y60.719 E26.77241
G1 X59.281 Y73.243 E27.21242
G1 X58.502 Y73.243 E27.23178
G1 X46.757 Y61.498 E27.64441
G1 X46.757 Y62.278 E27.66377
G1 X57.722 Y73.243 E28.04903
G1 X56.943 Y73.243 E28.06839
G1 X46.757 Y63.057 E28.42626
G1 X46.757 Y63.836 E28.44562
G1 X56.164 Y73.243 E28.77611
G1 X55.385 Y73.243 E28.79547
G1 X46.757 Y64.615 E29.09858
G1 X46.757 Y65.395 E29.11794
G1 X54.605 Y73.243 E29.39368
G1 X53.826 Y73.243 E29.41304
G1 X46.757 Y66.174 E29.66139
G1 X46.757 Y66.953 E29.68075
G1 X53.047 Y73.243 E29.90173
G1 X52.267 Y73.243 E29.92109
G1 X46.757 Y67.733 E30.11468
G1 X46.757 Y68.512 E30.13404
G1 X51.488 Y73.243 E30.30026
G1 X50.709 Y73.243 E30.31962
G1 X46.757 Y69.291 E30.45845
G1 X46.757 Y70.071 E30.47781
G1 X49.929 Y73.243 E30.58927
G1 X49.150 Y73.243 E30.60863
G1 X46.757 Y70.850 E30.69270
G1 X46.757 Y71.629 E30.71206
G1 X48.371 Y73.243 E30.76876
G1 X47.592 Y73.243 E30.78812
G1 X46.757 Y72.408 E30.81743
G1 X46.757 Y73.188 E30.83679
G1 X46.812 Y73.243 E30.83873
G1 X54.485 Y56.757 F7800.000
G1 X63.243 Y65.515 E31.14644 F1080.000
G1 X63.243 Y64.736 E31.16580
G1 X55.264 Y56.757 E31.44612
G1 X56.043 Y56.757 E31.46548
G1 X63.243 Y63.957 E31.71843
G1 X63.243 Y63.177 E31.73779
G1 X56.823 Y56.757 E31.96336
G1 X57.602 Y56.757 E31.98272
G1 X63.243 Y62.398 E32.18091
G1 X63.243 Y61.619 E32.20027
G1 X58.381 Y56.757 E32.37107
G1 X59.160 Y56.757 E32.39043
G1 X63.243 Y60.840 E32.53386
G1 X63.243 Y60.060 E32.55322
G1 X59.940 Y56.757 E32.66927
G1 X60.719 Y56.757 E32.68863
G1 X63.243 Y59.281 E32.77730
G1 X63.243 Y58.502 E32.79666
G1 X61.498 Y56.757 E32.85795
G1 X62.278 Y56.757 E32.87731
G1 X63.243 Y57.722 E32.91122
G1 X63.243 Y56.943 E32.93058
G1 X63.057 Y56.757 E32.93711
G1 X64.485 Y66.757 F7800.000
G1 X70.970 Y73.243 E33.16497 F1080.000
G1 X71.750 Y73.243 E33.18433
G1 X65.264 Y66.757 E33.41220
G1 X66.043 Y66.757 E33.43156
G1 X72.529 Y73.243 E33.65943
G1 X73.308 Y73.243 E33.67879
G1 X66.823 Y66.757 E33.90665
G1 X67.602 Y66.757 E33.92601
G1 X74.088 Y73.243 E34.15388
G1 X74.867 Y73.243 E34.17324
G1 X68.381 Y66.757 E34.40110
G1 X69.160 Y66.757 E34.42046
G1 X75.646 Y73.243 E34.64833
G1 X76.425 Y73.243 E34.66769
G1 X69.940 Y66.757 E34.89556
G1 X70.719 Y66.757 E34.91492
G1 X77.205 Y73.243 E35.14278
G1 X77.984 Y73.243 E35.16214
G1 X71.498 Y66.757 E35.39001
G1 X72.278 Y66.757 E35.40937
G1 X78.763 Y73.243 E35.63723
G1 X79.543 Y73.243 E35.65659
G1 X73.057 Y66.757 E35.88446
G1 X73.836 Y66.757 E35.90382
G1 X80.322 Y73.243 E36.13169
G1 X81.101 Y73.243 E36.15105
G1 X74.616 Y66.757 E36.37891
G1 X75.395 Y66.757 E36.39827
G1 X81.880 Y73.243 E36.62614
G1 X82.660 Y73.243 E36.64550
G1 X76.174 Y66.757 E36.87336
G1 X76.953 Y66.757 E36.89272
G1 X83.243 Y73.047 E37.11370
G1 X83.243 Y72.267 E37.13306
G1 X77.733 Y66.757 E37.32665
G1 X78.512 Y66.757 E37.34601
G1 X83.243 Y71.488 E37.51222
G1 X83.243 Y70.709 E37.53158
G1 X79.291 Y66.757 E37.67041
G1 X80.071 Y66.757 E37.68977
G1 X83.243 Y69.929 E37.80123
G1 X83.243 Y69.150 E37.82059
G1 X80.850 Y66.757 E37.90466
G1 X81.629 Y66.757 E37.92402
G1 X83.243 Y68.371 E37.98072
G1 X83.243 Y67.592 E38.00008
G1 X82.408 Y66.757 E38.02939
G1 X83.188 Y66.757 E38.04875
G1 X83.243 Y66.812 E38.05068
M106 S154
M104 S180 ; set temperature
G1 F1800.000 E37.05068
G92 E0
G1 Z0.587 F7800.000
G1 X84.000 Y66.000 F7800.000
G1 E1.00000 F1800.000
G1 X84.000 Y74.000 E1.14427 F1800
G1 X46.000 Y74.000 E1.82956
G1 X46.000 Y36.000 E2.51485
G1 X54.000 Y36.000 E2.65912
G1 X54.000 Y56.000 E3.01979
G1 X64.000 Y56.000 E3.20013
G1 X64.000 Y66.000 E3.38047
G1 X83.940 Y66.000 E3.74007
G1 X84.400 Y65.600 F7800.000
G1 X84.400 Y74.400 E3.89877 F1800
G1 X45.600 Y74.400 E4.59848
G1 X45.600 Y35.600 E5.29819
G1 X54.400 Y35.600 E5.45689
G1 X54.400 Y55.600 E5.81757
G1 X64.400 Y55.600 E5.99791
G1 X64.400 Y65.600 E6.17825
G1 X84.340 Y65.600 E6.53784
G1 X84.800 Y65.200 F7800.000
G1 X84.800 Y74.800 E6.71097 F1260
G1 X45.200 Y74.800 E7.42511
G1 X45.200 Y35.200 E8.13925
G1 X54.800 Y35.200 E8.31238
G1 X54.800 Y55.200 E8.67305
G1 X64.800 Y55.200 E8.85339
G1 X64.800 Y65.200 E9.03373
G1 X84.740 Y65.200 E9.39333
G1 X84.600 Y65.546 F7800.000
G1 X83.725 Y73.682 F7800.000
G1 X83.682 Y73.725 E9.39451 F3600
G1 X83.074 Y73.725 E9.40630
G1 X83.725 Y73.074 E9.42416
G1 X83.725 Y72.466 E9.43595
G1 X82.466 Y73.725 E9.47049
G1 X81.857 Y73.725 E9.48229
G1 X83.725 Y71.857 E9.53351
G1 X83.725 Y71.249 E9.54530
G1 X81.249 Y73.725 E9.61320
G1 X80.641 Y73.725 E9.62500
G1 X83.725 Y70.641 E9.70958
G1 X83.725 Y70.033 E9.72137
G1 X80.033 Y73.725 E9.82263
G1 X79.424 Y73.725 E9.83443
G1 X83.725 Y69.424 E9.95236
G1 X83.725 Y68.816 E9.96416
G1 X78.816 Y73.725 E10.09878
G1 X78.208 Y73.725 E10.11057
G1 X83.725 Y68.208 E10.26187
G1 X83.725 Y67.600 E10.27367
G1 X77.600 Y73.725 E10.44165
G1 X76.991 Y73.725 E10.45344
G1 X83.725 Y66.991 E10.63810
G1 X83.725 Y66.383 E10.64990
G1 X76.383 Y73.725 E10.85124
G1 X75.775 Y73.725 E10.86303
G1 X83.225 Y66.275 E11.06734
G1 X82.617 Y66.275 E11.07914
G1 X75.167 Y73.725 E11.28345
G1 X74.558 Y73.725 E11.29525
G1 X82.009 Y66.275 E11.49956
G1 X81.401 Y66.275 E11.51136
G1 X73.950 Y73.725 E11.71567
G1 X73.342 Y73.725 E11.72747
G1 X80.792 Y66.275 E11.93178
G1 X80.184 Y66.275 E11.94357
G1 X72.734 Y73.725 E12.14789
G1 X72.125 Y73.725 E12.15968
G1 X79.576 Y66.275 E12.36400
G1 X78.968 Y66.275 E12.37579
G1 X71.517 Y73.725 E12.58011
G1 X70.909 Y73.725 E12.59190
G1 X78.359 Y66.275 E12.79622
G1 X77.751 Y66.275 E12.80801
G1 X70.301 Y73.725 E13.01232
G1 X69.692 Y73.725 E13.02412
G1 X77.143 Y66.275 E13.22843
G1 X76.535 Y66.275 E13.24023
G1 X69.084 Y73.725 E13.44454
G1 X68.476 Y73.725 E13.45634
G1 X75.926 Y66.275 E13.66065
G1 X75.318 Y66.275 E13.67245
G1 X67.868 Y73.725 E13.87676
G1 X67.259 Y73.725 E13.88855
G1 X74.710 Y66.275 E14.09287
G1 X74.102 Y66.275 E14.10466
G1 X66.651 Y73.725 E14.30898
G1 X66.043 Y73.725 E14.32077
G1 X73.493 Y66.275 E14.52509
G1 X72.885 Y66.275 E14.53688
G1 X65.435 Y73.725 E14.74120
G1 X64.826 Y73.725 E14.75299
G1 X72.277 Y66.275 E14.95730
G1 X71.669 Y66.275 E14.96910
G1 X64.218 Y73.725 E15.17341
G1 X63.610 Y73.725 E15.18521
G1 X71.060 Y66.275 E15.38952
G1 X70.452 Y66.275 E15.40132
G1 X63.002 Y73.725 E15.60563
G1 X62.393 Y73.725 E15.61743
G1 X69.844 Y66.275 E15.82174
G1 X69.236 Y66.275 E15.83353
G1 X61.785 Y73.725 E16.03785
G1 X61.177 Y73.725 E16.04964
G1 X68.627 Y66.275 E16.25396
G1 X68.019 Y66.275 E16.26575
G1 X60.569 Y73.725 E16.47007
G1 X59.960 Y73.725 E16.48186
G1 X67.411 Y66.275 E16.68618
G1 X66.803 Y66.275 E16.69797
G1 X59.352 Y73.725 E16.90228
G1 X58.744 Y73.725 E16.91408
G1 X66.194 Y66.275 E17.11839
G1 X65.586 Y66.275 E17.13019
G1 X58.136 Y73.725 E17.33450
G1 X57.527 Y73.725 E17.34630
G1 X64.978 Y66.275 E17.55061
G1 X64.370 Y66.275 E17.56241
G1 X56.919 Y73.725 E17.76672
G1 X56.311 Y73.725 E17.77851
G1 X63.761 Y66.275 E17.98283
G1 X63.725 Y65.703 E17.99394
G1 X55.703 Y73.725 E18.21395
G1 X55.094 Y73.725 E18.22574
G1 X63.725 Y65.094 E18.46243
G1 X63.725 Y64.486 E18.47422
G1 X54.486 Y73.725 E18.72758
G1 X53.878 Y73.725 E18.73938
G1 X63.725 Y63.878 E19.00942
G1 X63.725 Y63.270 E19.02122
G1 X53.270 Y73.725 E19.30794
G1 X52.661 Y73.725 E19.31973
G1 X63.725 Y62.661 E19.62314
G1 X63.725 Y62.053 E19.63493
G1 X52.053 Y73.725 E19.95501
G1 X51.445 Y73.725 E19.96681
G1 X63.725 Y61.445 E20.30357
G1 X63.725 Y60.837 E20.31537
G1 X50.837 Y73.725 E20.66881
G1 X50.228 Y73.725 E20.68060
G1 X63.725 Y60.228 E21.05073
G1 X63.725 Y59.620 E21.06252
G1 X49.620 Y73.725 E21.44933
G1 X49.012 Y73.725 E21.46112
G1 X63.725 Y59.012 E21.86460
G1 X63.725 Y58.404 E21.87640
G1 X48.404 Y73.725 E22.29656
G1 X47.795 Y73.725 E22.30836
G1 X63.725 Y57.795 E22.74520
G1 X63.725 Y57.187 E22.75699
G1 X47.187 Y73.725 E23.21052
G1 X46.579 Y73.725 E23.22231
G1 X63.725 Y56.579 E23.69251
G1 X63.421 Y56.275 E23.70085
G1 X46.275 Y73.421 E24.17106
G1 X46.275 Y72.813 E24.18285
G1 X62.813 Y56.275 E24.63637
G1 X62.205 Y56.275 E24.64817
G1 X46.275 Y72.205 E25.08501
G1 X46.275 Y71.596 E25.09681
G1 X61.596 Y56.275 E25.51697
G1 X60.988 Y56.275 E25.52876
G1 X46.275 Y70.988 E25.93225
G1 X46.275 Y70.380 E25.94404
G1 X60.380 Y56.275 E26.33084
G1 X59.772 Y56.275 E26.34264
G1 X46.275 Y69.772 E26.71276
G1 X46.275 Y69.163 E26.72455
G1 X59.163 Y56.275 E27.07800
G1 X58.555 Y56.275 E27.08979
G1 X46.275 Y68.555 E27.42655
G1 X46.275 Y67.947 E27.43835
G1 X57.947 Y56.275 E27.75843
G1 X57.339 Y56.275 E27.77023
G1 X46.275 Y67.339 E28.07363
G1 X46.275 Y66.730 E28.08542
G1 X56.730 Y56.275 E28.37214
G1 X56.122 Y56.275 E28.38394
G1 X46.275 Y66.122 E28.65398
G1 X46.275 Y65.514 E28.66578
G1 X55.514 Y56.275 E28.91914
G1 X54.906 Y56.275 E28.93093
G1 X46.275 Y64.906 E29.16761
G1 X46.275 Y64.297 E29.17941
G1 X54.297 Y56.275 E29.39941
G1 X53.725 Y56.239 E29.41053
G1 X46.275 Y63.689 E29.61484
G1 X46.275 Y63.081 E29.62664
G1 X53.725 Y55.630 E29.83095
G1 X53.725 Y55.022 E29.84274
G1 X46.275 Y62.473 E30.04706
G1 X46.275 Y61.864 E30.05885
G1 X53.725 Y54.414 E30.26317
G1 X53.725 Y53.806 E30.27496
G1 X46.275 Y61.256 E30.47928
G1 X46.275 Y60.648 E30.49107
G1 X53.725 Y53.197 E30.69539
G1 X53.725 Y52.589 E30.70718
G1 X46.275 Y60.040 E30.91149
G1 X46.275 Y59.431 E30.92329
G1 X53.725 Y51.981 E31.12760
G1 X53.725 Y51.373 E31.13940
G1 X46.275 Y58.823 E31.34371
G1 X46.275 Y58.215 E31.35551
G1 X53.725 Y50.764 E31.55982
G1 X53.725 Y50.156 E31.57162
G1 X46.275 Y57.607 E31.77593
G1 X46.275 Y56.998 E31.78772
G1 X53.725 Y49.548 E31.99204
G1 X53.725 Y48.940 E32.00383
G1 X46.275 Y56.390 E32.20815
G1 X46.275 Y55.782 E32.21994
G1 X53.725 Y48.331 E32.42426
G1 X53.725 Y47.723 E32.43605
G1 X46.275 Y55.174 E32.64037
G1 X46.275 Y54.565 E32.65216
G1 X53.725 Y47.115 E32.85647
G1 X53.725 Y46.507 E32.86827
G1 X46.275 Y53.957 E33.07258
G1 X46.275 Y53.349 E33.08438
G1 X53.725 Y45.898 E33.28869
G1 X53.725 Y45.290 E33.30049
G1 X46.275 Y52.741 E33.50480
G1 X46.275 Y52.132 E33.51660
G1 X53.725 Y44.682 E33.72091
