; generated by Slic3r 0.9.9 on 2014-01-26 at 17:25:19

; layer_height = 0.35
; perimeters = 2
; top_solid_layers = 2
; bottom_solid_layers = 2
; fill_density = 0
; perimeter_speed = 40
; infill_speed = 55
; travel_speed = 130
; nozzle_diameter = 0.4
; filament_diameter = 3.1
; extrusion_multiplier = 1
; perimeters extrusion width = 0.42mm
; infill extrusion width = 0.42mm
; solid infill extrusion width = 0.42mm
; top infill extrusion width = 0.42mm
; first layer extrusion width = 0.70mm

G21 ; set units to millimeters
M107
M190 S50 ; wait for bed temperature to be reached
M104 S185 ; set temperature
G28 ; home all axes
M92 X83.0055 ; calibrate X
M92 Y82.8824 ; calibrate Y
M92 Z1543.1410 ; calibrate Z
M92 E569 ; calibrate E
M109 S185 ; wait for temperature to be reached
G90 ; use absolute coordinates
G92 E0
M82 ; use absolute distances for extrusion
G1 F1800.000 E-1.00000
G92 E0
G1 Z0.350 F7800.000
G1 X38.380 Y30.040
G1 F1800.000 E1.00000
G1 X38.950 Y29.360 F1200.000 E1.02615
G1 X39.580 Y28.750 E1.05200
G1 X40.040 Y28.380 E1.06940
G1 X40.530 Y28.040 E1.08698
G1 X41.300 Y27.600 E1.11312
G1 X41.830 Y27.360 E1.13027
G1 X42.670 Y27.060 E1.15656
G1 X43.240 Y26.920 E1.17386
G1 X43.820 Y26.810 E1.19126
G1 X44.700 Y26.730 E1.21730
G1 X55.310 Y26.730 E1.53003
G1 X56.230 Y26.820 E1.55728
G1 X56.540 Y26.870 E1.56653
G1 X57.140 Y27.010 E1.58469
G1 X57.440 Y27.100 E1.59393
G1 X58.020 Y27.300 E1.61201
G1 X58.590 Y27.550 E1.63035
G1 X59.140 Y27.840 E1.64868
G1 X59.910 Y28.340 E1.67574
G1 X60.400 Y28.730 E1.69420
G1 X60.850 Y29.150 E1.71234
G1 X90.850 Y59.150 E2.96286
G1 X91.470 Y59.840 E2.99020
G1 X91.830 Y60.340 E3.00836
G1 X92.160 Y60.860 E3.02651
G1 X92.580 Y61.690 E3.05393
G1 X92.810 Y62.270 E3.07232
G1 X92.900 Y62.560 E3.08127
G1 X92.990 Y62.860 E3.09050
G1 X93.130 Y63.460 E3.10866
G1 X93.250 Y64.380 E3.13601
G1 X93.270 Y64.690 E3.14516
G1 X93.270 Y75.300 E3.45789
G1 X93.190 Y76.180 E3.48394
G1 X93.080 Y76.760 E3.50134
G1 X92.940 Y77.330 E3.51864
G1 X92.640 Y78.170 E3.54493
G1 X92.400 Y78.700 E3.56208
G1 X91.960 Y79.470 E3.58822
G1 X91.440 Y80.190 E3.61439
G1 X90.850 Y80.850 E3.64049
G1 X90.190 Y81.440 E3.66658
G1 X89.470 Y81.960 E3.69276
G1 X88.700 Y82.400 E3.71890
G1 X88.170 Y82.640 E3.73605
G1 X87.330 Y82.940 E3.76234
G1 X86.760 Y83.080 E3.77964
G1 X86.180 Y83.190 E3.79704
G1 X85.300 Y83.270 E3.82308
G1 X44.700 Y83.270 E5.01976
G1 X43.820 Y83.190 E5.04581
G1 X43.240 Y83.080 E5.06321
G1 X42.670 Y82.940 E5.08051
G1 X41.830 Y82.640 E5.10680
G1 X41.300 Y82.400 E5.12395
G1 X40.530 Y81.960 E5.15009
G1 X39.810 Y81.440 E5.17626
G1 X39.150 Y80.850 E5.20236
G1 X38.560 Y80.190 E5.22845
G1 X38.040 Y79.470 E5.25463
G1 X37.600 Y78.700 E5.28077
G1 X37.360 Y78.170 E5.29792
G1 X37.060 Y77.330 E5.32421
G1 X36.920 Y76.760 E5.34151
G1 X36.810 Y76.180 E5.35891
G1 X36.730 Y75.300 E5.38495
G1 X36.730 Y34.700 E6.58163
G1 X36.810 Y33.820 E6.60768
G1 X36.860 Y33.530 E6.61635
G1 X37.060 Y32.670 E6.64238
G1 X37.150 Y32.390 E6.65105
G1 X37.360 Y31.830 E6.66867
G1 X37.600 Y31.300 E6.68582
G1 X38.040 Y30.530 E6.71196
G1 X38.325 Y30.118 E6.72673
G1 X38.690 Y30.700 F7800.000
G1 X39.210 Y30.020 F1200.000 E6.75196
G1 X39.600 Y29.600 E6.76886
G1 X40.020 Y29.210 E6.78575
G1 X40.700 Y28.690 E6.81098
G1 X40.940 Y28.530 E6.81948
G1 X41.430 Y28.250 E6.83612
G1 X42.210 Y27.890 E6.86144
G1 X43.020 Y27.620 E6.88660
G1 X43.860 Y27.450 E6.91187
G1 X44.150 Y27.410 E6.92049
G1 X44.710 Y27.370 E6.93704
G1 X55.000 Y27.360 E7.24034
G1 X55.600 Y27.390 E7.25805
G1 X56.190 Y27.460 E7.27556
G1 X56.490 Y27.510 E7.28452
G1 X57.070 Y27.650 E7.30211
G1 X57.360 Y27.740 E7.31106
G1 X57.920 Y27.950 E7.32869
G1 X58.470 Y28.200 E7.34649
G1 X58.990 Y28.490 E7.36404
G1 X59.490 Y28.820 E7.38170
G1 X59.960 Y29.190 E7.39933
G1 X60.400 Y29.600 E7.41706
G1 X90.400 Y59.600 E8.66757
G1 X91.000 Y60.270 E8.69408
G1 X91.510 Y61.010 E8.72057
G1 X91.930 Y61.800 E8.74694
G1 X92.260 Y62.640 E8.77354
G1 X92.350 Y62.930 E8.78249
G1 X92.490 Y63.510 E8.80008
G1 X92.610 Y64.400 E8.82655
G1 X92.640 Y65.000 E8.84426
G1 X92.630 Y75.290 E9.14755
G1 X92.590 Y75.850 E9.16410
G1 X92.550 Y76.140 E9.17273
G1 X92.380 Y76.980 E9.19799
G1 X92.210 Y77.520 E9.21468
G1 X92.000 Y78.050 E9.23148
G1 X91.750 Y78.570 E9.24849
G1 X91.470 Y79.060 E9.26512
G1 X91.310 Y79.300 E9.27362
G1 X90.790 Y79.980 E9.29885
G1 X90.400 Y80.400 E9.31575
G1 X89.760 Y80.970 E9.34101
G1 X89.060 Y81.470 E9.36636
G1 X88.570 Y81.750 E9.38300
G1 X87.790 Y82.110 E9.40832
G1 X86.980 Y82.380 E9.43349
G1 X86.420 Y82.500 E9.45037
G1 X85.850 Y82.590 E9.46737
G1 X85.000 Y82.640 E9.49247
G1 X44.710 Y82.630 E10.68001
G1 X44.150 Y82.590 E10.69656
G1 X43.860 Y82.550 E10.70519
G1 X43.020 Y82.380 E10.73045
G1 X42.480 Y82.210 E10.74714
G1 X41.950 Y82.000 E10.76394
G1 X41.430 Y81.750 E10.78095
G1 X40.940 Y81.470 E10.79758
G1 X40.700 Y81.310 E10.80608
G1 X40.020 Y80.790 E10.83132
G1 X39.600 Y80.400 E10.84821
G1 X39.030 Y79.760 E10.87347
G1 X38.530 Y79.060 E10.89883
G1 X38.250 Y78.570 E10.91546
G1 X37.890 Y77.790 E10.94078
G1 X37.620 Y76.980 E10.96595
G1 X37.500 Y76.420 E10.98283
G1 X37.410 Y75.850 E10.99984
G1 X37.360 Y75.000 E11.02493
G1 X37.360 Y35.000 E12.20393
G1 X37.410 Y34.150 E12.22903
G1 X37.450 Y33.860 E12.23765
G1 X37.620 Y33.020 E12.26291
G1 X37.700 Y32.750 E12.27121
G1 X37.890 Y32.210 E12.28809
G1 X38.120 Y31.690 E12.30485
G1 X38.390 Y31.180 E12.32186
G1 X38.637 Y30.779 E12.33573
G1 F1800.000 E11.33573
G92 E0
G1 X45.953 Y35.953 F7800.000
G1 F1800.000 E1.00000
G1 X54.047 Y35.953 F1200.000 E1.23854
G1 X54.047 Y55.953 E1.82804
G1 X64.047 Y55.953 E2.12279
G1 X64.047 Y65.953 E2.41754
G1 X84.047 Y65.953 E3.00704
G1 X84.047 Y74.047 E3.24558
G1 X45.953 Y74.047 E4.36837
G1 X45.953 Y36.049 E5.48835
G1 X45.318 Y35.318 F7800.000
G1 X54.682 Y35.318 F960.000 E5.76437
G1 X54.682 Y55.318 E6.35386
G1 X64.682 Y55.318 E6.64861
G1 X64.682 Y65.318 E6.94336
G1 X84.682 Y65.318 E7.53286
G1 X84.682 Y74.682 E7.80887
G1 X45.318 Y74.682 E8.96913
G1 X45.318 Y35.413 E10.12658
G1 X45.868 Y35.636 F7800.000
G1 X53.586 Y36.414
G1 X52.681 Y36.414 F1650.000 E10.15344
G1 X53.586 Y37.319 E10.19142
G1 X53.586 Y38.224 E10.21828
G1 X51.776 Y36.414 E10.29424
G1 X50.871 Y36.414 E10.32109
G1 X53.586 Y39.129 E10.43503
G1 X53.586 Y40.034 E10.46188
G1 X49.966 Y36.414 E10.61379
G1 X49.061 Y36.414 E10.64065
G1 X53.586 Y40.939 E10.83054
G1 X53.586 Y41.844 E10.85739
G1 X48.156 Y36.414 E11.08526
G1 X47.251 Y36.414 E11.11211
G1 X53.586 Y42.749 E11.37795
G1 X53.586 Y43.654 E11.40481
G1 X46.414 Y36.482 E11.70577
G1 X46.414 Y37.387 E11.73262
G1 X53.586 Y44.559 E12.03358
G1 X53.586 Y45.464 E12.06043
G1 X46.414 Y38.292 E12.36139
G1 X46.414 Y39.197 E12.38825
G1 X53.586 Y46.369 E12.68921
G1 X53.586 Y47.274 E12.71606
G1 X46.414 Y40.102 E13.01702
G1 X46.414 Y41.007 E13.04387
G1 X53.586 Y48.179 E13.34483
G1 X53.586 Y49.084 E13.37169
G1 X46.414 Y41.912 E13.67265
G1 X46.414 Y42.817 E13.69950
G1 X53.586 Y49.989 E14.00046
G1 X53.586 Y50.894 E14.02731
G1 X46.414 Y43.722 E14.32827
G1 X46.414 Y44.627 E14.35513
G1 X53.586 Y51.799 E14.65609
G1 X53.586 Y52.704 E14.68294
G1 X46.414 Y45.532 E14.98390
G1 X46.414 Y46.437 E15.01075
G1 X53.586 Y53.609 E15.31171
G1 X53.586 Y54.514 E15.33857
G1 X46.414 Y47.342 E15.63953
G1 X46.414 Y48.247 E15.66638
G1 X53.586 Y55.418 E15.96734
G1 X53.586 Y56.323 F7800.000
G1 X46.414 Y49.152 F1650.000 E16.26830
G1 X46.414 Y50.057 E16.29516
G1 X69.943 Y73.586 E17.28255
G1 X69.038 Y73.586 E17.30941
G1 X46.414 Y50.962 E18.25883
G1 X46.414 Y51.867 E18.28568
G1 X68.133 Y73.586 E19.19712
G1 X67.228 Y73.586 E19.22398
G1 X46.414 Y52.772 E20.09744
G1 X46.414 Y53.677 E20.12430
G1 X66.323 Y73.586 E20.95979
G1 X65.419 Y73.586 E20.98664
G1 X46.414 Y54.581 E21.78416
G1 X46.414 Y55.486 E21.81101
G1 X64.514 Y73.586 E22.57055
G1 X63.609 Y73.586 E22.59740
G1 X46.414 Y56.391 E23.31896
G1 X46.414 Y57.296 E23.34582
G1 X62.704 Y73.586 E24.02940
G1 X61.799 Y73.586 E24.05625
G1 X46.414 Y58.201 E24.70186
G1 X46.414 Y59.106 E24.72872
G1 X60.894 Y73.586 E25.33635
G1 X59.989 Y73.586 E25.36320
G1 X46.414 Y60.011 E25.93286
G1 X46.414 Y60.916 E25.95971
G1 X59.084 Y73.586 E26.49139
G1 X58.179 Y73.586 E26.51824
G1 X46.414 Y61.821 E27.01195
G1 X46.414 Y62.726 E27.03880
G1 X57.274 Y73.586 E27.49453
G1 X56.369 Y73.586 E27.52138
G1 X46.414 Y63.631 E27.93913
G1 X46.414 Y64.536 E27.96598
G1 X55.464 Y73.586 E28.34576
G1 X54.559 Y73.586 E28.37261
G1 X46.414 Y65.441 E28.71441
G1 X46.414 Y66.346 E28.74126
G1 X53.654 Y73.586 E29.04508
G1 X52.749 Y73.586 E29.07193
G1 X46.414 Y67.251 E29.33778
G1 X46.414 Y68.156 E29.36463
G1 X51.844 Y73.586 E29.59250
G1 X50.939 Y73.586 E29.61935
G1 X46.414 Y69.061 E29.80924
G1 X46.414 Y69.966 E29.83609
G1 X50.034 Y73.586 E29.98801
G1 X49.129 Y73.586 E30.01486
G1 X46.414 Y70.871 E30.12880
G1 X46.414 Y71.776 E30.15565
G1 X48.224 Y73.586 E30.23161
G1 X47.319 Y73.586 E30.25847
G1 X46.414 Y72.681 E30.29645
G1 X46.414 Y73.586 E30.32331
G1 X63.586 Y66.323 F7800.000
G1 X53.677 Y56.414 F1650.000 E30.73915
G1 X63.586 Y57.274 F7800.000
G1 X62.726 Y56.414 F1650.000 E30.77523
G1 X61.821 Y56.414 E30.80209
G1 X63.586 Y58.179 E30.87614
G1 X63.586 Y59.084 E30.90299
G1 X60.916 Y56.414 E31.01502
G1 X60.011 Y56.414 E31.04188
G1 X63.586 Y59.989 E31.19188
G1 X63.586 Y60.894 E31.21874
G1 X59.106 Y56.414 E31.40672
G1 X58.201 Y56.414 E31.43357
G1 X63.586 Y61.799 E31.65953
G1 X63.586 Y62.704 E31.68639
G1 X57.296 Y56.414 E31.95032
G1 X56.391 Y56.414 E31.97718
G1 X63.586 Y63.609 E32.27909
G1 X63.586 Y64.514 E32.30594
G1 X55.486 Y56.414 E32.64583
G1 X54.582 Y56.414 E32.67268
G1 X63.586 Y65.418 E33.05055
G1 X63.677 Y66.414 F7800.000
G1 X70.848 Y73.586 F1650.000 E33.35151
G1 X71.753 Y73.586 E33.37836
G1 X64.582 Y66.414 E33.67932
G1 X65.486 Y66.414 E33.70618
G1 X72.658 Y73.586 E34.00714
G1 X73.563 Y73.586 E34.03399
G1 X66.391 Y66.414 E34.33495
G1 X67.296 Y66.414 E34.36180
G1 X74.468 Y73.586 E34.66276
G1 X75.373 Y73.586 E34.68962
G1 X68.201 Y66.414 E34.99058
G1 X69.106 Y66.414 E35.01743
G1 X76.278 Y73.586 E35.31839
G1 X77.183 Y73.586 E35.34524
G1 X70.011 Y66.414 E35.64620
G1 X70.916 Y66.414 E35.67306
G1 X78.088 Y73.586 E35.97402
G1 X78.993 Y73.586 E36.00087
G1 X71.821 Y66.414 E36.30183
G1 X72.726 Y66.414 E36.32868
G1 X79.898 Y73.586 E36.62964
G1 X80.803 Y73.586 E36.65650
G1 X73.631 Y66.414 E36.95746
G1 X74.536 Y66.414 E36.98431
G1 X81.708 Y73.586 E37.28527
G1 X82.613 Y73.586 E37.31213
G1 X75.441 Y66.414 E37.61309
G1 X76.346 Y66.414 E37.63994
G1 X83.518 Y73.586 E37.94090
G1 X83.586 Y72.749 E37.96581
G1 X77.251 Y66.414 E38.23166
G1 X78.156 Y66.414 E38.25851
G1 X83.586 Y71.844 E38.48637
G1 X83.586 Y70.939 E38.51323
G1 X79.061 Y66.414 E38.70312
G1 X79.966 Y66.414 E38.72997
G1 X83.586 Y70.034 E38.88188
G1 X83.586 Y69.129 E38.90874
G1 X80.871 Y66.414 E39.02267
G1 X81.776 Y66.414 E39.04953
G1 X83.586 Y68.224 E39.12549
G1 X83.586 Y67.319 E39.15234
G1 X82.681 Y66.414 E39.19032
G1 X83.586 Y66.414 E39.21718
M106 S167
M104 S180 ; set temperature
G1 F1800.000 E38.21718
G92 E0
G1 Z0.700 F7800.000
G1 X54.376 Y35.624
G1 F1800.000 E1.00000
G1 X54.376 Y55.624 F2400.000 E1.38554
G1 X64.376 Y55.624 E1.57831
G1 X64.376 Y65.624 E1.77109
G1 X84.376 Y65.624 E2.15663
G1 X84.376 Y74.376 E2.32536
G1 X45.624 Y74.376 E3.07241
G1 X45.624 Y35.624 E3.81945
G1 X54.314 Y35.624 E3.98698
G1 X54.792 Y35.208 F7800.000
G1 X54.792 Y55.208 F1920.000 E4.37252
G1 X64.792 Y55.208 E4.56530
G1 X64.792 Y65.208 E4.75807
G1 X84.792 Y65.208 E5.14361
G1 X84.792 Y74.792 E5.32837
G1 X45.208 Y74.792 E6.09144
G1 X45.208 Y35.208 E6.85451
G1 X54.730 Y35.208 E7.03807
G1 X54.584 Y35.568 F7800.000
G1 X45.925 Y36.516
G1 X46.516 Y35.925 F3300.000 E7.05429
G1 X47.108 Y35.925 E7.06576
G1 X45.925 Y37.108 E7.09821
G1 X45.925 Y37.699 E7.10968
G1 X47.699 Y35.925 E7.15835
G1 X48.291 Y35.925 E7.16982
G1 X45.925 Y38.291 E7.23472
G1 X45.925 Y38.882 E7.24619
G1 X48.882 Y35.925 E7.32730
G1 X49.474 Y35.925 E7.33877
G1 X45.925 Y39.474 E7.43611
G1 X45.925 Y40.065 E7.44758
G1 X50.065 Y35.925 E7.56115
G1 X50.657 Y35.925 E7.57262
G1 X45.925 Y40.657 E7.70240
G1 X45.925 Y41.248 E7.71387
G1 X51.248 Y35.925 E7.85988
G1 X51.840 Y35.925 E7.87135
G1 X45.925 Y41.840 E8.03358
G1 X45.925 Y42.431 E8.04505
G1 X52.431 Y35.925 E8.22351
G1 X53.023 Y35.925 E8.23498
G1 X45.925 Y43.023 E8.42965
G1 X45.925 Y43.614 E8.44112
G1 X53.614 Y35.925 E8.65202
G1 X54.075 Y36.055 E8.66132
G1 X45.925 Y44.206 E8.88486
G1 X45.925 Y44.797 E8.89633
G1 X54.075 Y36.647 E9.11988
G1 X54.075 Y37.238 E9.13135
G1 X45.925 Y45.388 E9.35490
G1 X45.925 Y45.980 E9.36637
G1 X54.075 Y37.830 E9.58992
G1 X54.075 Y38.421 E9.60139
G1 X45.925 Y46.571 E9.82493
G1 X45.925 Y47.163 E9.83641
G1 X54.075 Y39.013 E10.05995
G1 X54.075 Y39.604 E10.07142
G1 X45.925 Y47.754 E10.29497
G1 X45.925 Y48.346 E10.30644
G1 X54.075 Y40.196 E10.52999
G1 X54.075 Y40.787 E10.54146
G1 X45.925 Y48.937 E10.76501
G1 X45.925 Y49.529 E10.77648
G1 X54.075 Y41.378 E11.00002
G1 X54.075 Y41.970 E11.01150
G1 X45.925 Y50.120 E11.23504
G1 X45.925 Y50.712 E11.24651
G1 X54.075 Y42.561 E11.47006
G1 X54.075 Y43.153 E11.48153
G1 X45.925 Y51.303 E11.70508
G1 X45.925 Y51.895 E11.71655
G1 X54.075 Y43.744 E11.94010
G1 X54.075 Y44.336 E11.95157
G1 X45.925 Y52.486 E12.17511
G1 X45.925 Y53.078 E12.18659
G1 X54.075 Y44.927 E12.41013
G1 X54.075 Y45.519 E12.42160
G1 X45.925 Y53.669 E12.64515
G1 X45.925 Y54.261 E12.65662
G1 X54.075 Y46.110 E12.88017
G1 X54.075 Y46.702 E12.89164
G1 X45.925 Y54.852 E13.11519
G1 X45.925 Y55.444 E13.12666
G1 X54.075 Y47.293 E13.35020
G1 X54.075 Y47.885 E13.36168
G1 X45.925 Y56.035 E13.58522
G1 X45.925 Y56.627 E13.59669
G1 X54.075 Y48.476 E13.82024
G1 X54.075 Y49.068 E13.83171
G1 X45.925 Y57.218 E14.05526
G1 X45.925 Y57.809 E14.06673
G1 X54.075 Y49.659 E14.29028
G1 X54.075 Y50.251 E14.30175
G1 X45.925 Y58.401 E14.52529
G1 X45.925 Y58.992 E14.53677
G1 X54.075 Y50.842 E14.76031
G1 X54.075 Y51.434 E14.77178
G1 X45.925 Y59.584 E14.99533
G1 X45.925 Y60.175 E15.00680
G1 X54.075 Y52.025 E15.23035
G1 X54.075 Y52.617 E15.24182
G1 X45.925 Y60.767 E15.46537
G1 X45.925 Y61.358 E15.47684
G1 X54.075 Y53.208 E15.70038
G1 X54.075 Y53.799 E15.71186
G1 X45.925 Y61.950 E15.93540
G1 X45.925 Y62.541 E15.94687
G1 X54.075 Y54.391 E16.17042
G1 X54.075 Y54.982 E16.18189
G1 X45.925 Y63.133 E16.40544
G1 X45.925 Y63.724 E16.41691
G1 X54.075 Y55.574 E16.64046
G1 X54.316 Y55.925 E16.64871
G1 X45.925 Y64.316 E16.87885
G1 X45.925 Y64.907 E16.89032
G1 X54.907 Y55.925 E17.13669
G1 X55.499 Y55.925 E17.14816
G1 X45.925 Y65.499 E17.41075
G1 X45.925 Y66.090 E17.42222
G1 X56.090 Y55.925 E17.70104
G1 X56.682 Y55.925 E17.71251
G1 X45.925 Y66.682 E18.00754
G1 X45.925 Y67.273 E18.01902
G1 X57.273 Y55.925 E18.33027
G1 X57.865 Y55.925 E18.34175
G1 X45.925 Y67.865 E18.66923
G1 X45.925 Y68.456 E18.68070
G1 X58.456 Y55.925 E19.02440
G1 X59.048 Y55.925 E19.03588
G1 X45.925 Y69.048 E19.39580
G1 X45.925 Y69.639 E19.40728
G1 X59.639 Y55.925 E19.78343
G1 X60.230 Y55.925 E19.79490
G1 X45.925 Y70.230 E20.18727
G1 X45.925 Y70.822 E20.19874
G1 X60.822 Y55.925 E20.60734
G1 X61.413 Y55.925 E20.61881
G1 X45.925 Y71.413 E21.04363
G1 X45.925 Y72.005 E21.05510
G1 X62.005 Y55.925 E21.49614
G1 X62.596 Y55.925 E21.50762
G1 X45.925 Y72.596 E21.96488
G1 X45.925 Y73.188 E21.97635
G1 X63.188 Y55.925 E22.44984
G1 X63.779 Y55.925 E22.46131
G1 X45.925 Y73.779 E22.95102
G1 X46.220 Y74.075 E22.95914
G1 X64.075 Y56.220 E23.44885
G1 X64.075 Y56.812 E23.46032
G1 X46.812 Y74.075 E23.93382
G1 X47.403 Y74.075 E23.94529
G1 X64.075 Y57.403 E24.40256
G1 X64.075 Y57.995 E24.41403
G1 X47.995 Y74.075 E24.85508
G1 X48.586 Y74.075 E24.86655
G1 X64.075 Y58.586 E25.29137
G1 X64.075 Y59.178 E25.30284
G1 X49.178 Y74.075 E25.71145
G1 X49.769 Y74.075 E25.72292
G1 X64.075 Y59.769 E26.11530
G1 X64.075 Y60.361 E26.12677
G1 X50.361 Y74.075 E26.50292
G1 X50.952 Y74.075 E26.51439
G1 X64.075 Y60.952 E26.87433
G1 X64.075 Y61.544 E26.88580
G1 X51.544 Y74.075 E27.22951
G1 X52.135 Y74.075 E27.24098
G1 X64.075 Y62.135 E27.56847
G1 X64.075 Y62.727 E27.57994
G1 X52.727 Y74.075 E27.89120
G1 X53.318 Y74.075 E27.90267
G1 X64.075 Y63.318 E28.19771
G1 X64.075 Y63.910 E28.20919
G1 X53.910 Y74.075 E28.48800
G1 X54.501 Y74.075 E28.49948
G1 X64.075 Y64.501 E28.76207
