; generated by Slic3r 1.0.0RC2 on 2014-02-11 at 18:43:59

; layer_height = 0.2937
; perimeters = 3
; top_solid_layers = 3
; bottom_solid_layers = 3
; fill_density = 0.3
; perimeter_speed = 30
; infill_speed = 60
; travel_speed = 130
; nozzle_diameter = 0.4
; filament_diameter = 2.88
; extrusion_multiplier = 1
; perimeters extrusion width = 0.40mm
; infill extrusion width = 0.44mm
; solid infill extrusion width = 0.44mm
; top infill extrusion width = 0.44mm
; first layer extrusion width = 0.59mm

G21 ; set units to millimeters
M107
M104 S205 ; set temperature
G28 ; home all axes
M92 X79.7957; calibrate X
M92 Y79.6685 ; calibrate Y
M92 Z2210.2522 ; calibrate Z
M92 E496.1314 ; calibrate E
M109 S205 ; wait for temperature to be reached
G90 ; use absolute coordinates
G92 E0
M82 ; use absolute distances for extrusion
G1 F1800.000 E-1.00000
G92 E0
G1 Z0.294 F7800.000
G1 X46.600 Y38.560 F7800.000
G1 E1.00000 F1800.000
G1 X47.480 Y37.480 E1.03437 F540.000
G1 X48.560 Y36.600 E1.06874
G1 X49.790 Y35.950 E1.10306
G1 X51.120 Y35.540 E1.13739
G1 X52.500 Y35.410 E1.17158
G1 X57.500 Y35.410 E1.29493
G1 X58.880 Y35.540 E1.32913
G1 X60.220 Y35.950 E1.36370
G1 X61.440 Y36.600 E1.39780
G1 X62.520 Y37.480 E1.43217
G1 X82.510 Y57.480 E2.12975
G1 X83.390 Y58.560 E2.16412
G1 X84.040 Y59.790 E2.19844
G1 X84.450 Y61.120 E2.23278
G1 X84.580 Y62.500 E2.26697
G1 X84.580 Y67.500 E2.39032
G1 X84.450 Y68.880 E2.42451
G1 X84.040 Y70.210 E2.45885
G1 X83.390 Y71.440 E2.49317
G1 X82.510 Y72.520 E2.52754
G1 X81.430 Y73.400 E2.56190
G1 X80.200 Y74.050 E2.59622
G1 X78.870 Y74.460 E2.63056
G1 X77.490 Y74.590 E2.66475
G1 X52.500 Y74.590 E3.28125
G1 X51.120 Y74.460 E3.31544
G1 X49.790 Y74.050 E3.34978
G1 X48.560 Y73.400 E3.38410
G1 X47.480 Y72.520 E3.41846
G1 X46.600 Y71.440 E3.45283
G1 X45.950 Y70.210 E3.48715
G1 X45.540 Y68.880 E3.52149
G1 X45.410 Y67.500 E3.55568
G1 X45.410 Y42.500 E4.17242
G1 X45.540 Y41.120 E4.20662
G1 X45.950 Y39.790 E4.24095
G1 X46.562 Y38.633 E4.27324
G1 X47.060 Y38.860 F7800.000
G1 X47.870 Y37.870 E4.30480 F540.000
G1 X48.860 Y37.060 E4.33636
G1 X49.990 Y36.450 E4.36804
G1 X51.220 Y36.080 E4.39972
G1 X52.500 Y35.950 E4.43146
G1 X57.500 Y35.950 E4.55481
G1 X58.780 Y36.080 E4.58655
G1 X60.010 Y36.450 E4.61824
G1 X61.140 Y37.060 E4.64992
G1 X62.130 Y37.870 E4.68147
G1 X82.120 Y57.870 E5.37906
G1 X82.930 Y58.860 E5.41061
G1 X83.540 Y60.000 E5.44251
G1 X83.910 Y61.220 E5.47396
G1 X84.040 Y62.500 E5.50570
G1 X84.040 Y67.500 E5.62905
G1 X83.910 Y68.780 E5.66079
G1 X83.540 Y70.010 E5.69248
G1 X82.930 Y71.140 E5.72415
G1 X82.120 Y72.130 E5.75571
G1 X81.130 Y72.940 E5.78727
G1 X80.000 Y73.550 E5.81895
G1 X78.770 Y73.920 E5.85063
G1 X77.490 Y74.050 E5.88237
G1 X52.500 Y74.050 E6.49886
G1 X51.220 Y73.920 E6.53060
G1 X49.990 Y73.550 E6.56229
G1 X48.860 Y72.940 E6.59397
G1 X47.870 Y72.130 E6.62553
G1 X47.060 Y71.140 E6.65708
G1 X46.450 Y70.010 E6.68876
G1 X46.080 Y68.780 E6.72045
G1 X45.950 Y67.500 E6.75219
G1 X45.950 Y42.500 E7.36893
G1 X46.080 Y41.220 E7.40067
G1 X46.450 Y39.990 E7.43235
G1 X47.021 Y38.932 E7.46201
G1 F1800.000 E6.46201
G92 E0
G1 X53.888 Y43.888 F7800.000
G1 E1.00000 F1800.000
G1 X56.112 Y43.888 E1.05486 F540.000
G1 X56.112 Y48.888 E1.17821
G1 X61.112 Y48.888 E1.30156
G1 X61.112 Y53.888 E1.42491
G1 X66.112 Y53.888 E1.54825
G1 X66.112 Y58.888 E1.67160
G1 X71.112 Y58.888 E1.79495
G1 X71.112 Y63.888 E1.91830
G1 X76.112 Y63.888 E2.04165
G1 X76.112 Y66.112 E2.09651
G1 X68.888 Y66.112 E2.27472
G1 X68.888 Y61.112 E2.39807
G1 X56.112 Y61.112 E2.71325
G1 X56.112 Y66.112 E2.83660
G1 X53.888 Y66.112 E2.89146
G1 X53.888 Y43.970 E3.43769
G1 X53.341 Y43.341 F7800.000
G1 X56.659 Y43.341 E3.51955 F540.000
G1 X56.659 Y48.341 E3.64289
G1 X61.659 Y48.341 E3.76624
G1 X61.659 Y53.341 E3.88959
G1 X66.659 Y53.341 E4.01294
G1 X66.659 Y58.341 E4.13629
G1 X71.659 Y58.341 E4.25963
G1 X71.659 Y63.341 E4.38298
G1 X76.659 Y63.341 E4.50633
G1 X76.659 Y66.659 E4.58819
G1 X68.341 Y66.659 E4.79340
G1 X68.341 Y61.659 E4.91675
G1 X56.659 Y61.659 E5.20493
G1 X56.659 Y66.659 E5.32828
G1 X53.341 Y66.659 E5.41014
G1 X53.341 Y43.423 E5.98336
G1 X52.794 Y42.794 F7800.000
G1 X57.206 Y42.794 E6.09222 F378.000
G1 X57.206 Y47.794 E6.21557
G1 X62.206 Y47.794 E6.33892
G1 X62.206 Y52.794 E6.46227
G1 X67.206 Y52.794 E6.58561
G1 X67.206 Y57.794 E6.70896
G1 X72.206 Y57.794 E6.83231
G1 X72.206 Y62.794 E6.95566
G1 X77.206 Y62.794 E7.07901
G1 X77.206 Y67.206 E7.18786
G1 X67.794 Y67.206 E7.42007
G1 X67.794 Y62.206 E7.54342
G1 X57.206 Y62.206 E7.80460
G1 X57.206 Y67.206 E7.92795
G1 X52.794 Y67.206 E8.03681
G1 X52.794 Y42.876 E8.63703
G1 X53.268 Y43.067 F7800.000
G1 X55.743 Y44.313 F7800.000
G1 X55.687 Y44.257 E8.63901 F1080.000
G1 X54.899 Y44.257 E8.65882
G1 X55.743 Y45.101 E8.68882
G1 X55.743 Y45.889 E8.70863
G1 X54.257 Y44.403 E8.76145
G1 X54.257 Y45.191 E8.78126
G1 X55.743 Y46.678 E8.83409
G1 X55.743 Y47.466 E8.85390
G1 X54.257 Y45.980 E8.90672
G1 X54.257 Y46.768 E8.92653
G1 X55.743 Y48.254 E8.97935
G1 X60.743 Y49.313 F7800.000
G1 X60.687 Y49.257 E8.98133 F1080.000
G1 X59.899 Y49.257 E9.00114
G1 X60.743 Y50.101 E9.03114
G1 X60.743 Y50.889 E9.05095
G1 X59.111 Y49.257 E9.10897
G1 X58.322 Y49.257 E9.12878
G1 X60.743 Y51.678 E9.21481
G1 X60.743 Y52.466 E9.23462
G1 X57.534 Y49.257 E9.34867
G1 X56.746 Y49.257 E9.36848
G1 X60.743 Y53.254 E9.51055
G1 X65.743 Y54.313 F7800.000
G1 X65.687 Y54.257 E9.51253 F1080.000
G1 X64.899 Y54.257 E9.53234
G1 X65.743 Y55.101 E9.56233
G1 X65.743 Y55.889 E9.58215
G1 X64.111 Y54.257 E9.64016
G1 X63.322 Y54.257 E9.65997
G1 X65.743 Y56.678 E9.74600
G1 X65.743 Y57.466 E9.76581
G1 X62.534 Y54.257 E9.87986
G1 X61.746 Y54.257 E9.89967
G1 X65.743 Y58.254 E10.04174
G1 X69.257 Y61.768 F7800.000
G1 X70.743 Y63.254 E10.09456 F1080.000
G1 X70.743 Y64.042 E10.11437
G1 X69.257 Y62.556 E10.16719
G1 X69.257 Y63.345 E10.18700
G1 X71.655 Y65.743 E10.27225
G1 X70.867 Y65.743 E10.29206
G1 X69.257 Y64.133 E10.34929
G1 X69.257 Y64.921 E10.36910
G1 X70.079 Y65.743 E10.39832
G1 X69.291 Y65.743 E10.41813
G1 X69.257 Y65.709 E10.41932
G1 X70.958 Y64.257 F7800.000
G1 X72.444 Y65.743 E10.47215 F1080.000
G1 X73.232 Y65.743 E10.49196
G1 X71.746 Y64.257 E10.54478
G1 X72.534 Y64.257 E10.56459
G1 X74.020 Y65.743 E10.61741
G1 X74.809 Y65.743 E10.63722
G1 X73.322 Y64.257 E10.69004
G1 X74.111 Y64.257 E10.70986
G1 X75.597 Y65.743 E10.76268
G1 X75.743 Y65.101 E10.77923
G1 X74.899 Y64.257 E10.80923
G1 X75.687 Y64.257 E10.82904
G1 X75.743 Y64.313 E10.83102
G1 F1800.000 E9.83102
G92 E0
G1 X70.743 Y59.313 F7800.000
G1 E1.00000 F1800.000
G1 X70.687 Y59.257 E1.00198 F1080.000
G1 X69.899 Y59.257 E1.02179
G1 X70.743 Y60.101 E1.05179
G1 X70.743 Y60.889 E1.07160
G1 X69.111 Y59.257 E1.12961
G1 X68.322 Y59.257 E1.14942
G1 X70.743 Y61.678 E1.23546
G1 X70.743 Y62.466 E1.25527
G1 X67.534 Y59.257 E1.36932
G1 X66.746 Y59.257 E1.38913
G1 X68.232 Y60.743 E1.44195
G1 X67.444 Y60.743 E1.46176
G1 X54.257 Y47.556 E1.93043
G1 X54.257 Y48.345 E1.95024
G1 X66.655 Y60.743 E2.39090
G1 X65.867 Y60.743 E2.41071
G1 X54.257 Y49.133 E2.82335
G1 X54.257 Y49.921 E2.84316
G1 X65.079 Y60.743 E3.22778
G1 X64.291 Y60.743 E3.24759
G1 X54.257 Y50.709 E3.60419
G1 X54.257 Y51.498 E3.62400
G1 X63.502 Y60.743 E3.95259
G1 X62.714 Y60.743 E3.97240
G1 X54.257 Y52.286 E4.27297
G1 X54.257 Y53.074 E4.29278
G1 X61.926 Y60.743 E4.56533
G1 X61.137 Y60.743 E4.58514
G1 X54.257 Y53.863 E4.82968
G1 X54.257 Y54.651 E4.84949
G1 X60.349 Y60.743 E5.06600
G1 X59.561 Y60.743 E5.08582
G1 X54.257 Y55.439 E5.27432
G1 X54.257 Y56.228 E5.29413
G1 X58.772 Y60.743 E5.45461
G1 X57.984 Y60.743 E5.47442
G1 X54.257 Y57.016 E5.60689
G1 X54.257 Y57.804 E5.62670
G1 X57.196 Y60.743 E5.73115
G1 X56.407 Y60.743 E5.75096
G1 X54.257 Y58.593 E5.82739
G1 X54.257 Y59.381 E5.84720
G1 X55.743 Y60.867 E5.90002
G1 X55.743 Y61.655 E5.91983
G1 X54.257 Y60.169 E5.97266
G1 X54.257 Y60.958 E5.99247
G1 X55.743 Y62.444 E6.04529
G1 X55.743 Y63.232 E6.06510
G1 X54.257 Y61.746 E6.11792
G1 X54.257 Y62.534 E6.13773
G1 X55.743 Y64.020 E6.19055
G1 X55.743 Y64.809 E6.21037
G1 X54.257 Y63.322 E6.26319
G1 X54.257 Y64.111 E6.28300
G1 X55.743 Y65.597 E6.33582
G1 X55.101 Y65.743 E6.35237
G1 X54.257 Y64.899 E6.38237
G1 X54.257 Y65.687 E6.40218
G1 X54.313 Y65.743 E6.40416
M106 S235
M104 S200 ; set temperature
G1 F1800.000 E5.40416
G92 E0
G1 Z0.587 F7800.000
G1 X53.500 Y66.500 F7800.000
G1 E1.00000 F1800.000
G1 X53.500 Y43.500 E1.41478 F1800
G1 X56.500 Y43.500 E1.46888
G1 X56.500 Y48.500 E1.55905
G1 X61.500 Y48.500 E1.64922
G1 X61.500 Y53.500 E1.73939
G1 X66.500 Y53.500 E1.82956
G1 X66.500 Y58.500 E1.91973
G1 X71.500 Y58.500 E2.00990
G1 X71.500 Y63.500 E2.10007
G1 X76.500 Y63.500 E2.19024
G1 X76.500 Y66.500 E2.24434
G1 X68.500 Y66.500 E2.38861
G1 X68.500 Y61.500 E2.47878
G1 X56.500 Y61.500 E2.69518
G1 X56.500 Y66.500 E2.78535
G1 X53.560 Y66.500 E2.83837
G1 X53.100 Y66.900 F7800.000
G1 X53.100 Y43.100 E3.26758 F1800
G1 X56.900 Y43.100 E3.33611
G1 X56.900 Y48.100 E3.42628
G1 X61.900 Y48.100 E3.51645
G1 X61.900 Y53.100 E3.60662
G1 X66.900 Y53.100 E3.69679
G1 X66.900 Y58.100 E3.78696
G1 X71.900 Y58.100 E3.87712
G1 X71.900 Y63.100 E3.96729
G1 X76.900 Y63.100 E4.05746
G1 X76.900 Y66.900 E4.12599
G1 X68.100 Y66.900 E4.28469
G1 X68.100 Y61.900 E4.37486
G1 X56.900 Y61.900 E4.57684
G1 X56.900 Y66.900 E4.66701
G1 X53.160 Y66.900 E4.73445
G1 X52.700 Y67.300 F7800.000
G1 X52.700 Y42.700 E5.17809 F1260
G1 X57.300 Y42.700 E5.26104
G1 X57.300 Y47.700 E5.35121
G1 X62.300 Y47.700 E5.44138
G1 X62.300 Y52.700 E5.53155
G1 X67.300 Y52.700 E5.62172
G1 X67.300 Y57.700 E5.71189
G1 X72.300 Y57.700 E5.80206
G1 X72.300 Y62.700 E5.89223
G1 X77.300 Y62.700 E5.98240
G1 X77.300 Y67.300 E6.06535
G1 X67.700 Y67.300 E6.23848
G1 X67.700 Y62.300 E6.32865
G1 X57.300 Y62.300 E6.51620
G1 X57.300 Y67.300 E6.60637
G1 X52.760 Y67.300 E6.68824
G1 X52.900 Y66.954 F7800.000
G1 X56.197 Y66.225 F7800.000
G1 X56.225 Y66.197 E6.68901 F3600
G1 X56.225 Y65.592 E6.70070
G1 X55.592 Y66.225 E6.71800
G1 X54.986 Y66.225 E6.72969
G1 X56.225 Y64.986 E6.76352
G1 X56.225 Y64.380 E6.77521
G1 X54.380 Y66.225 E6.82558
G1 X53.796 Y66.204 E6.83687
G1 X56.225 Y63.775 E6.90319
G1 X56.225 Y63.169 E6.91488
G1 X53.775 Y65.620 E6.98178
G1 X53.775 Y65.014 E6.99347
G1 X56.225 Y62.564 E7.06038
G1 X56.225 Y61.958 E7.07207
G1 X53.775 Y64.408 E7.13897
G1 X53.775 Y63.803 E7.15066
G1 X56.225 Y61.352 E7.21757
G1 X53.775 Y43.818 F7800.000
G1 X53.818 Y43.775 E7.21873 F3600
G1 X54.423 Y43.775 E7.23043
G1 X53.775 Y44.423 E7.24813
G1 X53.775 Y45.029 E7.25982
G1 X55.029 Y43.775 E7.29406
G1 X55.634 Y43.775 E7.30575
G1 X53.775 Y45.634 E7.35653
G1 X53.775 Y46.240 E7.36822
G1 X56.211 Y43.804 E7.43474
G1 X56.225 Y44.395 E7.44617
G1 X53.775 Y46.846 E7.51307
G1 X53.775 Y47.451 E7.52476
G1 X56.225 Y45.001 E7.59167
G1 X56.225 Y45.607 E7.60336
G1 X53.775 Y48.057 E7.67026
G1 X53.775 Y48.663 E7.68195
G1 X56.225 Y46.212 E7.74886
G1 X56.225 Y46.818 E7.76055
G1 X53.775 Y49.268 E7.82745
G1 X53.775 Y49.874 E7.83914
G1 X56.225 Y47.423 E7.90605
G1 X56.225 Y48.029 E7.91774
G1 X53.775 Y50.479 E7.98464
G1 X53.775 Y51.085 E7.99633
G1 X56.225 Y48.635 E8.06324
G1 X56.691 Y48.775 E8.07262
G1 X53.775 Y51.691 E8.15223
G1 X53.775 Y52.296 E8.16392
G1 X57.296 Y48.775 E8.26007
G1 X57.902 Y48.775 E8.27176
G1 X53.775 Y52.902 E8.38444
G1 X53.775 Y53.507 E8.39613
G1 X58.507 Y48.775 E8.52535
G1 X59.113 Y48.775 E8.53704
G1 X53.775 Y54.113 E8.68279
G1 X53.775 Y54.719 E8.69448
G1 X59.719 Y48.775 E8.85677
G1 X60.324 Y48.775 E8.86846
G1 X53.775 Y55.324 E9.04728
G1 X53.775 Y55.930 E9.05898
G1 X60.930 Y48.775 E9.25433
G1 X61.225 Y49.085 E9.26260
G1 X53.775 Y56.535 E9.46602
G1 X53.775 Y57.141 E9.47772
G1 X61.225 Y49.691 E9.68114
G1 X61.225 Y50.296 E9.69283
G1 X53.775 Y57.747 E9.89625
G1 X53.775 Y58.352 E9.90794
G1 X61.225 Y50.902 E10.11136
G1 X61.225 Y51.508 E10.12306
G1 X53.775 Y58.958 E10.32648
G1 X53.775 Y59.563 E10.33817
G1 X61.225 Y52.113 E10.54159
G1 X61.225 Y52.719 E10.55328
G1 X53.775 Y60.169 E10.75670
G1 X53.775 Y60.775 E10.76840
G1 X61.225 Y53.324 E10.97182
G1 X61.380 Y53.775 E10.98102
G1 X53.775 Y61.380 E11.18867
G1 X53.775 Y61.986 E11.20037
G1 X61.986 Y53.775 E11.42456
G1 X62.592 Y53.775 E11.43625
G1 X53.775 Y62.592 E11.67698
G1 X53.775 Y63.197 E11.68867
G1 X63.197 Y53.775 E11.94593
G1 X63.803 Y53.775 E11.95762
G1 X56.352 Y61.225 E12.16104
G1 X56.958 Y61.225 E12.17274
G1 X64.408 Y53.775 E12.37616
G1 X65.014 Y53.775 E12.38785
G1 X57.564 Y61.225 E12.59127
G1 X58.169 Y61.225 E12.60296
G1 X65.620 Y53.775 E12.80638
G1 X66.204 Y53.796 E12.81767
G1 X58.775 Y61.225 E13.02051
G1 X59.380 Y61.225 E13.03220
G1 X66.225 Y54.380 E13.21909
G1 X66.225 Y54.986 E13.23078
G1 X59.986 Y61.225 E13.40113
G1 X60.592 Y61.225 E13.41282
G1 X66.225 Y55.592 E13.56664
G1 X66.225 Y56.197 E13.57833
G1 X61.197 Y61.225 E13.71561
G1 X61.803 Y61.225 E13.72730
G1 X66.225 Y56.803 E13.84805
G1 X66.225 Y57.408 E13.85974
G1 X62.408 Y61.225 E13.96395
G1 X63.014 Y61.225 E13.97564
G1 X66.225 Y58.014 E14.06331
G1 X66.225 Y58.620 E14.07501
G1 X63.620 Y61.225 E14.14615
G1 X64.225 Y61.225 E14.15784
G1 X66.676 Y58.775 E14.22474
G1 X67.281 Y58.775 E14.23643
G1 X64.831 Y61.225 E14.30334
G1 X65.437 Y61.225 E14.31503
G1 X67.887 Y58.775 E14.38193
G1 X68.492 Y58.775 E14.39362
G1 X66.042 Y61.225 E14.46053
G1 X66.648 Y61.225 E14.47222
G1 X69.098 Y58.775 E14.53912
G1 X69.704 Y58.775 E14.55081
G1 X67.253 Y61.225 E14.61772
G1 X67.859 Y61.225 E14.62941
G1 X70.309 Y58.775 E14.69631
G1 X70.915 Y58.775 E14.70800
G1 X68.465 Y61.225 E14.77491
G1 X68.775 Y61.520 E14.78318
G1 X71.225 Y59.070 E14.85008
G1 X71.225 Y59.676 E14.86177
G1 X68.775 Y62.126 E14.92867
G1 X68.775 Y62.732 E14.94037
G1 X71.225 Y60.281 E15.00727
G1 X71.225 Y60.887 E15.01896
G1 X68.775 Y63.337 E15.08586
G1 X68.775 Y63.943 E15.09756
G1 X71.225 Y61.493 E15.16446
G1 X71.225 Y62.098 E15.17615
G1 X68.775 Y64.549 E15.24305
G1 X68.775 Y65.154 E15.25475
G1 X71.225 Y62.704 E15.32165
G1 X71.225 Y63.309 E15.33334
G1 X68.775 Y65.760 E15.40024
G1 X68.915 Y66.225 E15.40963
G1 X71.365 Y63.775 E15.47653
G1 X71.971 Y63.775 E15.48822
G1 X69.521 Y66.225 E15.55513
G1 X70.126 Y66.225 E15.56682
G1 X72.577 Y63.775 E15.63372
G1 X73.182 Y63.775 E15.64541
G1 X70.732 Y66.225 E15.71232
G1 X71.337 Y66.225 E15.72401
G1 X73.788 Y63.775 E15.79091
G1 X74.393 Y63.775 E15.80260
G1 X71.943 Y66.225 E15.86951
G1 X72.549 Y66.225 E15.88120
G1 X74.999 Y63.775 E15.94810
G1 X75.605 Y63.775 E15.95979
G1 X73.154 Y66.225 E16.02670
G1 X73.760 Y66.225 E16.03839
G1 X76.196 Y63.789 E16.10491
G1 X76.225 Y64.366 E16.11606
G1 X74.366 Y66.225 E16.16683
G1 X74.971 Y66.225 E16.17853
G1 X76.225 Y64.971 E16.21277
G1 X76.225 Y65.577 E16.22446
G1 X75.577 Y66.225 E16.24216
G1 X76.182 Y66.225 E16.25386
G1 X76.225 Y66.182 E16.25502
M106 S235
G1 F1800.000 E15.25502
G92 E0
G1 Z0.881 F7800.000
G1 X76.500 Y66.500 F7800.000
G1 E1.00000 F1800.000
G1 X68.500 Y66.500 E1.14427 F1800
G1 X68.500 Y61.500 E1.23444
G1 X56.500 Y61.500 E1.45085
G1 X56.500 Y66.500 E1.54102
G1 X53.500 Y66.500 E1.59512
G1 X53.500 Y43.500 E2.00990
G1 X56.500 Y43.500 E2.06400
G1 X56.500 Y48.500 E2.15417
G1 X61.500 Y48.500 E2.24434
G1 X61.500 Y53.500 E2.33451
G1 X66.500 Y53.500 E2.42468
G1 X66.500 Y58.500 E2.51485
G1 X71.500 Y58.500 E2.60501
G1 X71.500 Y63.500 E2.69518
G1 X76.500 Y63.500 E2.78535
G1 X76.500 Y66.440 E2.83837
G1 X76.900 Y66.900 F7800.000
G1 X68.100 Y66.900 E2.99707 F1800
G1 X68.100 Y61.900 E3.08724
G1 X56.900 Y61.900 E3.28922
G1 X56.900 Y66.900 E3.37939
G1 X53.100 Y66.900 E3.44792
G1 X53.100 Y43.100 E3.87712
G1 X56.900 Y43.100 E3.94565
G1 X56.900 Y48.100 E4.03582
G1 X61.900 Y48.100 E4.12599
G1 X61.900 Y53.100 E4.21616
G1 X66.900 Y53.100 E4.30633
G1 X66.900 Y58.100 E4.39650
G1 X71.900 Y58.100 E4.48667
G1 X71.900 Y63.100 E4.57684
G1 X76.900 Y63.100 E4.66701
G1 X76.900 Y66.840 E4.73445
G1 X77.300 Y67.300 F7800.000
G1 X67.700 Y67.300 E4.90758 F1260
G1 X67.700 Y62.300 E4.99775
G1 X57.300 Y62.300 E5.18530
G1 X57.300 Y67.300 E5.27547
G1 X52.700 Y67.300 E5.35843
G1 X52.700 Y42.700 E5.80206
G1 X57.300 Y42.700 E5.88502
G1 X57.300 Y47.700 E5.97519
G1 X62.300 Y47.700 E6.06535
G1 X62.300 Y52.700 E6.15552
G1 X67.300 Y52.700 E6.24569
G1 X67.300 Y57.700 E6.33586
G1 X72.300 Y57.700 E6.42603
