; generated by Slic3r 0.9.8 on 2013-03-10 at 11:07:37

; layer_height = 0.2
; perimeters = 3
; top_solid_layers = 3
; bottom_solid_layers = 3
; fill_density = 0.3
; perimeter_speed = 15
; infill_speed = 30
; travel_speed = 65
; scale = 1
; nozzle_diameter = 0.5
; filament_diameter = 3
; extrusion_multiplier = 1
; perimeters extrusion width = 0.80mm
; infill extrusion width = 0.80mm
; first layer extrusion width = 0.40mm

M107
M190 S70 ; wait for bed temperature to be reached
M104 S230 ; set temperature
G28 ; home all axes
M92 X63.0159 ; calibrate X
M92 Y62.8937 ; calibrate Y
M92 Z2387.0719 ; calibrate Z
M92 E569 ; calibrate E
M109 S230 ; wait for temperature to be reached
G90 ; use absolute coordinates
G21 ; set units to millimeters
G92 E0
M82 ; use absolute distances for extrusion
G1 F1800.000 E-1.00000
G92 E0
G1 Z0.200 F3900.000
G1 X91.220 Y75.070
G1 F1800.000 E1.00000
G1 X91.130 Y75.860 F360.000 E1.00948
G1 X91.020 Y76.380 E1.01582
G1 X90.870 Y76.890 E1.02216
G1 X90.680 Y77.380 E1.02843
G1 X90.450 Y77.860 E1.03477
G1 X90.030 Y78.530 E1.04420
G1 X89.700 Y78.950 E1.05057
G1 X89.340 Y79.340 E1.05690
G1 X88.950 Y79.700 E1.06323
G1 X88.530 Y80.030 E1.06960
G1 X88.090 Y80.320 E1.07588
G1 X87.380 Y80.680 E1.08538
G1 X86.890 Y80.870 E1.09164
G1 X86.380 Y81.020 E1.09798
G1 X85.860 Y81.130 E1.10432
G1 X85.070 Y81.220 E1.11380
G1 X44.930 Y81.220 E1.59247
G1 X44.410 Y81.170 E1.59870
G1 X43.880 Y81.080 E1.60511
G1 X43.110 Y80.870 E1.61463
G1 X42.620 Y80.680 E1.62089
G1 X42.140 Y80.450 E1.62724
G1 X41.690 Y80.180 E1.63350
G1 X41.260 Y79.870 E1.63982
G1 X40.850 Y79.520 E1.64625
G1 X40.480 Y79.150 E1.65249
G1 X40.130 Y78.740 E1.65892
G1 X39.820 Y78.310 E1.66524
G1 X39.550 Y77.860 E1.67150
G1 X39.320 Y77.380 E1.67784
G1 X39.130 Y76.890 E1.68411
G1 X38.980 Y76.380 E1.69045
G1 X38.870 Y75.860 E1.69679
G1 X38.780 Y75.070 E1.70627
G1 X38.780 Y34.930 E2.18493
G1 X38.830 Y34.410 E2.19116
G1 X38.920 Y33.880 E2.19757
G1 X39.130 Y33.110 E2.20709
G1 X39.320 Y32.620 E2.21336
G1 X39.550 Y32.140 E2.21971
G1 X39.820 Y31.690 E2.22596
G1 X40.130 Y31.260 E2.23228
G1 X40.480 Y30.850 E2.23871
G1 X40.850 Y30.480 E2.24495
G1 X41.260 Y30.130 E2.25138
G1 X41.690 Y29.820 E2.25770
G1 X42.140 Y29.550 E2.26396
G1 X42.620 Y29.320 E2.27031
G1 X43.110 Y29.130 E2.27657
G1 X43.620 Y28.980 E2.28291
G1 X44.140 Y28.870 E2.28925
G1 X44.930 Y28.780 E2.29873
G1 X85.070 Y28.780 E2.77740
G1 X85.860 Y28.870 E2.78688
G1 X86.380 Y28.980 E2.79322
G1 X86.890 Y29.130 E2.79956
G1 X87.380 Y29.320 E2.80582
G1 X87.860 Y29.550 E2.81217
G1 X88.530 Y29.970 E2.82160
G1 X88.950 Y30.300 E2.82797
G1 X89.340 Y30.660 E2.83430
G1 X89.700 Y31.050 E2.84063
G1 X90.030 Y31.470 E2.84700
G1 X90.320 Y31.910 E2.85328
G1 X90.680 Y32.620 E2.86278
G1 X90.870 Y33.110 E2.86904
G1 X91.020 Y33.620 E2.87538
G1 X91.130 Y34.140 E2.88172
G1 X91.220 Y34.930 E2.89120
G1 X91.220 Y75.007 E3.36911
G1 X91.220 Y75.070 E3.36987
G1 F1800.000 E2.36987
G92 E0
G1 X83.121 Y70.621 F3900.000
G1 F1800.000 E1.00000
G1 X64.379 Y70.621 F360.000 E1.22351
G1 X64.379 Y55.621 E1.40238
G1 X49.379 Y55.621 E1.58125
G1 X49.379 Y36.879 E1.80476
G1 X83.121 Y36.879 E2.20714
G1 X83.121 Y70.558 E2.60877
G1 X83.121 Y70.621 E2.60952
G1 X82.700 Y70.200 F3900.000
G1 X64.800 Y70.200 F360.000 E2.82298
G1 X64.800 Y55.200 E3.00185
G1 X49.800 Y55.200 E3.18072
G1 X49.800 Y37.300 E3.39418
G1 X82.700 Y37.300 E3.78651
G1 X82.700 Y70.137 E4.17808
G1 X82.700 Y70.200 E4.17884
G1 X82.700 Y70.621 F3900.000
G1 F1800.000 E3.17884
G92 E0
G1 X83.957 Y73.957 F3900.000
G1 F1800.000 E1.00000
G1 X46.043 Y73.957 F360.000 E1.45212
G1 X46.043 Y36.043 E1.90424
G1 X48.957 Y36.043 E1.93899
G1 X48.957 Y56.043 E2.17749
G1 X63.957 Y56.043 E2.35637
G1 X63.957 Y71.043 E2.53524
G1 X83.957 Y71.043 E2.77374
G1 X83.957 Y73.894 E2.80773
G1 X83.957 Y73.957 E2.80849
G1 X84.379 Y74.379 F3900.000
G1 X45.621 Y74.379 F360.000 E3.27066
G1 X45.621 Y35.621 E3.73284
G1 X84.379 Y35.621 E4.19501
G1 X84.379 Y74.315 E4.65643
G1 X84.379 Y74.379 E4.65718
G1 X84.800 Y74.800 F3900.000
G1 X45.200 Y74.800 F360.000 E5.12941
G1 X45.200 Y35.200 E5.60163
G1 X84.800 Y35.200 E6.07386
G1 X84.800 Y74.737 E6.54533
G1 X84.800 Y74.800 E6.54608
G1 X84.435 Y74.589 F3900.000
G1 F1800.000 E5.54608
G92 E0
G1 X83.670 Y71.599 F3900.000
G1 F1800.000 E1.00000
G1 X83.401 Y71.330 F720.000 E1.00457
G1 X82.799 Y71.330 E1.01183
G1 X83.670 Y72.201 E1.02666
G1 X83.670 Y72.803 E1.03392
G1 X82.197 Y71.330 E1.05901
G1 X81.595 Y71.330 E1.06627
G1 X83.670 Y73.405 E1.10162
G1 X83.332 Y73.670 E1.10679
G1 X80.993 Y71.330 E1.14665
G1 X80.390 Y71.330 E1.15391
G1 X82.730 Y73.670 E1.19377
G1 X82.128 Y73.670 E1.20103
G1 X79.788 Y71.330 E1.24089
G1 X79.186 Y71.330 E1.24815
G1 X81.526 Y73.670 E1.28801
G1 X80.924 Y73.670 E1.29527
G1 X78.584 Y71.330 E1.33513
G1 X77.982 Y71.330 E1.34239
G1 X80.321 Y73.670 E1.38225
G1 X79.719 Y73.670 E1.38951
G1 X77.380 Y71.330 E1.42937
G1 X76.777 Y71.330 E1.43663
G1 X79.117 Y73.670 E1.47649
G1 X78.515 Y73.670 E1.48375
G1 X76.175 Y71.330 E1.52361
G1 X75.573 Y71.330 E1.53087
G1 X77.913 Y73.670 E1.57073
G1 X77.310 Y73.670 E1.57799
G1 X74.971 Y71.330 E1.61785
G1 X74.369 Y71.330 E1.62511
G1 X76.708 Y73.670 E1.66497
G1 X76.106 Y73.670 E1.67223
G1 X73.766 Y71.330 E1.71209
G1 X73.164 Y71.330 E1.71935
G1 X75.504 Y73.670 E1.75921
G1 X74.902 Y73.670 E1.76647
G1 X72.562 Y71.330 E1.80633
G1 X71.960 Y71.330 E1.81359
G1 X74.299 Y73.670 E1.85345
G1 X73.697 Y73.670 E1.86071
G1 X71.358 Y71.330 E1.90057
G1 X70.755 Y71.330 E1.90783
G1 X73.095 Y73.670 E1.94769
G1 X72.493 Y73.670 E1.95495
G1 X70.153 Y71.330 E1.99481
G1 X69.551 Y71.330 E2.00207
G1 X71.891 Y73.670 E2.04193
G1 X71.288 Y73.670 E2.04919
G1 X68.949 Y71.330 E2.08905
G1 X68.347 Y71.330 E2.09631
G1 X70.686 Y73.670 E2.13617
G1 X70.084 Y73.670 E2.14343
G1 X67.744 Y71.330 E2.18329
G1 X67.142 Y71.330 E2.19055
G1 X69.482 Y73.670 E2.23041
G1 X68.880 Y73.670 E2.23767
G1 X66.540 Y71.330 E2.27753
G1 X65.938 Y71.330 E2.28479
G1 X68.278 Y73.670 E2.32465
G1 X67.675 Y73.670 E2.33191
G1 X65.336 Y71.330 E2.37177
G1 X64.734 Y71.330 E2.37903
G1 X67.073 Y73.670 E2.41889
G1 X66.471 Y73.670 E2.42615
G1 X64.131 Y71.330 E2.46601
G1 X63.670 Y71.471 F3900.000
G1 X48.529 Y56.330 F720.000 E2.72399
G1 X48.670 Y56.471 F3900.000
G1 X46.330 Y54.131 F720.000 E2.76386
G1 X46.330 Y53.529 E2.77111
G1 X48.670 Y55.869 E2.81098
G1 X48.670 Y55.266 E2.81823
G1 X46.330 Y52.927 E2.85810
G1 X46.330 Y52.325 E2.86535
G1 X48.670 Y54.664 E2.90522
G1 X48.670 Y54.062 E2.91247
G1 X46.330 Y51.722 E2.95234
G1 X46.330 Y51.120 E2.95959
G1 X48.670 Y53.460 E2.99946
G1 X48.670 Y52.858 E3.00671
G1 X46.330 Y50.518 E3.04658
G1 X46.330 Y49.916 E3.05383
G1 X48.670 Y52.256 E3.09370
G1 X48.670 Y51.653 E3.10095
G1 X46.330 Y49.314 E3.14082
G1 X46.330 Y48.712 E3.14807
G1 X48.670 Y51.051 E3.18794
G1 X48.670 Y50.449 E3.19519
G1 X46.330 Y48.109 E3.23506
G1 X46.330 Y47.507 E3.24231
G1 X48.670 Y49.847 E3.28218
G1 X48.670 Y49.245 E3.28943
G1 X46.330 Y46.905 E3.32930
G1 X46.330 Y46.303 E3.33655
G1 X48.670 Y48.642 E3.37642
G1 X48.670 Y48.040 E3.38367
G1 X46.330 Y45.701 E3.42353
G1 X46.330 Y45.098 E3.43079
G1 X48.670 Y47.438 E3.47065
G1 X48.670 Y46.836 E3.47791
G1 X46.330 Y44.496 E3.51778
G1 X46.330 Y43.894 E3.52503
G1 X48.670 Y46.234 E3.56490
G1 X48.670 Y45.631 E3.57215
G1 X46.330 Y43.292 E3.61202
G1 X46.330 Y42.690 E3.61927
G1 X48.670 Y45.029 E3.65914
G1 X48.670 Y44.427 E3.66639
G1 X46.330 Y42.087 E3.70626
G1 X46.330 Y41.485 E3.71351
G1 X48.670 Y43.825 E3.75338
G1 X48.670 Y43.223 E3.76063
G1 X46.330 Y40.883 E3.80050
G1 X46.330 Y40.281 E3.80775
G1 X48.670 Y42.620 E3.84761
G1 X48.670 Y42.018 E3.85487
G1 X46.330 Y39.679 E3.89473
G1 X46.330 Y39.076 E3.90199
G1 X48.670 Y41.416 E3.94185
G1 X48.670 Y40.814 E3.94911
G1 X46.330 Y38.474 E3.98897
G1 X46.330 Y37.872 E3.99623
G1 X48.670 Y40.212 E4.03609
G1 X48.670 Y39.610 E4.04335
G1 X46.330 Y37.270 E4.08321
G1 X46.330 Y36.668 E4.09047
G1 X48.670 Y39.007 E4.13033
G1 X48.670 Y38.405 E4.13759
G1 X46.595 Y36.330 E4.17294
G1 X47.197 Y36.330 E4.18020
G1 X48.670 Y37.803 E4.20529
G1 X48.670 Y37.201 E4.21255
G1 X47.799 Y36.330 E4.22738
G1 X48.401 Y36.330 E4.23464
G1 X48.670 Y36.599 E4.23921
G1 F1800.000 E3.23921
G92 E0
G1 X49.131 Y56.330 F3900.000
G1 F1800.000 E1.00000
G1 X63.670 Y70.869 F720.000 E1.24772
G1 X63.670 Y70.266 E1.25497
G1 X49.733 Y56.330 E1.49243
G1 X50.336 Y56.330 E1.49969
G1 X63.670 Y69.664 E1.72688
G1 X63.670 Y69.062 E1.73414
G1 X50.938 Y56.330 E1.95107
G1 X51.540 Y56.330 E1.95832
G1 X63.670 Y68.460 E2.16500
G1 X63.670 Y67.858 E2.17225
G1 X52.142 Y56.330 E2.36867
G1 X52.744 Y56.330 E2.37592
G1 X63.670 Y67.256 E2.56208
G1 X63.670 Y66.653 E2.56933
G1 X53.347 Y56.330 E2.74523
G1 X53.949 Y56.330 E2.75248
G1 X63.670 Y66.051 E2.91811
G1 X63.670 Y65.449 E2.92537
G1 X54.551 Y56.330 E3.08074
G1 X55.153 Y56.330 E3.08800
G1 X63.670 Y64.847 E3.23311
G1 X63.670 Y64.245 E3.24036
G1 X55.755 Y56.330 E3.37521
G1 X56.358 Y56.330 E3.38247
G1 X63.670 Y63.642 E3.50706
G1 X63.670 Y63.040 E3.51431
G1 X56.960 Y56.330 E3.62864
G1 X57.562 Y56.330 E3.63590
G1 X63.670 Y62.438 E3.73997
G1 X63.670 Y61.836 E3.74723
G1 X58.164 Y56.330 E3.84103
G1 X58.766 Y56.330 E3.84829
G1 X63.670 Y61.234 E3.93184
G1 X63.670 Y60.631 E3.93909
G1 X59.369 Y56.330 E4.01238
G1 X59.971 Y56.330 E4.01963
G1 X63.670 Y60.029 E4.08266
G1 X63.670 Y59.427 E4.08992
G1 X60.573 Y56.330 E4.14268
G1 X61.175 Y56.330 E4.14994
G1 X63.670 Y58.825 E4.19245
G1 X63.670 Y58.223 E4.19970
G1 X61.777 Y56.330 E4.23195
G1 X62.380 Y56.330 E4.23920
G1 X63.670 Y57.620 E4.26119
G1 X63.670 Y57.018 E4.26844
G1 X62.982 Y56.330 E4.28017
G1 F1800.000 E3.28017
G92 E0
G1 X63.529 Y71.330 F3900.000
G1 F1800.000 E1.00000
G1 X65.869 Y73.670 F720.000 E1.03986
G1 X65.267 Y73.670 E1.04712
G1 X46.330 Y54.733 E1.36977
G1 X46.330 Y55.336 E1.37702
G1 X64.664 Y73.670 E1.68941
G1 X64.062 Y73.670 E1.69667
G1 X46.330 Y55.938 E1.99880
G1 X46.330 Y56.540 E2.00605
G1 X63.460 Y73.670 E2.29792
G1 X62.858 Y73.670 E2.30517
G1 X46.330 Y57.142 E2.58678
G1 X46.330 Y57.744 E2.59404
G1 X62.256 Y73.670 E2.86538
G1 X61.653 Y73.670 E2.87264
G1 X46.330 Y58.347 E3.13372
G1 X46.330 Y58.949 E3.14098
G1 X61.051 Y73.670 E3.39180
G1 X60.449 Y73.670 E3.39906
G1 X46.330 Y59.551 E3.63962
G1 X46.330 Y60.153 E3.64688
G1 X59.847 Y73.670 E3.87719
G1 X59.245 Y73.670 E3.88444
G1 X46.330 Y60.755 E4.10449
G1 X46.330 Y61.358 E4.11174
G1 X58.642 Y73.670 E4.32152
G1 X58.040 Y73.670 E4.32878
G1 X46.330 Y61.960 E4.52830
G1 X46.330 Y62.562 E4.53556
G1 X57.438 Y73.670 E4.72482
G1 X56.836 Y73.670 E4.73207
G1 X46.330 Y63.164 E4.91108
G1 X46.330 Y63.766 E4.91833
G1 X56.234 Y73.670 E5.08707
G1 X55.632 Y73.670 E5.09433
G1 X46.330 Y64.368 E5.25281
G1 X46.330 Y64.971 E5.26007
G1 X55.029 Y73.670 E5.40829
G1 X54.427 Y73.670 E5.41554
G1 X46.330 Y65.573 E5.55350
G1 X46.330 Y66.175 E5.56076
G1 X53.825 Y73.670 E5.68846
G1 X53.223 Y73.670 E5.69571
G1 X46.330 Y66.777 E5.81315
G1 X46.330 Y67.379 E5.82040
G1 X52.621 Y73.670 E5.92758
G1 X52.018 Y73.670 E5.93484
G1 X46.330 Y67.982 E6.03176
G1 X46.330 Y68.584 E6.03901
G1 X51.416 Y73.670 E6.12567
G1 X50.814 Y73.670 E6.13293
G1 X46.330 Y69.186 E6.20932
G1 X46.330 Y69.788 E6.21658
G1 X50.212 Y73.670 E6.28271
G1 X49.610 Y73.670 E6.28997
G1 X46.330 Y70.390 E6.34584
G1 X46.330 Y70.993 E6.35310
G1 X49.007 Y73.670 E6.39871
G1 X48.405 Y73.670 E6.40597
G1 X46.330 Y71.595 E6.44133
G1 X46.330 Y72.197 E6.44858
G1 X47.803 Y73.670 E6.47368
G1 X47.201 Y73.670 E6.48093
G1 X46.330 Y72.799 E6.49577
G1 X46.330 Y73.401 E6.50302
G1 X46.599 Y73.670 E6.50759
G1 F1800.000 E5.50759
G92 E0
G1 X83.816 Y70.716 F3900.000
G1 F1800.000 E1.00000
G1 X83.448 Y70.348 F240.000 E1.00860
G1 X84.052 Y70.127 E1.01921
G1 X83.448 Y69.523 E1.03330
G1 X84.052 Y69.303 E1.04391
G1 X83.448 Y68.699 E1.05800
G1 X84.052 Y68.478 E1.06861
G1 X83.448 Y67.874 E1.08270
G1 X84.052 Y67.653 E1.09331
G1 X83.448 Y67.049 E1.10741
G1 X84.052 Y66.829 E1.11802
G1 X83.448 Y66.225 E1.13211
G1 X84.052 Y66.004 E1.14272
G1 X83.448 Y65.400 E1.15681
G1 X84.052 Y65.179 E1.16742
G1 X83.448 Y64.575 E1.18152
G1 X84.052 Y64.355 E1.19212
G1 X83.448 Y63.751 E1.20622
G1 X84.052 Y63.530 E1.21683
G1 X83.448 Y62.926 E1.23092
G1 X84.052 Y62.705 E1.24153
G1 X83.448 Y62.101 E1.25562
G1 X84.052 Y61.881 E1.26623
G1 X83.448 Y61.277 E1.28033
G1 X84.052 Y61.056 E1.29094
G1 X83.448 Y60.452 E1.30503
G1 X84.052 Y60.231 E1.31564
G1 X83.448 Y59.627 E1.32973
G1 X84.052 Y59.407 E1.34034
G1 X83.448 Y58.803 E1.35443
G1 X84.052 Y58.582 E1.36504
G1 X83.448 Y57.978 E1.37914
G1 X84.052 Y57.757 E1.38975
G1 X83.448 Y57.153 E1.40384
G1 X84.052 Y56.933 E1.41445
G1 X83.448 Y56.329 E1.42854
G1 X84.052 Y56.108 E1.43915
G1 X83.448 Y55.504 E1.45325
G1 X84.052 Y55.284 E1.46386
G1 X83.448 Y54.680 E1.47795
G1 X84.052 Y54.459 E1.48856
G1 X83.448 Y53.855 E1.50265
G1 X84.052 Y53.634 E1.51326
G1 X83.448 Y53.030 E1.52735
G1 X84.052 Y52.809 E1.53796
G1 X83.448 Y52.205 E1.55206
G1 X84.052 Y51.985 E1.56267
G1 X83.448 Y51.381 E1.57676
G1 X84.052 Y51.160 E1.58737
G1 X83.448 Y50.556 E1.60146
G1 X84.052 Y50.336 E1.61207
G1 X83.448 Y49.732 E1.62617
G1 X84.052 Y49.511 E1.63677
G1 X83.448 Y48.907 E1.65087
G1 X84.052 Y48.686 E1.66148
G1 X83.448 Y48.082 E1.67557
G1 X84.052 Y47.862 E1.68618
G1 X83.448 Y47.258 E1.70027
G1 X84.052 Y47.037 E1.71088
G1 X83.448 Y46.433 E1.72498
G1 X84.052 Y46.212 E1.73559
G1 X83.448 Y45.608 E1.74968
G1 X84.052 Y45.388 E1.76029
G1 X83.448 Y44.784 E1.77438
G1 X84.052 Y44.563 E1.78499
G1 X83.448 Y43.959 E1.79908
G1 X84.052 Y43.738 E1.80969
G1 X83.448 Y43.134 E1.82379
G1 X84.052 Y42.914 E1.83440
G1 X83.448 Y42.310 E1.84849
G1 X84.052 Y42.089 E1.85910
G1 X83.448 Y41.485 E1.87319
G1 X84.052 Y41.264 E1.88380
G1 X83.448 Y40.660 E1.89790
G1 X84.052 Y40.440 E1.90851
G1 X83.448 Y39.836 E1.92260
G1 X84.052 Y39.615 E1.93321
G1 X83.448 Y39.011 E1.94730
G1 X84.052 Y38.790 E1.95791
G1 X83.448 Y38.186 E1.97200
G1 X84.052 Y37.966 E1.98261
G1 X83.448 Y37.362 E1.99671
G1 X84.052 Y37.141 E2.00732
G1 X83.448 Y36.537 E2.02141
G1 X83.463 Y36.552 F3900.000
G1 X82.859 Y35.948 F240.000 E2.03550
G1 X82.638 Y36.552 E2.04611
G1 X82.034 Y35.948 E2.06021
G1 X81.814 Y36.552 E2.07081
G1 X81.210 Y35.948 E2.08491
G1 X80.989 Y36.552 E2.09552
G1 X80.385 Y35.948 E2.10961
G1 X80.164 Y36.552 E2.12022
G1 X79.560 Y35.948 E2.13431
G1 X79.340 Y36.552 E2.14492
G1 X78.736 Y35.948 E2.15902
G1 X78.515 Y36.552 E2.16963
G1 X77.911 Y35.948 E2.18372
G1 X77.690 Y36.552 E2.19433
G1 X77.086 Y35.948 E2.20842
G1 X76.866 Y36.552 E2.21903
G1 X76.262 Y35.948 E2.23313
G1 X76.041 Y36.552 E2.24373
G1 X75.437 Y35.948 E2.25783
G1 X75.216 Y36.552 E2.26844
G1 X74.612 Y35.948 E2.28253
G1 X74.392 Y36.552 E2.29314
G1 X73.788 Y35.948 E2.30723
G1 X73.567 Y36.552 E2.31784
G1 X72.963 Y35.948 E2.33194
G1 X72.742 Y36.552 E2.34255
G1 X72.138 Y35.948 E2.35664
G1 X71.918 Y36.552 E2.36725
G1 X71.314 Y35.948 E2.38134
G1 X71.093 Y36.552 E2.39195
G1 X70.489 Y35.948 E2.40604
G1 X70.269 Y36.552 E2.41665
G1 X69.665 Y35.948 E2.43075
G1 X69.444 Y36.552 E2.44136
G1 X68.840 Y35.948 E2.45545
G1 X68.619 Y36.552 E2.46606
G1 X68.015 Y35.948 E2.48015
G1 X67.794 Y36.552 E2.49076
G1 X67.190 Y35.948 E2.50486
G1 X66.970 Y36.552 E2.51546
G1 X66.366 Y35.948 E2.52956
G1 X66.145 Y36.552 E2.54017
G1 X65.541 Y35.948 E2.55426
G1 X65.321 Y36.552 E2.56487
G1 X64.717 Y35.948 E2.57896
G1 X64.496 Y36.552 E2.58957
G1 X63.892 Y35.948 E2.60367
G1 X63.671 Y36.552 E2.61428
G1 X63.067 Y35.948 E2.62837
G1 X62.847 Y36.552 E2.63898
G1 X62.243 Y35.948 E2.65307
G1 X62.022 Y36.552 E2.66368
G1 X61.418 Y35.948 E2.67778
G1 X61.197 Y36.552 E2.68839
G1 X60.593 Y35.948 E2.70248
G1 X60.373 Y36.552 E2.71309
G1 X59.769 Y35.948 E2.72718
G1 X59.548 Y36.552 E2.73779
G1 X58.944 Y35.948 E2.75188
G1 X58.723 Y36.552 E2.76249
G1 X58.119 Y35.948 E2.77659
G1 X57.899 Y36.552 E2.78720
G1 X57.295 Y35.948 E2.80129
G1 X57.074 Y36.552 E2.81190
G1 X56.470 Y35.948 E2.82599
G1 X56.249 Y36.552 E2.83660
G1 X55.645 Y35.948 E2.85069
G1 X55.425 Y36.552 E2.86130
G1 X54.821 Y35.948 E2.87540
G1 X54.600 Y36.552 E2.88601
G1 X53.996 Y35.948 E2.90010
G1 X53.775 Y36.552 E2.91071
G1 X53.171 Y35.948 E2.92480
G1 X52.951 Y36.552 E2.93541
G1 X52.347 Y35.948 E2.94951
G1 X52.126 Y36.552 E2.96011
G1 X51.522 Y35.948 E2.97421
G1 X51.301 Y36.552 E2.98482
