; generated by Slic3r 0.9.9 on 2013-04-04 at 19:39:36

; layer_height = 0.2
; perimeters = 3
; top_solid_layers = 3
; bottom_solid_layers = 3
; fill_density = 0.25
; perimeter_speed = 30
; infill_speed = 60
; travel_speed = 130
; nozzle_diameter = 0.4
; filament_diameter = 3.1
; extrusion_multiplier = 1
; perimeters extrusion width = 0.67mm
; infill extrusion width = 0.67mm
; solid infill extrusion width = 0.67mm
; top infill extrusion width = 0.67mm
; first layer extrusion width = 0.80mm

G21 ; set units to millimeters
M107
M190 S50 ; wait for bed temperature to be reached
M104 S190 ; set temperature
G28 ; home all axes
M92 X62.2360 ; calibrate X
M92 Y62.4264 ; calibrate Y
M92 Z2318.3792 ; calibrate Z
M92 E569 ; calibrate E
M109 S190 ; wait for temperature to be reached
G90 ; use absolute coordinates
G92 E0
M82 ; use absolute distances for extrusion
G1 F1800.000 E-1.00000
G92 E0
G1 Z0.400 F7800.000
G1 X38.250 Y29.950
G1 F1800.000 E1.00000
G1 X38.830 Y29.260 F540.000 E1.03412
G1 X39.480 Y28.630 E1.06838
G1 X39.950 Y28.250 E1.09125
G1 X40.190 Y28.080 E1.10238
G1 X40.960 Y27.600 E1.13672
G1 X41.770 Y27.210 E1.17075
G1 X42.630 Y26.910 E1.20522
G1 X43.210 Y26.760 E1.22790
G1 X43.800 Y26.660 E1.25054
G1 X44.400 Y26.590 E1.27341
G1 X45.000 Y26.570 E1.29613
G1 X55.000 Y26.570 E1.67461
G1 X55.940 Y26.620 E1.71024
G1 X56.570 Y26.720 E1.73438
G1 X57.180 Y26.860 E1.75807
G1 X57.780 Y27.040 E1.78177
G1 X58.370 Y27.270 E1.80574
G1 X59.210 Y27.700 E1.84146
G1 X59.750 Y28.040 E1.86561
G1 X60.500 Y28.610 E1.90126
G1 X60.960 Y29.040 E1.92509
G1 X90.960 Y59.040 E3.53084
G1 X91.390 Y59.500 E3.55468
G1 X91.590 Y59.750 E3.56679
G1 X91.960 Y60.250 E3.59034
G1 X92.300 Y60.790 E3.61449
G1 X92.730 Y61.630 E3.65020
G1 X92.960 Y62.220 E3.67417
G1 X93.220 Y63.120 E3.70963
G1 X93.380 Y64.060 E3.74571
G1 X93.430 Y65.000 E3.78134
G1 X93.430 Y75.000 E4.15982
G1 X93.410 Y75.600 E4.18254
G1 X93.340 Y76.200 E4.20541
G1 X93.240 Y76.790 E4.22805
G1 X93.170 Y77.080 E4.23934
G1 X92.900 Y77.950 E4.27382
G1 X92.670 Y78.500 E4.29639
G1 X92.400 Y79.040 E4.31924
G1 X91.920 Y79.810 E4.35358
G1 X91.750 Y80.050 E4.36471
G1 X91.370 Y80.520 E4.38758
G1 X90.960 Y80.960 E4.41035
G1 X90.290 Y81.560 E4.44439
G1 X90.050 Y81.750 E4.45597
G1 X89.560 Y82.090 E4.47854
G1 X89.040 Y82.400 E4.50146
G1 X88.230 Y82.790 E4.53548
G1 X87.660 Y83.000 E4.55847
G1 X86.790 Y83.240 E4.59263
G1 X85.900 Y83.380 E4.62673
G1 X85.600 Y83.410 E4.63814
G1 X85.000 Y83.430 E4.66086
G1 X45.000 Y83.430 E6.17478
G1 X44.400 Y83.410 E6.19750
G1 X43.800 Y83.340 E6.22036
G1 X43.210 Y83.240 E6.24301
G1 X42.920 Y83.170 E6.25430
G1 X42.050 Y82.900 E6.28878
G1 X41.500 Y82.670 E6.31134
G1 X40.960 Y82.400 E6.33419
G1 X40.190 Y81.920 E6.36853
G1 X39.950 Y81.750 E6.37967
G1 X39.480 Y81.370 E6.40254
G1 X39.040 Y80.960 E6.42530
G1 X38.440 Y80.290 E6.45934
G1 X38.250 Y80.050 E6.47093
G1 X37.910 Y79.560 E6.49350
G1 X37.600 Y79.040 E6.51641
G1 X37.210 Y78.230 E6.55044
G1 X37.000 Y77.660 E6.57343
G1 X36.760 Y76.790 E6.60759
G1 X36.620 Y75.900 E6.64169
G1 X36.590 Y75.600 E6.65310
G1 X36.570 Y75.000 E6.67582
G1 X36.570 Y35.000 E8.18973
G1 X36.590 Y34.400 E8.21246
G1 X36.660 Y33.800 E8.23532
G1 X36.760 Y33.210 E8.25797
G1 X36.910 Y32.630 E8.28064
G1 X37.100 Y32.050 E8.30374
G1 X37.330 Y31.500 E8.32630
G1 X37.600 Y30.960 E8.34915
G1 X37.910 Y30.440 E8.37207
G1 X38.188 Y30.037 E8.39059
G1 X38.790 Y30.420 F7800.000
G1 X39.350 Y29.750 F540.000 E8.42364
G1 X39.970 Y29.150 E8.45629
G1 X40.420 Y28.790 E8.47810
G1 X40.650 Y28.630 E8.48870
G1 X41.140 Y28.320 E8.51065
G1 X41.400 Y28.180 E8.52183
G1 X41.650 Y28.050 E8.53249
G1 X42.180 Y27.820 E8.55436
G1 X43.000 Y27.550 E8.58703
G1 X43.850 Y27.370 E8.61992
G1 X44.140 Y27.330 E8.63100
G1 X44.710 Y27.290 E8.65262
G1 X55.300 Y27.290 E9.05343
G1 X55.910 Y27.340 E9.07660
G1 X56.500 Y27.430 E9.09919
G1 X57.380 Y27.660 E9.13361
G1 X58.230 Y27.990 E9.16812
G1 X58.770 Y28.270 E9.19114
G1 X59.290 Y28.590 E9.21425
G1 X59.780 Y28.940 E9.23704
G1 X60.240 Y29.340 E9.26011
G1 X90.660 Y59.760 E10.88834
G1 X91.060 Y60.220 E10.91142
G1 X91.580 Y60.970 E10.94596
G1 X92.010 Y61.770 E10.98033
G1 X92.340 Y62.620 E11.01484
G1 X92.570 Y63.500 E11.04927
G1 X92.690 Y64.390 E11.08326
G1 X92.710 Y64.700 E11.09501
G1 X92.710 Y75.290 E11.49582
G1 X92.670 Y75.860 E11.51745
G1 X92.520 Y76.720 E11.55049
G1 X92.370 Y77.270 E11.57207
G1 X92.180 Y77.820 E11.59409
G1 X91.950 Y78.350 E11.61596
G1 X91.680 Y78.860 E11.63780
G1 X91.530 Y79.100 E11.64851
G1 X91.210 Y79.580 E11.67034
G1 X90.650 Y80.250 E11.70339
G1 X90.030 Y80.850 E11.73605
G1 X89.580 Y81.210 E11.75786
G1 X88.860 Y81.680 E11.79040
G1 X88.350 Y81.950 E11.81224
G1 X87.550 Y82.280 E11.84499
G1 X86.720 Y82.520 E11.87770
G1 X85.860 Y82.670 E11.91074
G1 X85.290 Y82.710 E11.93236
G1 X44.710 Y82.710 E13.46823
G1 X44.140 Y82.670 E13.48986
G1 X43.280 Y82.520 E13.52290
G1 X42.730 Y82.370 E13.54447
G1 X42.180 Y82.180 E13.56650
G1 X41.650 Y81.950 E13.58836
G1 X41.140 Y81.680 E13.61020
G1 X40.900 Y81.530 E13.62092
G1 X40.420 Y81.210 E13.64275
G1 X39.750 Y80.650 E13.67580
G1 X39.150 Y80.030 E13.70845
G1 X38.790 Y79.580 E13.73027
G1 X38.320 Y78.860 E13.76281
G1 X38.050 Y78.350 E13.78465
G1 X37.720 Y77.550 E13.81740
G1 X37.480 Y76.720 E13.85010
G1 X37.330 Y75.860 E13.88314
G1 X37.290 Y75.290 E13.90477
G1 X37.290 Y34.710 E15.44064
G1 X37.330 Y34.140 E15.46226
G1 X37.420 Y33.570 E15.48410
G1 X37.550 Y33.000 E15.50623
G1 X37.720 Y32.450 E15.52802
G1 X38.050 Y31.650 E15.56077
G1 X38.320 Y31.140 E15.58261
G1 X38.729 Y30.508 E15.61110
G1 F1800.000 E14.61110
G92 E0
G1 X53.215 Y36.785 F7800.000
G1 F1800.000 E1.00000
G1 X53.215 Y56.785 F540.000 E1.75696
G1 X63.215 Y56.785 E2.13544
G1 X63.215 Y66.785 E2.51392
G1 X83.215 Y66.785 E3.27087
G1 X83.215 Y73.215 E3.51421
G1 X46.785 Y73.215 E4.89297
G1 X46.785 Y36.785 E6.27174
G1 X53.107 Y36.785 E6.51102
G1 X53.929 Y36.071 F7800.000
G1 X53.929 Y56.071 F540.000 E7.26798
G1 X63.929 Y56.071 E7.64646
G1 X63.929 Y66.071 E8.02494
G1 X83.929 Y66.071 E8.78189
G1 X83.929 Y73.929 E9.07929
G1 X46.071 Y73.929 E10.51211
G1 X46.071 Y36.071 E11.94494
G1 X53.822 Y36.071 E12.23828
G1 X54.643 Y35.357 F7800.000
G1 X54.643 Y55.357 F432.000 E12.99524
G1 X64.643 Y55.357 E13.37371
G1 X64.643 Y65.357 E13.75219
G1 X84.643 Y65.357 E14.50915
G1 X84.643 Y74.643 E14.86060
G1 X45.357 Y74.643 E16.34749
G1 X45.357 Y35.357 E17.83437
G1 X54.536 Y35.357 E18.18177
G1 X54.286 Y35.976 F7800.000
G1 X52.697 Y37.303
G1 X52.697 Y38.323 F1080.000 E18.22074
G1 X51.677 Y37.303 E18.27585
G1 X50.657 Y37.303 E18.31482
G1 X52.697 Y39.343 E18.42504
G1 X52.697 Y40.362 E18.46400
G1 X49.638 Y37.303 E18.62932
G1 X48.618 Y37.303 E18.66828
G1 X52.697 Y41.382 E18.88871
G1 X52.697 Y42.402 E18.92767
G1 X47.598 Y37.303 E19.20320
G1 X47.303 Y38.027 E19.23309
G1 X52.697 Y43.421 E19.52458
G1 X52.697 Y44.441 E19.56354
G1 X47.303 Y39.047 E19.85503
G1 X47.303 Y40.067 E19.89399
G1 X52.697 Y45.461 E20.18548
G1 X52.697 Y46.480 E20.22444
G1 X47.303 Y41.086 E20.51593
G1 X47.303 Y42.106 E20.55489
G1 X52.697 Y47.500 E20.84638
G1 X52.697 Y48.520 E20.88534
G1 X47.303 Y43.126 E21.17683
G1 X47.303 Y44.146 E21.21579
G1 X52.697 Y49.539 E21.50728
G1 X52.697 Y50.559 E21.54624
G1 X47.303 Y45.165 E21.83773
G1 X47.303 Y46.185 E21.87669
G1 X52.697 Y51.579 E22.16818
G1 X52.697 Y52.599 E22.20714
G1 X47.303 Y47.205 E22.49863
G1 X47.303 Y48.224 E22.53759
G1 X52.697 Y53.618 E22.82907
G1 X52.697 Y54.638 E22.86804
G1 X47.303 Y49.244 E23.15952
G1 X47.303 Y50.264 E23.19849
G1 X52.697 Y55.658 E23.48997
G1 X52.697 Y56.677 F7800.000
G1 X47.303 Y51.283 F1080.000 E23.78146
G1 X47.303 Y52.303 E23.82042
G1 X67.697 Y72.697 E24.92251
G1 X66.677 Y72.697 E24.96147
G1 X47.303 Y53.323 E26.00845
G1 X47.303 Y54.342 E26.04741
G1 X65.658 Y72.697 E27.03929
G1 X64.638 Y72.697 E27.07825
G1 X47.303 Y55.362 E28.01502
G1 X47.303 Y56.382 E28.05399
G1 X63.618 Y72.697 E28.93565
G1 X62.599 Y72.697 E28.97462
G1 X47.303 Y57.401 E29.80118
G1 X47.303 Y58.421 E29.84015
G1 X61.579 Y72.697 E30.61161
G1 X60.559 Y72.697 E30.65057
G1 X47.303 Y59.441 E31.36693
G1 X47.303 Y60.461 E31.40589
G1 X59.539 Y72.697 E32.06715
G1 X58.520 Y72.697 E32.10611
G1 X47.303 Y61.480 E32.71226
G1 X47.303 Y62.500 E32.75122
G1 X57.500 Y72.697 E33.30227
G1 X56.480 Y72.697 E33.34123
G1 X47.303 Y63.520 E33.83718
G1 X47.303 Y64.539 E33.87614
G1 X55.461 Y72.697 E34.31698
G1 X54.441 Y72.697 E34.35594
G1 X47.303 Y65.559 E34.74168
G1 X47.303 Y66.579 E34.78064
G1 X53.421 Y72.697 E35.11128
G1 X52.402 Y72.697 E35.15024
G1 X47.303 Y67.598 E35.42577
G1 X47.303 Y68.618 E35.46473
G1 X51.382 Y72.697 E35.68516
G1 X50.362 Y72.697 E35.72412
G1 X47.303 Y69.638 E35.88944
G1 X47.303 Y70.657 E35.92841
G1 X49.343 Y72.697 E36.03863
G1 X48.323 Y72.697 E36.07759
G1 X47.303 Y71.677 E36.13270
G1 X47.303 Y72.697 E36.17168
G1 X62.697 Y66.677 F7800.000
G1 X53.323 Y57.303 F1080.000 E36.67826
G1 X62.500 Y57.303 F7800.000
G1 X62.697 Y57.500 F1080.000 E36.68890
G1 X62.697 Y58.520 E36.72787
G1 X61.480 Y57.303 E36.79362
G1 X60.461 Y57.303 E36.83258
G1 X62.697 Y59.539 E36.95344
G1 X62.697 Y60.559 E36.99240
G1 X59.441 Y57.303 E37.16836
G1 X58.421 Y57.303 E37.20733
G1 X62.697 Y61.579 E37.43839
G1 X62.697 Y62.599 E37.47735
G1 X57.401 Y57.303 E37.76352
G1 X56.382 Y57.303 E37.80248
G1 X62.697 Y63.618 E38.14375
G1 X62.697 Y64.638 E38.18272
G1 X55.362 Y57.303 E38.57909
G1 X54.342 Y57.303 E38.61805
G1 X62.697 Y65.658 E39.06953
G1 X63.323 Y67.303 F7800.000
G1 X68.717 Y72.697 F1080.000 E39.36102
G1 X69.736 Y72.697 E39.39998
G1 X64.342 Y67.303 E39.69147
G1 X65.362 Y67.303 E39.73043
G1 X70.756 Y72.697 E40.02192
G1 X71.776 Y72.697 E40.06088
G1 X66.382 Y67.303 E40.35237
G1 X67.401 Y67.303 E40.39133
G1 X72.795 Y72.697 E40.68282
G1 X73.815 Y72.697 E40.72178
G1 X68.421 Y67.303 E41.01327
G1 X69.441 Y67.303 E41.05223
G1 X74.835 Y72.697 E41.34371
G1 X75.854 Y72.697 E41.38268
G1 X70.461 Y67.303 E41.67416
G1 X71.480 Y67.303 E41.71313
G1 X76.874 Y72.697 E42.00461
G1 X77.894 Y72.697 E42.04358
G1 X72.500 Y67.303 E42.33506
G1 X73.520 Y67.303 E42.37403
G1 X78.914 Y72.697 E42.66551
G1 X79.933 Y72.697 E42.70448
G1 X74.539 Y67.303 E42.99596
G1 X75.559 Y67.303 E43.03493
G1 X80.953 Y72.697 E43.32641
G1 X81.973 Y72.697 E43.36538
G1 X76.579 Y67.303 E43.65686
G1 X77.598 Y67.303 E43.69583
G1 X82.697 Y72.402 E43.97135
G1 X82.697 Y71.382 E44.01032
G1 X78.618 Y67.303 E44.23074
G1 X79.638 Y67.303 E44.26971
G1 X82.697 Y70.362 E44.43503
G1 X82.697 Y69.343 E44.47399
G1 X80.657 Y67.303 E44.58421
G1 X81.677 Y67.303 E44.62317
G1 X82.697 Y68.323 E44.67829
G1 X82.697 Y67.303 E44.71726
M106 S197
M104 S180 ; set temperature
G1 F1800.000 E43.71726
G92 E0
G1 Z0.600 F7800.000
G1 X46.571 Y36.571
G1 F1800.000 E1.00000
G1 X53.429 Y36.571 F1800.000 E1.11419
G1 X53.429 Y56.571 E1.44717
G1 X63.429 Y56.571 E1.61367
G1 X63.429 Y66.571 E1.78016
G1 X83.429 Y66.571 E2.11315
G1 X83.429 Y73.429 E2.22734
G1 X46.571 Y73.429 E2.84100
G1 X46.571 Y36.665 E3.45310
G1 X45.942 Y35.942 F7800.000
G1 X54.058 Y35.942 F1800.000 E3.58821
G1 X54.058 Y55.942 E3.92120
G1 X64.058 Y55.942 E4.08769
G1 X64.058 Y65.942 E4.25418
G1 X84.058 Y65.942 E4.58717
G1 X84.058 Y74.058 E4.72228
G1 X45.942 Y74.058 E5.35687
G1 X45.942 Y36.037 E5.98989
G1 X45.314 Y35.314 F7800.000
G1 X54.686 Y35.314 F1440.000 E6.14592
G1 X54.686 Y55.314 E6.47891
G1 X64.686 Y55.314 E6.64540
G1 X64.686 Y65.314 E6.81190
G1 X84.686 Y65.314 E7.14488
G1 X84.686 Y74.686 E7.30091
G1 X45.314 Y74.686 E7.95643
G1 X45.314 Y35.408 E8.61037
G1 X45.858 Y35.628 F7800.000
G1 X47.026 Y37.026
G1 X47.925 Y37.026 F3600.000 E8.62550
G1 X47.026 Y37.925 E8.64691
G1 X47.026 Y38.824 E8.66204
G1 X48.824 Y37.026 E8.70485
G1 X49.722 Y37.026 E8.71998
G1 X47.026 Y39.722 E8.78419
G1 X47.026 Y40.621 E8.79932
G1 X50.621 Y37.026 E8.88492
G1 X51.520 Y37.026 E8.90006
G1 X47.026 Y41.520 E9.00707
G1 X47.026 Y42.418 E9.02220
G1 X52.418 Y37.026 E9.15061
G1 X52.974 Y37.370 E9.16160
G1 X47.026 Y43.317 E9.30323
G1 X47.026 Y44.216 E9.31837
G1 X52.974 Y38.268 E9.46000
G1 X52.974 Y39.167 E9.47513
G1 X47.026 Y45.115 E9.61677
G1 X47.026 Y46.013 E9.63190
G1 X52.974 Y40.066 E9.77353
G1 X52.974 Y40.964 E9.78866
G1 X47.026 Y46.912 E9.93030
G1 X47.026 Y47.811 E9.94543
G1 X52.974 Y41.863 E10.08706
G1 X52.974 Y42.762 E10.10220
G1 X47.026 Y48.709 E10.24383
G1 X47.026 Y49.608 E10.25896
G1 X52.974 Y43.660 E10.40060
G1 X52.974 Y44.559 E10.41573
G1 X47.026 Y50.507 E10.55736
G1 X47.026 Y51.405 E10.57249
G1 X52.974 Y45.458 E10.71413
G1 X52.974 Y46.356 E10.72926
G1 X47.026 Y52.304 E10.87089
G1 X47.026 Y53.203 E10.88603
G1 X52.974 Y47.255 E11.02766
G1 X52.974 Y48.154 E11.04279
G1 X47.026 Y54.101 E11.18443
G1 X47.026 Y55.000 E11.19956
G1 X52.974 Y49.052 E11.34119
G1 X52.974 Y49.951 E11.35632
G1 X47.026 Y55.899 E11.49796
G1 X47.026 Y56.797 E11.51309
G1 X52.974 Y50.850 E11.65472
G1 X52.974 Y51.749 E11.66986
G1 X47.026 Y57.696 E11.81149
G1 X47.026 Y58.595 E11.82662
G1 X52.974 Y52.647 E11.96825
G1 X52.974 Y53.546 E11.98339
G1 X47.026 Y59.493 E12.12502
G1 X47.026 Y60.392 E12.14015
G1 X52.974 Y54.445 E12.28179
G1 X52.974 Y55.343 E12.29692
G1 X47.026 Y61.291 E12.43855
G1 X47.026 Y62.190 E12.45369
G1 X52.974 Y56.242 E12.59532
G1 X53.088 Y57.026 E12.60866
G1 X47.026 Y63.088 E12.75302
G1 X47.026 Y63.987 E12.76816
G1 X53.987 Y57.026 E12.93391
G1 X54.886 Y57.026 E12.94905
G1 X47.026 Y64.886 E13.13621
G1 X47.026 Y65.784 E13.15134
G1 X55.784 Y57.026 E13.35990
G1 X56.683 Y57.026 E13.37503
G1 X47.026 Y66.683 E13.60500
G1 X47.026 Y67.582 E13.62013
G1 X57.582 Y57.026 E13.87149
G1 X58.480 Y57.026 E13.88662
G1 X47.026 Y68.480 E14.15939
G1 X47.026 Y69.379 E14.17452
G1 X59.379 Y57.026 E14.46868
G1 X60.278 Y57.026 E14.48382
G1 X47.026 Y70.278 E14.79938
G1 X47.026 Y71.176 E14.81452
G1 X61.176 Y57.026 E15.15148
G1 X62.075 Y57.026 E15.16661
G1 X47.026 Y72.075 E15.52498
G1 X47.026 Y72.974 E15.54011
G1 X62.974 Y57.026 E15.91988
G1 X62.974 Y57.925 E15.93501
G1 X47.925 Y72.974 E16.29338
G1 X48.824 Y72.974 E16.30851
G1 X62.974 Y58.824 E16.64548
G1 X62.974 Y59.722 E16.66061
G1 X49.722 Y72.974 E16.97618
G1 X50.621 Y72.974 E16.99131
G1 X62.974 Y60.621 E17.28548
G1 X62.974 Y61.520 E17.30061
G1 X51.520 Y72.974 E17.57338
G1 X52.418 Y72.974 E17.58851
G1 X62.974 Y62.418 E17.83987
G1 X62.974 Y63.317 E17.85501
G1 X53.317 Y72.974 E18.08497
G1 X54.216 Y72.974 E18.10010
G1 X62.974 Y64.216 E18.30866
G1 X62.974 Y65.114 E18.32380
G1 X55.114 Y72.974 E18.51096
G1 X56.013 Y72.974 E18.52609
G1 X62.974 Y66.013 E18.69185
G1 X62.974 Y66.912 E18.70698
G1 X56.912 Y72.974 E18.85134
G1 X57.810 Y72.974 E18.86648
G1 X63.758 Y67.026 E19.00811
G1 X64.657 Y67.026 E19.02324
G1 X58.709 Y72.974 E19.16488
G1 X59.608 Y72.974 E19.18001
G1 X65.555 Y67.026 E19.32164
G1 X66.454 Y67.026 E19.33677
G1 X60.506 Y72.974 E19.47841
G1 X61.405 Y72.974 E19.49354
G1 X67.353 Y67.026 E19.63517
G1 X68.251 Y67.026 E19.65031
G1 X62.304 Y72.974 E19.79194
G1 X63.203 Y72.974 E19.80707
G1 X69.150 Y67.026 E19.94871
G1 X70.049 Y67.026 E19.96384
G1 X64.101 Y72.974 E20.10547
G1 X65.000 Y72.974 E20.12060
G1 X70.947 Y67.026 E20.26224
G1 X71.846 Y67.026 E20.27737
G1 X65.899 Y72.974 E20.41900
G1 X66.797 Y72.974 E20.43414
G1 X72.745 Y67.026 E20.57577
G1 X73.644 Y67.026 E20.59090
G1 X67.696 Y72.974 E20.73253
G1 X68.595 Y72.974 E20.74767
G1 X74.542 Y67.026 E20.88930
G1 X75.441 Y67.026 E20.90443
G1 X69.493 Y72.974 E21.04607
G1 X70.392 Y72.974 E21.06120
G1 X76.340 Y67.026 E21.20283
G1 X77.238 Y67.026 E21.21797
G1 X71.291 Y72.974 E21.35960
G1 X72.189 Y72.974 E21.37473
G1 X78.137 Y67.026 E21.51636
G1 X79.036 Y67.026 E21.53150
G1 X73.088 Y72.974 E21.67313
G1 X73.987 Y72.974 E21.68826
G1 X79.934 Y67.026 E21.82990
G1 X80.833 Y67.026 E21.84503
G1 X74.885 Y72.974 E21.98666
G1 X75.784 Y72.974 E22.00179
G1 X81.732 Y67.026 E22.14343
G1 X82.630 Y67.026 E22.15856
G1 X76.683 Y72.974 E22.30019
G1 X77.581 Y72.974 E22.31533
G1 X82.974 Y67.581 E22.44374
G1 X82.974 Y68.480 E22.45887
G1 X78.480 Y72.974 E22.56588
G1 X79.379 Y72.974 E22.58101
G1 X82.974 Y69.379 E22.66662
G1 X82.974 Y70.278 E22.68175
G1 X80.278 Y72.974 E22.74596
G1 X81.176 Y72.974 E22.76109
G1 X82.974 Y71.176 E22.80390
G1 X82.974 Y72.075 E22.81903
G1 X82.075 Y72.974 E22.84044
G1 X82.974 Y72.974 E22.85557
M106 S197
G1 F1800.000 E21.85557
