; generated by Slic3r 0.9.8 on 2013-03-04 at 18:29:30

; layer_height = 0.3
; perimeters = 3
; top_solid_layers = 3
; bottom_solid_layers = 3
; fill_density = 0.4
; perimeter_speed = 30
; infill_speed = 60
; travel_speed = 130
; scale = 1
; nozzle_diameter = 0.5
; filament_diameter = 3
; extrusion_multiplier = 1
; perimeters extrusion width = 0.70mm
; infill extrusion width = 0.70mm
; first layer extrusion width = 0.60mm

M107
M190 S80 ; wait for bed temperature to be reached
M104 S230 ; set temperature
G28 ; home all axes
M92 X64.8592 ; calibrate X
M92 Y64.8592 ; calibrate Y
M92 Z2387.0719 ; calibrate Z
M92 E487 ; calibrate E
M109 S230 ; wait for temperature to be reached
G90 ; use absolute coordinates
G21 ; set units to millimeters
G92 E0
M82 ; use absolute distances for extrusion
G1 F1800.000 E-1.00000
G92 E0
G1 Z0.300 F7800.000
G1 X92.487 Y75.907
G1 F1800.000 E1.00000
G1 X92.467 Y76.437 F540.000 E1.01302
G1 X92.357 Y77.227 E1.03261
G1 X92.227 Y77.737 E1.04553
G1 X91.957 Y78.487 E1.06510
G1 X91.737 Y78.967 E1.07807
G1 X91.467 Y79.427 E1.09116
G1 X91.007 Y80.067 E1.11052
G1 X90.647 Y80.467 E1.12373
G1 X90.067 Y81.007 E1.14319
G1 X89.647 Y81.317 E1.15601
G1 X88.967 Y81.737 E1.17563
G1 X88.487 Y81.957 E1.18860
G1 X87.737 Y82.227 E1.20817
G1 X87.227 Y82.357 E1.22109
G1 X86.437 Y82.467 E1.24068
G1 X85.907 Y82.487 E1.25370
G1 X44.087 Y82.487 E2.28055
G1 X43.547 Y82.467 E2.29382
G1 X43.287 Y82.437 E2.30024
G1 X42.757 Y82.347 E2.31344
G1 X41.977 Y82.137 E2.33328
G1 X41.477 Y81.947 E2.34641
G1 X40.997 Y81.717 E2.35948
G1 X40.527 Y81.437 E2.37291
G1 X40.087 Y81.137 E2.38599
G1 X39.677 Y80.787 E2.39922
G1 X39.297 Y80.417 E2.41225
G1 X38.777 Y79.797 E2.43212
G1 X38.477 Y79.347 E2.44540
G1 X38.217 Y78.877 E2.45858
G1 X37.997 Y78.387 E2.47177
G1 X37.897 Y78.137 E2.47838
G1 X37.737 Y77.627 E2.49151
G1 X37.617 Y77.107 E2.50461
G1 X37.517 Y76.307 E2.52441
G1 X37.507 Y76.037 E2.53104
G1 X37.617 Y70.467 E2.66783
G1 X37.707 Y69.557 E2.69029
G1 X38.597 Y64.047 E2.82733
G1 X38.797 Y63.167 E2.84949
G1 X40.437 Y57.827 E2.98665
G1 X40.767 Y56.967 E3.00927
G1 X43.137 Y51.907 E3.14647
G1 X43.577 Y51.117 E3.16867
G1 X46.617 Y46.437 E3.30570
G1 X47.177 Y45.697 E3.32849
G1 X50.847 Y41.487 E3.46562
G1 X51.487 Y40.847 E3.48785
G1 X55.697 Y37.177 E3.62498
G1 X56.517 Y36.567 E3.65008
G1 X61.107 Y33.587 E3.78445
G1 X61.907 Y33.137 E3.80699
G1 X66.967 Y30.767 E3.94418
G1 X67.827 Y30.437 E3.96680
G1 X73.167 Y28.797 E4.10396
G1 X74.047 Y28.597 E4.12612
G1 X79.557 Y27.707 E4.26317
G1 X80.467 Y27.617 E4.28562
G1 X85.767 Y27.507 E4.41578
G1 X86.307 Y27.517 E4.42905
G1 X87.107 Y27.617 E4.44884
G1 X87.627 Y27.737 E4.46195
G1 X88.137 Y27.897 E4.47507
G1 X88.877 Y28.217 E4.49487
G1 X89.347 Y28.477 E4.50805
G1 X89.797 Y28.777 E4.52133
G1 X90.217 Y29.117 E4.53460
G1 X90.607 Y29.487 E4.54780
G1 X91.137 Y30.087 E4.56746
G1 X91.437 Y30.527 E4.58053
G1 X91.717 Y30.997 E4.59397
G1 X91.947 Y31.477 E4.60704
G1 X92.137 Y31.977 E4.62017
G1 X92.347 Y32.757 E4.64000
G1 X92.437 Y33.287 E4.65320
G1 X92.467 Y33.547 E4.65963
G1 X92.487 Y34.087 E4.67290
G1 X92.487 Y75.820 E5.69762
G1 X92.487 Y75.907 E5.69975
G1 F1800.000 E4.69975
G92 E0
G1 X83.434 Y66.484 F7800.000
G1 F1800.000 E1.00000
G1 X77.726 Y66.484 F540.000 E1.14013
G1 X77.726 Y43.516 E1.70407
G1 X83.434 Y43.516 E1.84420
G1 X83.434 Y66.397 E2.40600
G1 X83.434 Y66.484 E2.40813
G1 X82.855 Y65.905 F7800.000
G1 X78.305 Y65.905 F540.000 E2.51985
G1 X78.305 Y44.095 E3.05537
G1 X82.855 Y44.095 E3.16709
G1 X82.855 Y65.818 E3.70049
G1 X82.855 Y65.905 E3.70262
G1 X82.855 Y66.484 F7800.000
G1 F1800.000 E2.70262
G92 E0
G1 X74.952 Y60.746 F7800.000
G1 F1800.000 E1.00000
G1 X73.125 Y63.125 F540.000 E1.07366
G1 X70.746 Y64.952 E1.14731
G1 X67.974 Y66.100 E1.22097
G1 X65.000 Y66.491 E1.29463
G1 X62.352 Y66.142 E1.36021
G1 X62.026 Y66.100 E1.36828
G1 X59.254 Y64.952 E1.44194
G1 X56.875 Y63.125 E1.51560
G1 X56.674 Y62.865 E1.52367
G1 X55.048 Y60.746 E1.58925
G1 X53.900 Y57.974 E1.66291
G1 X53.509 Y55.000 E1.73657
G1 X53.552 Y54.674 E1.74464
G1 X53.900 Y52.026 E1.81022
G1 X55.048 Y49.254 E1.88388
G1 X56.875 Y46.875 E1.95754
G1 X58.994 Y45.248 E2.02312
G1 X59.254 Y45.048 E2.03119
G1 X62.026 Y43.900 E2.10485
G1 X65.000 Y43.509 E2.17851
G1 X67.648 Y43.858 E2.24409
G1 X67.974 Y43.900 E2.25216
G1 X70.746 Y45.048 E2.32582
G1 X73.125 Y46.875 E2.39948
G1 X73.325 Y47.135 E2.40755
G1 X74.952 Y49.254 E2.47313
G1 X76.100 Y52.026 E2.54679
G1 X76.491 Y55.000 E2.62045
G1 X76.100 Y57.974 E2.69410
G1 X74.985 Y60.665 E2.76563
G1 X74.952 Y60.746 E2.76776
G1 X74.446 Y60.454 F7800.000
G1 X72.713 Y62.713 F540.000 E2.83768
G1 X70.454 Y64.446 E2.90759
G1 X67.823 Y65.536 E2.97751
G1 X65.000 Y65.908 E3.04743
G1 X62.427 Y65.569 E3.11114
G1 X62.177 Y65.536 E3.11734
G1 X59.546 Y64.446 E3.18726
G1 X57.287 Y62.713 E3.25717
G1 X57.133 Y62.513 E3.26337
G1 X55.554 Y60.454 E3.32709
G1 X54.464 Y57.823 E3.39701
G1 X54.092 Y55.000 E3.46692
G1 X54.125 Y54.750 E3.47312
G1 X54.464 Y52.177 E3.53684
G1 X55.554 Y49.546 E3.60676
G1 X57.287 Y47.287 E3.67667
G1 X59.346 Y45.707 E3.74039
G1 X59.546 Y45.554 E3.74659
G1 X62.177 Y44.464 E3.81650
G1 X65.000 Y44.092 E3.88642
G1 X67.573 Y44.431 E3.95014
G1 X67.823 Y44.464 E3.95634
G1 X70.454 Y45.554 E4.02625
G1 X72.713 Y47.287 E4.09617
G1 X72.867 Y47.487 E4.10237
G1 X74.446 Y49.546 E4.16609
G1 X75.536 Y52.177 E4.23600
G1 X75.908 Y55.000 E4.30592
G1 X75.536 Y57.823 E4.37584
G1 X74.479 Y60.374 E4.44362
G1 X74.446 Y60.454 E4.44575
G1 X74.713 Y60.967 F7800.000
G1 F1800.000 E3.44575
G92 E0
G1 X76.484 Y67.726 F7800.000
G1 F1800.000 E1.00000
G1 X76.484 Y73.434 F540.000 E1.14013
G1 X53.516 Y73.434 E1.70407
G1 X53.516 Y67.726 E1.84420
G1 X76.397 Y67.726 E2.40600
G1 X76.484 Y67.726 E2.40813
G1 X75.905 Y68.305 F7800.000
G1 X75.905 Y72.855 F540.000 E2.51985
G1 X54.095 Y72.855 E3.05537
G1 X54.095 Y68.305 E3.16709
G1 X75.818 Y68.305 E3.70049
G1 X75.905 Y68.305 E3.70262
G1 X76.484 Y68.305 F7800.000
G1 F1800.000 E2.70262
G92 E0
G1 X53.813 Y49.866 F7800.000
G1 F1800.000 E1.00000
G1 X54.096 Y50.041 F540.000 E1.00819
G1 X53.337 Y51.875 E1.05693
G1 X52.925 Y55.000 E1.13432
G1 X53.337 Y58.125 E1.21172
G1 X54.543 Y61.037 E1.28912
G1 X56.462 Y63.538 E1.36651
G1 X58.963 Y65.457 E1.44391
G1 X62.359 Y66.864 E1.53419
G1 X62.303 Y67.148 E1.54130
G1 X52.938 Y67.148 E1.77125
G1 X52.938 Y74.012 E1.93979
G1 X77.062 Y74.012 E2.53213
G1 X77.062 Y67.148 E2.70067
G1 X67.697 Y67.148 E2.93062
G1 X67.641 Y66.864 E2.93773
G1 X71.037 Y65.457 E3.02801
G1 X73.538 Y63.538 E3.10541
G1 X75.457 Y61.037 E3.18280
G1 X76.864 Y57.641 E3.27308
G1 X77.148 Y57.697 E3.28019
G1 X77.148 Y67.062 E3.51014
G1 X84.012 Y67.062 E3.67868
G1 X84.012 Y42.938 E4.27103
G1 X77.148 Y42.938 E4.43957
G1 X77.148 Y52.303 E4.66952
G1 X76.864 Y52.359 E4.67663
G1 X75.457 Y48.963 E4.76690
G1 X73.538 Y46.462 E4.84430
G1 X71.037 Y44.543 E4.92170
G1 X68.125 Y43.337 E4.99909
G1 X65.000 Y42.925 E5.07649
G1 X61.875 Y43.337 E5.15389
G1 X60.041 Y44.096 E5.20262
G1 X59.866 Y43.813 E5.21081
G1 X60.721 Y43.069 E5.23864
G1 X65.267 Y40.111 E5.37182
G1 X70.180 Y37.813 E5.50499
G1 X75.364 Y36.217 E5.63817
G1 X80.719 Y35.356 E5.77135
G1 X84.756 Y35.274 E5.87050
G1 X84.756 Y74.756 E6.83995
G1 X45.274 Y74.756 E7.80940
G1 X45.356 Y70.719 E7.90855
G1 X46.217 Y65.364 E8.04173
G1 X47.813 Y60.180 E8.17491
G1 X50.111 Y55.267 E8.30808
G1 X53.069 Y50.721 E8.44126
G1 X53.756 Y49.931 E8.46696
G1 X53.813 Y49.866 E8.46909
G1 X52.606 Y50.371 F7800.000
G1 X56.218 Y46.218 F540.000 E8.60424
G1 X60.371 Y42.606 E8.73940
G1 X64.986 Y39.604 E8.87455
G1 X69.971 Y37.271 E9.00971
G1 X75.232 Y35.652 E9.14486
G1 X80.667 Y34.778 E9.28002
G1 X85.335 Y34.683 E9.39466
G1 X85.335 Y75.335 E10.39281
G1 X44.683 Y75.335 E11.39096
G1 X44.778 Y70.667 E11.50560
G1 X45.652 Y65.232 E11.64076
G1 X47.271 Y59.971 E11.77592
G1 X49.604 Y54.986 E11.91107
G1 X52.559 Y50.444 E12.04410
G1 X52.606 Y50.371 E12.04623
G1 X52.143 Y50.022 F7800.000
G1 X55.808 Y45.808 F540.000 E12.18336
G1 X60.022 Y42.143 E12.32050
G1 X64.704 Y39.097 E12.45763
G1 X69.762 Y36.730 E12.59476
G1 X75.100 Y35.088 E12.73190
G1 X80.615 Y34.201 E12.86903
G1 X85.913 Y34.093 E12.99916
G1 X85.913 Y75.913 E14.02602
G1 X44.093 Y75.913 E15.05287
G1 X44.201 Y70.615 E15.18300
G1 X45.088 Y65.100 E15.32013
G1 X46.730 Y59.762 E15.45727
G1 X49.097 Y54.704 E15.59440
G1 X52.096 Y50.095 E15.72941
G1 X52.143 Y50.022 E15.73154
G1 X52.715 Y50.106 F7800.000
G1 F1800.000 E14.73154
G92 E0
G1 X77.825 Y74.362 F7800.000
G1 F1800.000 E1.00000
G1 X77.456 Y73.993 F1080.000 E1.01362
G1 X77.456 Y73.122 E1.03642
G1 X78.696 Y74.362 E1.08229
G1 X79.568 Y74.362 E1.10509
G1 X77.456 Y72.250 E1.18320
G1 X77.456 Y71.379 E1.20600
G1 X80.440 Y74.362 E1.31635
G1 X81.311 Y74.362 E1.33915
G1 X77.456 Y70.507 E1.48175
G1 X77.456 Y69.635 E1.50455
G1 X82.183 Y74.362 E1.67938
G1 X83.054 Y74.362 E1.70218
G1 X77.456 Y68.764 E1.90926
G1 X77.456 Y67.892 E1.93206
G1 X83.926 Y74.362 E2.17138
G1 X84.362 Y73.926 E2.18750
G1 X77.892 Y67.456 E2.42682
G1 X78.764 Y67.456 E2.44962
G1 X84.362 Y73.054 E2.65669
G1 X84.362 Y72.183 E2.67949
G1 X79.635 Y67.456 E2.85433
G1 X80.507 Y67.456 E2.87713
G1 X84.362 Y71.311 E3.01972
G1 X84.362 Y70.440 E3.04252
G1 X81.379 Y67.456 E3.15288
G1 X82.250 Y67.456 E3.17568
G1 X84.362 Y69.568 E3.25379
G1 X84.362 Y68.696 E3.27659
G1 X83.122 Y67.456 E3.32245
G1 X83.993 Y67.456 E3.34525
G1 X84.362 Y67.825 E3.35888
G1 F1800.000 E2.35888
G92 E0
G1 X76.385 Y60.421 F7800.000
G1 F1800.000 E1.00000
G1 X76.754 Y60.790 F1080.000 E1.01332
G1 X76.754 Y61.642 E1.03510
G1 X75.918 Y60.806 E1.06531
G1 X75.616 Y61.356 E1.08135
G1 X76.754 Y62.494 E1.12248
G1 X76.754 Y63.346 E1.14426
G1 X75.246 Y61.838 E1.19877
G1 X74.876 Y62.320 E1.21430
G1 X76.754 Y64.198 E1.28219
G1 X76.754 Y65.050 E1.30397
G1 X74.506 Y62.802 E1.38523
G1 X74.136 Y63.284 E1.40077
G1 X76.754 Y65.902 E1.49540
G1 X76.754 Y66.753 E1.51718
G1 X73.767 Y63.766 E1.62519
G1 X73.284 Y64.136 E1.64073
G1 X75.902 Y66.754 E1.73536
G1 X75.050 Y66.754 E1.75715
G1 X72.802 Y64.506 E1.83841
G1 X72.320 Y64.876 E1.85394
G1 X74.198 Y66.754 E1.92183
G1 X73.346 Y66.754 E1.94361
G1 X71.838 Y65.246 E1.99812
G1 X71.356 Y65.616 E2.01365
G1 X72.494 Y66.754 E2.05479
G1 X71.642 Y66.754 E2.07657
G1 X70.806 Y65.918 E2.10677
G1 X70.421 Y66.385 E2.12225
G1 X70.790 Y66.754 E2.13557
G1 X70.102 Y66.743 F7800.000
G1 X69.733 Y66.375 F360.000 E2.14836
G1 F1800.000 E1.14836
G92 E0
G1 X67.162 Y67.253 F7800.000
G1 F1800.000 E1.00000
G1 X66.630 Y66.721 F360.000 E1.02668
G1 X64.873 Y67.321 F7800.000
G1 X64.505 Y66.953 F360.000 E1.03946
G1 X63.355 Y67.253 F7800.000
G1 X62.823 Y66.721 F360.000 E1.06614
G1 F1800.000 E0.06614
G92 E0
G1 X60.182 Y66.743 F7800.000
G1 F1800.000 E1.00000
G1 X59.813 Y66.374 F360.000 E1.01279
G1 X59.128 Y66.044 F7800.000
G1 X59.622 Y66.537 F1080.000 E1.03003
G1 X59.015 Y66.754 E1.04594
G1 X56.564 Y64.303 E1.13155
G1 X55.697 Y63.436 F7800.000
G1 X49.539 Y57.278 F1080.000 E1.34665
G1 X49.277 Y57.838 E1.36194
G1 X58.192 Y66.754 E1.67334
G1 X57.369 Y66.754 E1.69367
G1 X49.014 Y58.399 E1.98549
G1 X48.752 Y58.960 E2.00078
G1 X56.546 Y66.754 E2.27301
G1 X55.723 Y66.754 E2.29334
G1 X48.490 Y59.520 E2.54599
G1 X48.227 Y60.081 E2.56128
G1 X54.900 Y66.754 E2.79434
G1 X54.077 Y66.754 E2.81467
G1 X48.018 Y60.695 E3.02629
G1 X47.825 Y61.324 E3.04255
G1 X53.254 Y66.754 E3.23219
G1 X52.544 Y66.866 E3.24995
G1 X47.631 Y61.954 E3.42154
G1 X47.437 Y62.583 E3.43780
G1 X52.544 Y67.689 E3.61615
G1 X52.544 Y68.512 E3.63648
G1 X47.244 Y63.212 E3.82159
G1 X47.050 Y63.842 E3.83785
G1 X52.544 Y69.335 E4.02973
G1 X52.544 Y70.158 E4.05006
G1 X46.856 Y64.471 E4.24871
G1 X46.663 Y65.100 E4.26497
G1 X52.544 Y70.981 E4.47038
G1 X52.544 Y71.804 E4.49071
G1 X46.522 Y65.783 E4.70103
G1 X46.408 Y66.492 E4.71876
G1 X52.544 Y72.627 E4.93307
G1 X52.544 Y73.450 E4.95340
G1 X46.294 Y67.200 E5.17168
G1 X46.180 Y67.909 E5.18942
G1 X52.544 Y74.273 E5.41169
G1 X51.809 Y74.362 E5.42996
G1 X46.066 Y68.618 E5.63057
G1 X45.952 Y69.327 E5.64830
G1 X50.986 Y74.362 E5.82415
G1 X50.163 Y74.362 E5.84447
G1 X45.838 Y70.036 E5.99555
G1 X45.746 Y70.767 E6.01375
G1 X49.340 Y74.362 E6.13930
G1 X48.517 Y74.362 E6.15963
G1 X45.729 Y71.574 E6.25701
G1 X45.713 Y72.380 E6.27694
G1 X47.694 Y74.362 E6.34615
G1 X46.871 Y74.362 E6.36648
G1 X45.697 Y73.187 E6.40752
G1 X45.680 Y73.993 E6.42744
G1 X46.048 Y74.362 E6.44031
G1 F1800.000 E5.44031
G92 E0
G1 X53.956 Y60.872 F7800.000
G1 F1800.000 E1.00000
G1 X49.801 Y56.717 F1080.000 E1.14513
G1 X50.064 Y56.156 E1.16042
G1 X53.374 Y59.467 E1.27606
G1 X52.922 Y58.192 E1.30948
G1 X50.326 Y55.596 E1.40015
G1 X50.625 Y55.071 E1.41506
G1 X52.797 Y57.244 E1.49094
G1 X52.672 Y56.296 E1.51455
G1 X50.949 Y54.573 E1.57474
G1 X51.273 Y54.074 E1.58943
G1 X52.548 Y55.348 E1.63393
G1 X52.605 Y54.583 E1.65289
G1 X51.598 Y53.576 E1.68808
G1 X51.922 Y53.077 E1.70277
G1 X52.701 Y53.856 E1.72996
G1 X52.797 Y53.128 E1.74808
G1 X52.428 Y52.760 E1.76095
G1 X52.592 Y52.537 F7800.000
G1 X52.373 Y52.319 F360.000 E1.76594
G1 X52.585 Y51.992 E1.77223
G1 X52.953 Y52.360 E1.78064
G1 X53.016 Y51.885 E1.78840
G1 X52.798 Y51.666 E1.79339
G1 F1800.000 E0.79339
G92 E0
G1 X54.398 Y49.605 F7800.000
G1 F1800.000 E1.00000
G1 X54.030 Y49.237 F360.000 E1.01280
G1 X55.072 Y48.440 F7800.000
G1 X54.854 Y48.222 F360.000 E1.01761
G1 X55.095 Y47.945 E1.02332
G1 X55.433 Y48.283 E1.03076
G1 X55.658 Y47.990 E1.03651
G1 X55.336 Y47.668 E1.04360
G1 X55.577 Y47.390 E1.04931
G1 X55.883 Y47.697 E1.05605
G1 X56.108 Y47.403 E1.06180
G1 X55.818 Y47.113 E1.06818
G1 X56.059 Y46.836 E1.07389
G1 X56.333 Y47.110 E1.07992
G1 X56.558 Y46.817 E1.08567
G1 X56.300 Y46.559 E1.09134
G1 X56.559 Y46.300 E1.09704
G1 X56.817 Y46.558 E1.10272
G1 X57.110 Y46.333 E1.10846
G1 X56.836 Y46.059 E1.11449
G1 X57.113 Y45.818 E1.12021
G1 X57.403 Y46.108 E1.12659
G1 X57.697 Y45.883 E1.13234
G1 X57.390 Y45.577 E1.13907
G1 X57.668 Y45.336 E1.14479
G1 X57.990 Y45.658 E1.15187
G1 X58.283 Y45.433 E1.15762
G1 X57.945 Y45.095 E1.16506
G1 X58.222 Y44.854 E1.17078
G1 X58.440 Y45.072 E1.17558
G1 X59.324 Y44.642 F7800.000
G1 X58.956 Y44.274 F360.000 E1.18837
G1 F1800.000 E0.18837
G92 E0
G1 X61.885 Y43.016 F7800.000
G1 F1800.000 E1.00000
G1 X61.666 Y42.798 F360.000 E1.00499
G1 X61.993 Y42.585 E1.01128
G1 X62.361 Y42.953 E1.01969
G1 X62.537 Y42.592 E1.02620
G1 X62.319 Y42.373 E1.03119
G1 X63.129 Y42.797 F7800.000
G1 X62.760 Y42.428 F1080.000 E1.04406
G1 X63.077 Y41.922 E1.05881
G1 X63.856 Y42.701 E1.08600
G1 X64.583 Y42.605 E1.10412
G1 X63.576 Y41.598 E1.13931
G1 X64.074 Y41.273 E1.15400
G1 X65.348 Y42.548 E1.19850
G1 X66.296 Y42.672 E1.22211
G1 X64.573 Y40.949 E1.28231
G1 X65.072 Y40.625 E1.29700
G1 X67.244 Y42.797 E1.37288
G1 X68.192 Y42.922 E1.39649
G1 X65.596 Y40.326 E1.48717
G1 X66.156 Y40.064 E1.50246
G1 X69.467 Y43.374 E1.61810
G1 X70.872 Y43.956 E1.65566
G1 X66.717 Y39.801 E1.80078
G1 X67.278 Y39.539 E1.81607
G1 X73.436 Y45.698 E2.03118
G1 X74.302 Y46.564 F7800.000
G1 X76.754 Y49.015 F1080.000 E2.11680
G1 X76.537 Y49.622 E2.13270
G1 X76.044 Y49.128 E2.14995
G1 X76.754 Y48.192 F7800.000
G1 X67.838 Y39.277 F1080.000 E2.46135
G1 X68.399 Y39.014 E2.47664
G1 X76.754 Y47.369 E2.76845
G1 X76.754 Y46.546 E2.78878
G1 X68.960 Y38.752 E3.06101
G1 X69.520 Y38.490 E3.07630
G1 X76.754 Y45.723 E3.32895
G1 X76.754 Y44.900 E3.34928
G1 X70.081 Y38.227 E3.58235
G1 X70.695 Y38.018 E3.59837
G1 X76.754 Y44.077 E3.80998
G1 X76.754 Y43.254 E3.83031
G1 X71.324 Y37.825 E4.01995
G1 X71.954 Y37.631 E4.03621
G1 X76.866 Y42.544 E4.20780
G1 X77.689 Y42.544 E4.22812
G1 X72.583 Y37.437 E4.40647
G1 X73.212 Y37.244 E4.42274
G1 X78.512 Y42.544 E4.60785
G1 X79.335 Y42.544 E4.62818
G1 X73.842 Y37.050 E4.82006
G1 X74.471 Y36.856 E4.83632
G1 X80.158 Y42.544 E5.03496
G1 X80.981 Y42.544 E5.05529
G1 X75.100 Y36.663 E5.26070
G1 X75.783 Y36.522 E5.27791
G1 X81.804 Y42.544 E5.48823
G1 X82.627 Y42.544 E5.50856
G1 X76.491 Y36.408 E5.72287
G1 X77.200 Y36.294 E5.74060
G1 X83.450 Y42.544 E5.95889
G1 X84.273 Y42.544 E5.97922
G1 X77.909 Y36.180 E6.20149
G1 X78.618 Y36.066 E6.21923
G1 X84.362 Y41.809 E6.41984
G1 X84.362 Y40.986 E6.44016
G1 X79.327 Y35.952 E6.61601
G1 X80.036 Y35.838 E6.63374
G1 X84.362 Y40.163 E6.78482
G1 X84.362 Y39.340 E6.80515
