; generated by Slic3r 1.0.0RC2 on 2014-03-08 at 10:08:19

; layer_height = 0.2937
; perimeters = 3
; top_solid_layers = 3
; bottom_solid_layers = 3
; fill_density = 0.3
; perimeter_speed = 30
; infill_speed = 60
; travel_speed = 130
; nozzle_diameter = 0.4
; filament_diameter = 2.88
; extrusion_multiplier = 1
; perimeters extrusion width = 0.40mm
; infill extrusion width = 0.44mm
; solid infill extrusion width = 0.44mm
; top infill extrusion width = 0.44mm
; first layer extrusion width = 0.59mm

G21 ; set units to millimeters
M107
M104 S205 ; set temperature
G28 ; home all axes
M92 X79.7957; calibrate X
M92 Y79.6685 ; calibrate Y
M92 Z2210.2522 ; calibrate Z
M92 E496.1314 ; calibrate E
M109 S205 ; wait for temperature to be reached
G90 ; use absolute coordinates
G92 E0
M82 ; use absolute distances for extrusion
G1 F1800.000 E-1.00000
G92 E0
G1 Z0.294 F7800.000
G1 X50.227 Y40.937 F7800.000
G1 E1.00000 F1800.000
G1 X50.937 Y40.227 E1.02477 F540.000
G1 X55.187 Y36.537 E1.16362
G1 X55.937 Y35.967 E1.18686
G1 X60.687 Y32.877 E1.32665
G1 X61.557 Y32.397 E1.35117
G1 X66.647 Y30.017 E1.48978
G1 X67.557 Y29.667 E1.51383
G1 X72.937 Y28.007 E1.65273
G1 X73.907 Y27.777 E1.67732
G1 X79.467 Y26.887 E1.81623
G1 X80.447 Y26.807 E1.84049
G1 X86.067 Y26.697 E1.97916
G1 X87.467 Y26.807 E2.01380
G1 X88.827 Y27.197 E2.04871
G1 X90.077 Y27.837 E2.08335
G1 X91.177 Y28.717 E2.11810
G1 X92.077 Y29.807 E2.15297
G1 X92.747 Y31.037 E2.18753
G1 X93.157 Y32.387 E2.22233
G1 X93.297 Y33.787 E2.25704
G1 X93.297 Y76.207 E3.30353
G1 X93.167 Y77.587 E3.33772
G1 X92.757 Y78.917 E3.37206
G1 X92.107 Y80.147 E3.40638
G1 X91.227 Y81.227 E3.44074
G1 X90.147 Y82.107 E3.47511
G1 X88.917 Y82.757 E3.50943
G1 X87.587 Y83.167 E3.54377
G1 X86.207 Y83.297 E3.57796
G1 X43.787 Y83.297 E4.62445
G1 X42.387 Y83.157 E4.65916
G1 X41.037 Y82.747 E4.69396
G1 X39.807 Y82.077 E4.72851
G1 X38.717 Y81.177 E4.76339
G1 X37.837 Y80.077 E4.79814
G1 X37.197 Y78.827 E4.83278
G1 X36.807 Y77.467 E4.86769
G1 X36.697 Y76.067 E4.90233
G1 X36.807 Y70.447 E5.04100
G1 X36.887 Y69.467 E5.06526
G1 X37.777 Y63.907 E5.20416
G1 X38.007 Y62.937 E5.22876
G1 X39.667 Y57.557 E5.36765
G1 X40.017 Y56.647 E5.39171
G1 X42.397 Y51.557 E5.53032
G1 X42.877 Y50.687 E5.55484
G1 X45.967 Y45.937 E5.69463
G1 X46.537 Y45.187 E5.71787
G1 X50.173 Y40.999 E5.85469
G1 X50.647 Y41.297 F7800.000
G1 X51.297 Y40.647 E5.87737 F540.000
G1 X55.547 Y36.957 E6.01622
G1 X56.237 Y36.427 E6.03768
G1 X60.987 Y33.337 E6.17748
G1 X61.787 Y32.897 E6.20000
G1 X66.877 Y30.517 E6.33862
G1 X67.717 Y30.187 E6.36088
G1 X73.097 Y28.527 E6.49978
G1 X73.997 Y28.327 E6.52252
G1 X79.557 Y27.437 E6.66143
G1 X80.457 Y27.347 E6.68375
G1 X86.077 Y27.237 E6.82242
G1 X87.377 Y27.347 E6.85460
G1 X88.627 Y27.707 E6.88669
G1 X89.777 Y28.297 E6.91858
G1 X90.787 Y29.117 E6.95067
G1 X91.627 Y30.107 E6.98270
G1 X92.247 Y31.247 E7.01471
G1 X92.627 Y32.497 E7.04695
G1 X92.757 Y33.787 E7.07893
G1 X92.757 Y76.207 E8.12541
G1 X92.627 Y77.487 E8.15715
G1 X92.257 Y78.717 E8.18884
G1 X91.647 Y79.847 E8.22052
G1 X90.837 Y80.837 E8.25208
G1 X89.847 Y81.647 E8.28363
G1 X88.717 Y82.257 E8.31531
G1 X87.487 Y82.627 E8.34700
G1 X86.207 Y82.757 E8.37874
G1 X43.787 Y82.757 E9.42522
G1 X42.497 Y82.627 E9.45721
G1 X41.247 Y82.247 E9.48944
G1 X40.107 Y81.627 E9.52145
G1 X39.117 Y80.787 E9.55348
G1 X38.297 Y79.777 E9.58557
G1 X37.707 Y78.627 E9.61746
G1 X37.347 Y77.377 E9.64955
G1 X37.237 Y76.077 E9.68174
G1 X37.347 Y70.457 E9.82041
G1 X37.437 Y69.557 E9.84272
G1 X38.327 Y63.997 E9.98163
G1 X38.527 Y63.097 E10.00437
G1 X40.187 Y57.717 E10.14327
G1 X40.517 Y56.877 E10.16553
G1 X42.897 Y51.787 E10.30415
G1 X43.337 Y50.987 E10.32667
G1 X46.427 Y46.237 E10.46647
G1 X46.957 Y45.547 E10.48793
G1 X50.593 Y41.359 E10.62476
G1 F1800.000 E9.62476
G92 E0
G1 X77.764 Y43.554 F7800.000
G1 E1.00000 F1800.000
G1 X83.396 Y43.554 E1.13893 F540.000
G1 X83.396 Y66.446 E1.70366
G1 X77.764 Y66.446 E1.84260
G1 X77.764 Y43.636 E2.40530
G1 X78.311 Y44.101 F7800.000
G1 X82.849 Y44.101 E2.51724 F378.000
G1 X82.849 Y65.899 E3.05497
G1 X78.311 Y65.899 E3.16691
G1 X78.311 Y44.183 E3.70262
G1 X78.311 Y43.554 F7800.000
G1 X73.293 Y47.155 F7800.000
G1 X74.919 Y49.273 E3.76850 F540.000
G1 X76.063 Y52.036 E3.84226
G1 X76.453 Y55.000 E3.91602
G1 X76.063 Y57.964 E3.98978
G1 X74.919 Y60.727 E4.06354
G1 X73.099 Y63.099 E4.13730
G1 X70.727 Y64.919 E4.21105
G1 X67.964 Y66.063 E4.28481
G1 X65.000 Y66.453 E4.35857
G1 X62.036 Y66.063 E4.43233
G1 X59.273 Y64.919 E4.50609
G1 X56.901 Y63.099 E4.57985
G1 X55.081 Y60.727 E4.65361
G1 X54.959 Y60.432 E4.66148
G1 X53.937 Y57.964 E4.72737
G1 X53.547 Y55.000 E4.80113
G1 X53.937 Y52.036 E4.87488
G1 X54.072 Y51.710 E4.88358
G1 X55.081 Y49.273 E4.94864
G1 X56.901 Y46.901 E5.02240
G1 X59.273 Y45.081 E5.09616
G1 X61.710 Y44.072 E5.16122
G1 X62.036 Y43.937 E5.16992
G1 X65.000 Y43.547 E5.24368
G1 X67.964 Y43.937 E5.31744
G1 X70.727 Y45.081 E5.39120
G1 X73.099 Y46.901 E5.46496
G1 X73.243 Y47.090 E5.47081
G1 X72.859 Y47.488 F7800.000
G1 X74.441 Y49.549 E5.53491 F378.000
G1 X75.530 Y52.179 E5.60512
G1 X75.901 Y55.000 E5.67532
G1 X75.530 Y57.821 E5.74553
G1 X74.441 Y60.451 E5.81573
G1 X72.708 Y62.708 E5.88594
G1 X70.451 Y64.441 E5.95614
G1 X67.821 Y65.530 E6.02635
G1 X65.000 Y65.901 E6.09655
G1 X62.179 Y65.530 E6.16675
G1 X59.549 Y64.441 E6.23696
G1 X57.292 Y62.708 E6.30716
G1 X55.559 Y60.451 E6.37737
G1 X55.465 Y60.222 E6.38347
G1 X54.470 Y57.821 E6.44757
G1 X54.099 Y55.000 E6.51778
G1 X54.470 Y52.179 E6.58798
G1 X54.578 Y51.919 E6.59490
G1 X55.559 Y49.549 E6.65819
G1 X57.292 Y47.292 E6.72839
G1 X59.549 Y45.559 E6.79860
G1 X61.919 Y44.578 E6.86188
G1 X62.179 Y44.470 E6.86880
G1 X65.000 Y44.099 E6.93900
G1 X67.821 Y44.470 E7.00921
G1 X70.451 Y45.559 E7.07941
G1 X72.708 Y47.292 E7.14962
G1 X72.809 Y47.423 E7.15369
G1 X73.401 Y47.416 F7800.000
G1 F1800.000 E6.15369
G92 E0
G1 X76.446 Y67.764 F7800.000
G1 E1.00000 F1800.000
G1 X76.446 Y73.396 E1.13893 F540.000
G1 X53.554 Y73.396 E1.70366
G1 X53.554 Y67.764 E1.84260
G1 X76.364 Y67.764 E2.40530
G1 X75.899 Y68.311 F7800.000
G1 X75.899 Y72.849 E2.51724 F378.000
G1 X54.101 Y72.849 E3.05497
G1 X54.101 Y68.311 E3.16691
G1 X75.817 Y68.311 E3.70262
G1 X76.446 Y68.311 F7800.000
G1 X76.993 Y67.217 F7800.000
G1 X66.796 Y67.217 E3.95417 F540.000
G1 X66.767 Y66.772 E3.96516
G1 X68.107 Y66.596 E3.99851
G1 X71.003 Y65.397 E4.07583
G1 X73.489 Y63.489 E4.15314
G1 X75.397 Y61.003 E4.23045
G1 X76.596 Y58.107 E4.30777
G1 X76.772 Y56.767 E4.34112
G1 X77.217 Y56.796 E4.35210
G1 X77.217 Y66.993 E4.60366
G1 X83.943 Y66.993 E4.76959
G1 X83.943 Y43.007 E5.36132
G1 X77.217 Y43.007 E5.52725
G1 X77.217 Y53.204 E5.77881
G1 X76.772 Y53.233 E5.78980
G1 X76.596 Y51.893 E5.82315
G1 X75.397 Y48.997 E5.90046
G1 X73.489 Y46.511 E5.97778
G1 X71.003 Y44.603 E6.05509
G1 X68.107 Y43.404 E6.13240
G1 X65.000 Y42.995 E6.20972
G1 X61.893 Y43.404 E6.28703
G1 X59.624 Y44.344 E6.34760
G1 X59.458 Y44.075 E6.35538
G1 X60.679 Y43.014 E6.39529
G1 X65.234 Y40.051 E6.52933
G1 X70.155 Y37.748 E6.66338
G1 X75.348 Y36.150 E6.79742
G1 X80.712 Y35.287 E6.93146
G1 X84.825 Y35.203 E7.03293
G1 X84.825 Y74.825 E8.01039
G1 X45.203 Y74.825 E8.98784
G1 X45.287 Y70.712 E9.08932
G1 X46.150 Y65.348 E9.22336
G1 X47.748 Y60.155 E9.35740
G1 X50.051 Y55.234 E9.49144
G1 X53.014 Y50.679 E9.62548
G1 X54.075 Y49.458 E9.66539
G1 X54.344 Y49.624 E9.67317
G1 X53.404 Y51.893 E9.73374
G1 X52.995 Y55.000 E9.81106
G1 X53.404 Y58.107 E9.88837
G1 X54.603 Y61.003 E9.96568
G1 X56.511 Y63.489 E10.04300
G1 X58.997 Y65.397 E10.12031
G1 X61.893 Y66.596 E10.19762
G1 X63.233 Y66.772 E10.23097
G1 X63.204 Y67.217 E10.24196
G1 X53.007 Y67.217 E10.49352
G1 X53.007 Y73.943 E10.65945
G1 X76.993 Y73.943 E11.25118
G1 X76.993 Y67.299 E11.41509
G1 X85.372 Y75.372 F7800.000
G1 X44.645 Y75.372 E12.41981 F540.000
G1 X44.741 Y70.663 E12.53601
G1 X45.616 Y65.223 E12.67193
G1 X47.236 Y59.958 E12.80785
G1 X49.571 Y54.967 E12.94377
G1 X52.576 Y50.349 E13.07969
G1 X56.192 Y46.192 E13.21561
G1 X60.349 Y42.576 E13.35154
G1 X60.655 Y42.377 E13.36054
G1 X64.967 Y39.571 E13.48746
G1 X69.958 Y37.236 E13.62338
G1 X75.223 Y35.616 E13.75930
G1 X80.663 Y34.741 E13.89522
G1 X85.372 Y34.645 E14.01142
G1 X85.372 Y75.290 E15.01412
G1 X85.920 Y75.920 F7800.000
G1 X44.087 Y75.920 E16.04612 F378.000
G1 X44.195 Y70.614 E16.17703
G1 X45.081 Y65.099 E16.31484
G1 X46.724 Y59.760 E16.45264
G1 X49.092 Y54.701 E16.59044
G1 X51.918 Y50.356 E16.71829
G1 X52.138 Y50.018 E16.72824
G1 X55.804 Y45.804 E16.86604
G1 X60.018 Y42.138 E17.00384
G1 X60.356 Y41.918 E17.01379
G1 X64.701 Y39.092 E17.14165
G1 X69.760 Y36.724 E17.27945
G1 X75.099 Y35.081 E17.41725
G1 X80.614 Y34.195 E17.55505
G1 X85.920 Y34.087 E17.68596
G1 X85.920 Y75.837 E18.71594
G1 X85.446 Y75.646 F7800.000
G1 F1800.000 E17.71594
G92 E0
G1 X59.492 Y66.575 F7800.000
G1 E1.00000 F1800.000
G1 X59.018 Y66.100 E1.01700 F1080.000
G1 X54.860 Y61.942 F7800.000
G1 X49.723 Y56.805 E1.20107 F1080.000
G1 X49.469 Y57.346 E1.21622
G1 X58.698 Y66.575 E1.54689
G1 X57.903 Y66.575 E1.56703
G1 X49.216 Y57.888 E1.87830
G1 X48.962 Y58.429 E1.89345
G1 X57.108 Y66.575 E2.18532
G1 X56.313 Y66.575 E2.20545
G1 X48.709 Y58.971 E2.47793
G1 X48.456 Y59.512 E2.49307
G1 X55.519 Y66.575 E2.74614
G1 X54.724 Y66.575 E2.76628
G1 X48.202 Y60.053 E2.99995
G1 X47.987 Y60.632 E3.01561
G1 X53.929 Y66.575 E3.22853
G1 X53.134 Y66.575 E3.24867
G1 X47.800 Y61.240 E3.43981
G1 X47.613 Y61.848 E3.45592
G1 X52.365 Y66.600 E3.62620
G1 X52.365 Y67.395 E3.64634
G1 X47.426 Y62.456 E3.82332
G1 X47.239 Y63.063 E3.83943
G1 X52.365 Y68.190 E4.02311
G1 X52.365 Y68.984 E4.04324
G1 X47.052 Y63.671 E4.23362
G1 X46.865 Y64.279 E4.24973
G1 X52.365 Y69.779 E4.44682
G1 X52.365 Y70.574 E4.46695
G1 X46.677 Y64.887 E4.67074
G1 X46.498 Y65.502 E4.68698
G1 X52.365 Y71.369 E4.89719
G1 X52.365 Y72.163 E4.91732
G1 X46.388 Y66.187 E5.13147
G1 X46.278 Y66.872 E5.14904
G1 X52.365 Y72.958 E5.36713
G1 X52.365 Y73.753 E5.38727
G1 X46.168 Y67.556 E5.60931
G1 X46.058 Y68.241 E5.62688
G1 X52.000 Y74.183 E5.83980
G1 X51.205 Y74.183 E5.85993
G1 X45.948 Y68.926 E6.04832
G1 X45.838 Y69.610 E6.06589
G1 X50.411 Y74.183 E6.22974
G1 X49.616 Y74.183 E6.24987
G1 X45.728 Y70.295 E6.38919
G1 X45.650 Y71.012 E6.40746
G1 X48.821 Y74.183 E6.52110
G1 X48.026 Y74.183 E6.54123
G1 X45.634 Y71.791 E6.62696
G1 X45.618 Y72.569 E6.64669
G1 X47.231 Y74.183 E6.70451
G1 X46.437 Y74.183 E6.72464
G1 X45.602 Y73.348 E6.75455
G1 X45.586 Y74.127 E6.77429
G1 X45.642 Y74.183 E6.77628
G1 X53.843 Y60.131 F7800.000
G1 X49.976 Y56.263 E6.91486 F1080.000
G1 X50.229 Y55.722 E6.93001
G1 X53.281 Y58.774 E7.03937
G1 X52.975 Y57.673 E7.06833
G1 X50.508 Y55.206 E7.15672
G1 X50.821 Y54.725 E7.17127
G1 X52.855 Y56.758 E7.24412
G1 X52.294 Y55.403 F7800.000
G1 X51.135 Y54.243 E7.28567 F1080.000
G1 X51.448 Y53.762 E7.30022
G1 X52.387 Y54.700 E7.33386
G1 X52.479 Y53.998 E7.35181
G1 X51.761 Y53.280 E7.37753
G1 X52.074 Y52.799 E7.39208
G1 X52.572 Y53.296 E7.40990
G1 X52.664 Y52.594 E7.42784
G1 X52.592 Y52.521 E7.43044
G1 X52.638 Y52.036 F7800.000
G1 X52.603 Y52.001 E7.43109 F360.000
G1 X52.765 Y51.752 E7.43497 F360.000
G1 X53.010 Y51.997 E7.43951 F360.000
G1 X53.090 Y51.667 E7.44396 F360.000
G1 X52.927 Y51.503 E7.44698 F360.000
G1 X53.088 Y51.255 E7.45086 F360.000
G1 X53.210 Y51.377 E7.45311 F360.000
G1 X53.330 Y51.087 E7.45722 F360.000
G1 X53.250 Y51.006 E7.45871 F360.000
G1 X53.451 Y50.797 E7.46250 F360.000
G1 X53.439 Y50.785 E7.46271 F360.000
G1 X54.532 Y49.097 F7800.000
G1 X54.434 Y48.999 E7.46908 F360.000
G1 X55.141 Y48.264 E7.51598 F360.000
G1 X55.177 Y48.300 E7.51834 F360.000
G1 X55.746 Y47.510 F7800.000
G1 X55.638 Y47.402 E7.52025 F360.000
G1 X55.821 Y47.193 E7.52372 F360.000
G1 X56.037 Y47.409 E7.52754 F360.000
G1 X56.207 Y47.187 E7.53103 F360.000
G1 X56.003 Y46.983 E7.53464 F360.000
G1 X56.185 Y46.773 E7.53811 F360.000
G1 X56.377 Y46.965 E7.54150 F360.000
G1 X56.547 Y46.743 E7.54500 F360.000
G1 X56.371 Y46.567 E7.54812 F360.000
G1 X56.567 Y46.371 E7.55158 F360.000
G1 X56.743 Y46.547 E7.55470 F360.000
G1 X56.965 Y46.377 E7.55820 F360.000
G1 X56.773 Y46.185 E7.56159 F360.000
G1 X56.983 Y46.003 E7.56506 F360.000
G1 X57.187 Y46.207 E7.56866 F360.000
G1 X57.409 Y46.037 E7.57216 F360.000
G1 X57.193 Y45.821 E7.57598 F360.000
G1 X57.403 Y45.638 E7.57945 F360.000
G1 X57.510 Y45.746 E7.58136 F360.000
G1 X58.264 Y45.141 F7800.000
G1 X58.999 Y44.434 E7.62825 F360.000
G1 X59.097 Y44.532 E7.63462 F360.000
G1 X58.300 Y45.177 F7800.000
G1 X58.264 Y45.141 E7.63699 F360.000
G1 X60.785 Y43.439 F7800.000
G1 X61.006 Y43.250 E7.64079 F360.000
G1 X61.087 Y43.330 E7.64228 F360.000
G1 X61.255 Y43.088 E7.64614 F360.000
G1 X61.377 Y43.210 E7.64839 F360.000
G1 X61.503 Y42.927 E7.65245 F360.000
G1 X61.667 Y43.090 E7.65548 F360.000
G1 X61.752 Y42.765 E7.65987 F360.000
G1 X61.997 Y43.010 E7.66441 F360.000
G1 X62.036 Y42.638 E7.66931 F360.000
G1 X62.001 Y42.603 E7.66995 F360.000
G1 X60.797 Y43.451 F7800.000
G1 X60.785 Y43.439 E7.67016 F360.000
G1 F1800.000 E6.67016
G92 E0
G1 X76.638 Y50.528 F7800.000
G1 E1.00000 F1800.000
G1 X76.650 Y50.540 E1.00042 F360.000
G1 X76.813 Y51.413 F7800.000
G1 X76.826 Y51.426 E1.00064 F360.000
G1 X77.166 Y53.743 F7800.000
G1 X77.229 Y53.806 E1.00326 F360.000
G1 X76.915 Y54.412 E1.02329 F360.000
G1 X77.229 Y54.727 E1.03632 F360.000
G1 X76.945 Y55.362 E1.05676 F360.000
G1 X77.229 Y55.647 E1.06856 F360.000
G1 X76.838 Y56.176 E1.08786 F360.000
G1 X76.902 Y56.239 E1.09051 F360.000
G1 X76.813 Y58.587 F7800.000
G1 X76.823 Y58.597 E1.09068 F360.000
G1 X76.638 Y59.472 F7800.000
G1 X76.647 Y59.481 E1.09100 F360.000
G1 F1800.000 E0.09100
G92 E0
G1 X84.320 Y59.390 F7800.000
G1 E1.00000 F1800.000
G1 X84.448 Y59.130 E1.00357 F360.000
G1 X84.320 Y59.003 E1.00580 F360.000
G1 X84.448 Y58.743 E1.00937 F360.000
G1 X84.320 Y58.615 E1.01159 F360.000
G1 X84.448 Y58.355 E1.01517 F360.000
G1 X84.320 Y58.228 E1.01739 F360.000
G1 X84.448 Y57.968 E1.02096 F360.000
G1 X84.320 Y57.841 E1.02319 F360.000
G1 X84.448 Y57.581 E1.02676 F360.000
G1 X84.320 Y57.454 E1.02898 F360.000
G1 X84.448 Y57.194 E1.03256 F360.000
G1 X84.320 Y57.066 E1.03478 F360.000
G1 X84.448 Y56.806 E1.03835 F360.000
G1 X84.320 Y56.679 E1.04058 F360.000
G1 X84.448 Y56.419 E1.04415 F360.000
G1 X84.320 Y56.292 E1.04637 F360.000
G1 X84.448 Y56.032 E1.04995 F360.000
G1 X84.320 Y55.904 E1.05217 F360.000
G1 X84.448 Y55.645 E1.05574 F360.000
G1 X84.320 Y55.517 E1.05797 F360.000
G1 X84.448 Y55.257 E1.06154 F360.000
G1 X84.320 Y55.130 E1.06376 F360.000
G1 X84.448 Y54.870 E1.06734 F360.000
G1 X84.320 Y54.743 E1.06956 F360.000
G1 X84.448 Y54.483 E1.07313 F360.000
G1 X84.320 Y54.355 E1.07536 F360.000
G1 X84.448 Y54.095 E1.07893 F360.000
G1 X84.320 Y53.968 E1.08115 F360.000
G1 X84.448 Y53.708 E1.08473 F360.000
G1 X84.320 Y53.581 E1.08695 F360.000
G1 X84.448 Y53.321 E1.09052 F360.000
G1 X84.320 Y53.194 E1.09275 F360.000
G1 X84.448 Y52.934 E1.09632 F360.000
G1 X84.320 Y52.806 E1.09854 F360.000
G1 X84.448 Y52.546 E1.10212 F360.000
G1 X84.320 Y52.419 E1.10434 F360.000
G1 X84.448 Y52.159 E1.10791 F360.000
G1 X84.320 Y52.032 E1.11014 F360.000
G1 X84.448 Y51.772 E1.11371 F360.000
G1 X84.320 Y51.644 E1.11593 F360.000
G1 X84.448 Y51.384 E1.11951 F360.000
G1 X84.320 Y51.257 E1.12173 F360.000
G1 X84.448 Y50.997 E1.12530 F360.000
G1 X84.320 Y50.870 E1.12753 F360.000
G1 X84.448 Y50.610 E1.13110 F360.000
G1 X84.320 Y50.483 E1.13332 F360.000
G1 X84.448 Y50.223 E1.13690 F360.000
G1 X84.320 Y50.095 E1.13912 F360.000
G1 X84.448 Y49.835 E1.14269 F360.000
G1 X84.320 Y49.708 E1.14492 F360.000
G1 X84.448 Y49.448 E1.14849 F360.000
G1 X84.320 Y49.321 E1.15071 F360.000
G1 X84.448 Y49.061 E1.15429 F360.000
G1 X84.320 Y48.934 E1.15651 F360.000
G1 X84.448 Y48.674 E1.16008 F360.000
G1 X84.320 Y48.546 E1.16231 F360.000
G1 X84.448 Y48.286 E1.16588 F360.000
G1 X84.320 Y48.159 E1.16810 F360.000
G1 X84.448 Y47.899 E1.17168 F360.000
G1 X84.320 Y47.772 E1.17390 F360.000
G1 X84.448 Y47.512 E1.17747 F360.000
G1 X84.320 Y47.384 E1.17970 F360.000
G1 X84.448 Y47.124 E1.18327 F360.000
G1 X84.320 Y46.997 E1.18549 F360.000
G1 X84.448 Y46.737 E1.18907 F360.000
G1 X84.320 Y46.610 E1.19129 F360.000
G1 X84.448 Y46.350 E1.19486 F360.000
