; generated by Slic3r 0.9.9 on 2013-04-21 at 15:20:15

; layer_height = 0.30
; perimeters = 2
; top_solid_layers = 2
; bottom_solid_layers = 2
; fill_density = 0.1
; perimeter_speed = 30
; infill_speed = 30
; travel_speed = 130
; nozzle_diameter = 0.4
; filament_diameter = 2.9
; extrusion_multiplier = 1
; perimeters extrusion width = 0.42mm
; infill extrusion width = 0.42mm
; solid infill extrusion width = 0.42mm
; top infill extrusion width = 0.42mm
; support material extrusion width = 0.42mm
; first layer extrusion width = 0.80mm

G21 ; set units to millimeters
M107
M190 S45 ; wait for bed temperature to be reached
M104 S180 ; set temperature
G28 ; home all axes
M92 X83.0055 ; calibrate X
M92 Y82.8824 ; calibrate Y
M92 Z1543.1410 ; calibrate Z
M92 E569 ; calibrate E
M109 S180 ; wait for temperature to be reached
G90 ; use absolute coordinates
G92 E0
M82 ; use absolute distances for extrusion
G1 F1800.000 E-1.00000
G92 E0
G1 Z0.400 F7800.000
G1 X47.592 Y23.634
G1 F1800.000 E1.00000
G1 X47.962 Y23.104 F540.000 E1.02795
G1 X48.372 Y22.604 E1.05592
G1 X49.062 Y21.924 E1.09782
G1 X49.562 Y21.514 E1.12578
G1 X86.462 Y-6.426 E3.12751
G1 X86.962 Y-6.776 E3.15390
G1 X87.472 Y-7.086 E3.17971
G1 X88.012 Y-7.356 E3.20583
G1 X88.852 Y-7.696 E3.24502
G1 X89.432 Y-7.866 E3.27116
G1 X90.322 Y-8.046 E3.31043
G1 X90.622 Y-8.086 E3.32352
G1 X91.522 Y-8.136 E3.36250
G1 X92.132 Y-8.116 E3.38889
G1 X92.732 Y-8.056 E3.41497
G1 X93.032 Y-8.006 E3.42813
G1 X93.912 Y-7.796 E3.46725
G1 X94.762 Y-7.496 E3.50624
G1 X95.582 Y-7.106 E3.54551
G1 X96.352 Y-6.636 E3.58452
G1 X97.072 Y-6.076 E3.62397
G1 X97.512 Y-5.666 E3.64998
G1 X119.372 Y16.194 E4.98699
G1 X119.782 Y16.634 E5.01300
G1 X120.162 Y17.104 E5.03914
G1 X120.662 Y17.854 E5.07812
G1 X120.952 Y18.384 E5.10425
G1 X121.312 Y19.204 E5.14298
G1 X121.502 Y19.784 E5.16938
G1 X121.652 Y20.364 E5.19529
G1 X121.792 Y21.254 E5.23425
G1 X121.822 Y21.554 E5.24729
G1 X121.842 Y22.154 E5.27325
G1 X121.822 Y22.754 E5.29922
G1 X121.752 Y23.354 E5.32534
G1 X121.652 Y23.944 E5.35122
G1 X121.502 Y24.524 E5.37713
G1 X121.312 Y25.094 E5.40312
G1 X121.082 Y25.654 E5.42930
G1 X120.812 Y26.194 E5.45541
G1 X120.502 Y26.714 E5.48159
G1 X93.272 Y65.944 E7.54688
G1 X92.642 Y66.744 E7.59092
G1 X92.162 Y67.234 E7.62059
G1 X91.912 Y67.464 E7.63528
G1 X91.382 Y67.894 E7.66480
G1 X25.852 Y116.644 E11.19708
G1 X25.352 Y116.964 E11.22276
G1 X24.832 Y117.244 E11.24830
G1 X24.292 Y117.494 E11.27404
G1 X24.012 Y117.604 E11.28705
G1 X23.162 Y117.864 E11.32549
G1 X22.292 Y118.044 E11.36391
G1 X21.992 Y118.084 E11.37700
G1 X21.402 Y118.124 E11.40258
G1 X21.102 Y118.134 E11.41556
G1 X20.512 Y118.114 E11.44109
G1 X20.212 Y118.094 E11.45409
G1 X19.622 Y118.014 E11.47984
G1 X18.762 Y117.814 E11.51803
G1 X17.912 Y117.524 E11.55687
G1 X17.372 Y117.284 E11.58243
G1 X16.592 Y116.854 E11.62095
G1 X16.102 Y116.514 E11.64674
G1 X15.632 Y116.154 E11.67234
G1 X14.982 Y115.544 E11.71090
G1 X14.592 Y115.104 E11.73632
G1 X14.222 Y114.634 E11.76219
G1 X13.742 Y113.884 E11.80070
G1 X13.462 Y113.354 E11.82663
G1 X13.342 Y113.084 E11.83941
G1 X13.122 Y112.534 E11.86503
G1 X12.942 Y111.964 E11.89088
G1 X8.392 Y93.084 E12.73078
G1 X8.252 Y92.394 E12.76123
G1 X8.202 Y92.044 E12.77652
G1 X8.152 Y91.334 E12.80730
G1 X8.232 Y86.104 E13.03352
G1 X8.292 Y85.474 E13.06089
G1 X8.392 Y84.844 E13.08848
G1 X8.542 Y84.234 E13.11564
G1 X8.742 Y83.634 E13.14300
G1 X8.982 Y83.044 E13.17054
G1 X9.262 Y82.484 E13.19762
G1 X9.592 Y81.944 E13.22499
G1 X47.533 Y23.724 E16.23041
G1 X48.192 Y24.024 F7800.000
G1 X48.372 Y23.744 F540.000 E16.24480
G1 X48.572 Y23.484 E16.25899
G1 X49.012 Y22.974 E16.28812
G1 X49.482 Y22.504 E16.31687
G1 X49.992 Y22.084 E16.34544
G1 X86.892 Y-5.856 E18.34717
G1 X87.372 Y-6.186 E18.37236
G1 X87.872 Y-6.486 E18.39758
G1 X88.392 Y-6.746 E18.42272
G1 X88.932 Y-6.966 E18.44794
G1 X89.772 Y-7.216 E18.48584
G1 X90.052 Y-7.276 E18.49823
G1 X90.632 Y-7.366 E18.52361
G1 X91.212 Y-7.416 E18.54879
G1 X92.082 Y-7.406 E18.58642
G1 X92.942 Y-7.296 E18.62391
G1 X93.512 Y-7.166 E18.64920
G1 X94.072 Y-6.996 E18.67451
G1 X94.882 Y-6.666 E18.71234
G1 X95.392 Y-6.396 E18.73729
G1 X95.892 Y-6.086 E18.76274
G1 X96.352 Y-5.746 E18.78747
G1 X96.802 Y-5.366 E18.81295
G1 X119.072 Y16.904 E20.17503
G1 X119.622 Y17.574 E20.21252
G1 X119.952 Y18.054 E20.23771
G1 X120.242 Y18.564 E20.26309
G1 X120.492 Y19.084 E20.28804
G1 X120.702 Y19.624 E20.31310
G1 X120.942 Y20.464 E20.35088
G1 X121.082 Y21.324 E20.38856
G1 X121.122 Y21.904 E20.41371
G1 X121.122 Y22.484 E20.43879
G1 X121.072 Y23.064 E20.46397
G1 X120.982 Y23.634 E20.48892
G1 X120.852 Y24.194 E20.51379
G1 X120.772 Y24.474 E20.52638
G1 X120.462 Y25.294 E20.56429
G1 X120.202 Y25.814 E20.58944
G1 X119.912 Y26.314 E20.61444
G1 X92.692 Y65.534 E22.67912
G1 X92.112 Y66.274 E22.71979
G1 X91.442 Y66.934 E22.76046
G1 X90.952 Y67.324 E22.78755
G1 X25.432 Y116.064 E26.31923
G1 X24.952 Y116.364 E26.34371
G1 X24.692 Y116.504 E26.35648
G1 X24.182 Y116.764 E26.38124
G1 X23.912 Y116.874 E26.39385
G1 X23.102 Y117.144 E26.43077
G1 X22.252 Y117.324 E26.46835
G1 X21.402 Y117.414 E26.50532
G1 X20.542 Y117.404 E26.54251
G1 X19.962 Y117.344 E26.56773
G1 X19.682 Y117.294 E26.58003
G1 X19.122 Y117.174 E26.60480
G1 X18.842 Y117.094 E26.61739
G1 X18.032 Y116.804 E26.65460
G1 X17.512 Y116.554 E26.67956
G1 X17.012 Y116.274 E26.70434
G1 X16.312 Y115.784 E26.74129
G1 X15.662 Y115.214 E26.77868
G1 X15.262 Y114.794 E26.80377
G1 X15.082 Y114.574 E26.81606
G1 X14.732 Y114.114 E26.84106
G1 X14.422 Y113.634 E26.86577
G1 X14.022 Y112.864 E26.90330
G1 X13.812 Y112.334 E26.92795
G1 X13.632 Y111.794 E26.95257
G1 X9.002 Y92.544 E27.80884
G1 X8.892 Y91.774 E27.84248
G1 X8.872 Y91.384 E27.85937
G1 X8.952 Y86.114 E28.08732
G1 X8.972 Y85.804 E28.10075
G1 X9.052 Y85.194 E28.12736
G1 X9.272 Y84.294 E28.16743
G1 X9.372 Y83.994 E28.18110
G1 X9.602 Y83.424 E28.20769
G1 X10.022 Y82.594 E28.24792
G1 X48.133 Y24.114 E31.26677
G1 F1800.000 E30.26677
G92 E0
G1 X50.898 Y70.640 F7800.000
G1 F1800.000 E1.00000
G1 X51.562 Y70.686 F540.000 E1.02879
G1 X52.188 Y70.903 E1.05744
G1 X52.745 Y71.275 E1.08641
G1 X53.176 Y71.779 E1.11510
G1 X53.472 Y72.378 E1.14396
G1 X53.597 Y73.031 E1.17273
G1 X53.551 Y73.695 E1.20154
G1 X53.334 Y74.328 E1.23047
G1 X52.958 Y74.882 E1.25944
G1 X52.455 Y75.313 E1.28809
G1 X51.860 Y75.606 E1.31676
G1 X51.203 Y75.734 E1.34570
G1 X50.541 Y75.685 E1.37443
G1 X49.910 Y75.468 E1.40325
G1 X49.356 Y75.098 E1.43207
G1 X48.921 Y74.591 E1.46097
G1 X48.629 Y73.996 E1.48964
G1 X48.500 Y73.341 E1.51853
G1 X48.546 Y72.674 E1.54742
G1 X48.767 Y72.045 E1.57628
G1 X49.142 Y71.493 E1.60514
G1 X49.642 Y71.058 E1.63376
G1 X50.242 Y70.762 E1.66273
G1 X50.793 Y70.659 E1.68696
G1 X51.222 Y70.058 F7800.000
G1 F1800.000 E0.68696
G92 E0
G1 X17.671 Y90.101 F7800.000
G1 F1800.000 E1.00000
G1 X17.724 Y87.001 F540.000 E1.13408
G1 X50.127 Y54.599 E3.11589
G1 X54.882 Y32.324 E4.10092
G1 X55.107 Y32.306 E4.11066
G1 X59.966 Y44.696 E4.68625
G1 X91.133 Y17.454 E6.47652
G1 X92.407 Y2.823 E7.11168
G1 X92.765 Y2.784 E7.12726
G1 X97.050 Y16.540 E7.75037
G1 X110.352 Y20.988 E8.35695
G1 X110.309 Y21.335 E8.37207
G1 X96.071 Y22.478 E8.98986
G1 X80.424 Y46.185 E10.21832
G1 X84.902 Y60.113 E10.85101
G1 X68.605 Y60.651 E11.55621
G1 X54.140 Y75.116 E12.44092
G1 X53.875 Y74.951 E12.45442
G1 X54.257 Y73.839 E12.50527
G1 X54.316 Y72.987 E12.54217
G1 X54.155 Y72.148 E12.57915
G1 X53.777 Y71.383 E12.61606
G1 X53.223 Y70.736 E12.65287
G1 X52.509 Y70.258 E12.69005
G1 X51.707 Y69.980 E12.72677
G1 X50.857 Y69.921 E12.76361
G1 X50.014 Y70.078 E12.80068
G1 X49.243 Y70.459 E12.83790
G1 X48.603 Y71.014 E12.87453
G1 X48.124 Y71.721 E12.91144
G1 X47.840 Y72.529 E12.94848
G1 X47.781 Y73.385 E12.98562
G1 X47.946 Y74.226 E13.02268
G1 X48.320 Y74.987 E13.05935
G1 X48.878 Y75.638 E13.09642
G1 X49.591 Y76.114 E13.13349
G1 X50.396 Y76.390 E13.17029
G1 X51.246 Y76.454 E13.20716
G1 X52.811 Y76.147 E13.27612
G1 X52.914 Y76.341 E13.28565
G1 X22.093 Y107.162 E15.17073
G1 X21.886 Y94.813 E15.70490
G1 X25.511 Y94.894 E15.86173
G1 X25.536 Y91.242 E16.01971
G1 X29.047 Y91.424 E16.17176
G1 X28.970 Y87.778 E16.32949
G1 X32.540 Y87.873 E16.48394
G1 X32.554 Y84.197 E16.64295
G1 X36.100 Y84.356 E16.79643
G1 X36.046 Y80.710 E16.95412
G1 X39.605 Y80.817 E17.10813
G1 X39.602 Y77.195 E17.26478
G1 X43.130 Y77.268 E17.41738
G1 X43.229 Y68.853 E17.78136
G1 X36.691 Y68.819 E18.06411
G1 X36.861 Y72.600 E18.22782
G1 X33.129 Y72.232 E18.39002
G1 X33.318 Y76.131 E18.55883
G1 X29.608 Y75.743 E18.72018
G1 X29.802 Y79.595 E18.88697
G1 X26.089 Y79.325 E19.04798
G1 X26.216 Y83.191 E19.21526
G1 X22.490 Y82.883 E19.37696
G1 X22.693 Y86.577 E19.53695
G1 X19.069 Y86.421 E19.69383
G1 X19.067 Y90.169 E19.85588
G1 X17.778 Y90.106 E19.91169
G1 X16.945 Y90.781 F7800.000
G1 X17.015 Y86.700 F432.000 E20.08819
G1 X49.472 Y54.243 E22.07334
G1 X54.721 Y29.662 E23.16037
G1 X54.833 Y29.653 E23.16524
G1 X60.261 Y43.490 E23.80806
G1 X90.447 Y17.105 E25.54198
G1 X91.841 Y1.088 E26.23729
G1 X93.503 Y2.750 E26.33892
G1 X97.624 Y15.978 E26.93814
G1 X111.308 Y20.555 E27.56218
G1 X112.619 Y21.866 E27.64240
G1 X96.475 Y23.162 E28.34287
G1 X81.209 Y46.293 E29.54146
G1 X85.871 Y60.795 E30.20027
G1 X68.910 Y61.355 E30.93421
G1 X21.408 Y108.858 E33.83959
G1 X21.159 Y94.082 E34.47871
G1 X24.802 Y94.164 E34.63629
G1 X24.827 Y90.490 E34.79522
G1 X28.317 Y90.671 E34.94634
G1 X28.240 Y87.044 E35.10324
G1 X31.829 Y87.140 E35.25850
G1 X31.843 Y83.450 E35.41809
G1 X35.374 Y83.609 E35.57096
G1 X35.320 Y79.974 E35.72816
G1 X38.890 Y80.081 E35.88262
G1 X38.888 Y76.466 E36.03898
G1 X42.424 Y76.539 E36.19197
G1 X42.506 Y69.563 E36.49370
G1 X37.438 Y69.537 E36.71288
G1 X37.612 Y73.392 E36.87978
G1 X33.883 Y73.024 E37.04185
G1 X34.072 Y76.928 E37.21087
G1 X30.363 Y76.540 E37.37215
G1 X30.556 Y80.366 E37.53782
G1 X26.829 Y80.095 E37.69943
G1 X26.956 Y83.969 E37.86706
G1 X23.248 Y83.663 E38.02797
G1 X23.450 Y87.324 E38.18658
G1 X19.783 Y87.167 E38.34531
G1 X19.780 Y90.918 E38.50754
G1 X17.052 Y90.786 E38.62569
G1 X17.319 Y90.172 F7800.000
G1 F1800.000 E37.62569
G92 E0
G1 X22.590 Y105.933 F7800.000
G1 F1800.000 E1.00000
G1 X23.096 Y105.428 F540.000 E1.03092
G1 X22.573 Y104.905 E1.06291
G1 X22.556 Y103.877 E1.10739
G1 X23.601 Y104.923 E1.17136
G1 X24.106 Y104.417 E1.20228
G1 X22.539 Y102.849 E1.29823
G1 X22.521 Y101.822 E1.34272
G1 X24.612 Y103.912 E1.47064
G1 X25.117 Y103.407 E1.50156
G1 X22.504 Y100.794 E1.66147
G1 X22.487 Y99.766 E1.70595
G1 X25.622 Y102.901 E1.89783
G1 X26.127 Y102.396 E1.92876
G1 X22.469 Y98.738 E2.15262
G1 X22.452 Y97.710 E2.19710
G1 X26.633 Y101.891 E2.45294
G1 X27.138 Y101.386 E2.48386
G1 X22.435 Y96.683 E2.77168
G1 X22.418 Y95.655 E2.81617
G1 X27.643 Y100.880 E3.13597
G1 X28.149 Y100.375 E3.16689
G1 X23.132 Y95.359 E3.47388
G1 X24.166 Y95.382 E3.51862
G1 X28.654 Y99.870 E3.79327
G1 X29.159 Y99.365 E3.82419
G1 X25.200 Y95.405 E4.06650
G1 X26.027 Y95.221 E4.10315
G1 X29.664 Y98.859 E4.32578
G1 X30.170 Y98.354 E4.35670
G1 X26.033 Y94.218 E4.60983
G1 X26.040 Y93.214 E4.65326
G1 X30.675 Y97.849 E4.93688
G1 X31.180 Y97.343 E4.96780
G1 X26.047 Y92.211 E5.28192
G1 X26.666 Y91.819 E5.31361
G1 X31.685 Y96.838 E5.62079
G1 X32.191 Y96.333 E5.65172
G1 X27.732 Y91.874 E5.92458
G1 X28.798 Y91.930 E5.97077
G1 X32.696 Y95.828 E6.20932
G1 X33.201 Y95.322 E6.24024
G1 X29.571 Y91.692 E6.46243
G1 X29.549 Y90.659 E6.50712
G1 X33.707 Y94.817 E6.76156
G1 X34.212 Y94.312 E6.79249
G1 X29.527 Y89.627 E7.07919
G1 X29.505 Y88.595 E7.12387
G1 X34.717 Y93.806 E7.44283
G1 X35.222 Y93.301 E7.47375
G1 X30.251 Y88.330 E7.77798
G1 X31.289 Y88.358 E7.82293
G1 X35.728 Y92.796 E8.09454
G1 X36.233 Y92.291 E8.12546
G1 X32.328 Y88.385 E8.36445
G1 X33.057 Y88.104 E8.39828
G1 X36.738 Y91.785 E8.62356
G1 X37.244 Y91.280 E8.65448
G1 X33.061 Y87.097 E8.91045
G1 X33.065 Y86.091 E8.95401
G1 X37.749 Y90.775 E9.24067
G1 X38.254 Y90.270 E9.27159
G1 X33.069 Y85.084 E9.58893
G1 X33.764 Y84.769 E9.62197
G1 X38.759 Y89.764 E9.92766
G1 X39.265 Y89.259 E9.95858
G1 X34.822 Y84.817 E10.23043
G1 X35.881 Y84.864 E10.27627
G1 X39.770 Y88.754 E10.51429
G1 X40.275 Y88.248 E10.54521
G1 X36.621 Y84.594 E10.76885
G1 X36.606 Y83.568 E10.81324
G1 X40.780 Y87.743 E11.06874
G1 X41.286 Y87.238 E11.09966
G1 X36.590 Y82.543 E11.38700
G1 X36.575 Y81.517 E11.43139
G1 X41.791 Y86.733 E11.75059
G1 X42.296 Y86.227 E11.78151
G1 X37.336 Y81.267 E12.08507
G1 X38.378 Y81.298 E12.13018
G1 X42.802 Y85.722 E12.40090
G1 X43.307 Y85.217 E12.43182
G1 X39.420 Y81.330 E12.66970
G1 X40.123 Y81.022 E12.70291
G1 X43.812 Y84.711 E12.92868
G1 X44.317 Y84.206 E12.95960
G1 X40.122 Y80.011 E13.21635
G1 X40.121 Y79.000 E13.26011
G1 X44.823 Y83.701 E13.54782
G1 X45.328 Y83.196 E13.57875
G1 X40.121 Y77.988 E13.89743
G1 X40.882 Y77.740 E13.93211
G1 X45.833 Y82.690 E14.23509
G1 X46.339 Y82.185 E14.26601
G1 X41.914 Y77.761 E14.53675
G1 X42.946 Y77.782 E14.58142
G1 X46.844 Y81.680 E14.81993
G1 X47.349 Y81.175 E14.85085
G1 X43.645 Y77.471 E15.07753
G1 X43.657 Y76.472 E15.12075
G1 X47.854 Y80.669 E15.37763
G1 X48.360 Y80.164 E15.40855
G1 X43.669 Y75.473 E15.69563
G1 X43.680 Y74.474 E15.73886
G1 X48.865 Y79.659 E16.05614
G1 X49.370 Y79.153 E16.08706
G1 X43.692 Y73.475 E16.43455
G1 X43.704 Y72.476 E16.47778
G1 X49.875 Y78.648 E16.85547
G1 X50.381 Y78.143 E16.88639
G1 X43.716 Y71.478 E17.29428
G1 X43.727 Y70.479 E17.33751
G1 X47.405 Y74.156 E17.56255
G1 X47.287 Y73.028 E17.61164
G1 X43.739 Y69.480 E17.82877
G1 X43.751 Y68.481 E17.87199
G1 X47.423 Y72.154 E18.09675
G1 X47.701 Y71.421 E18.13065
G1 X40.869 Y64.589 E18.54880
G1 X40.364 Y65.094 E18.57972
G1 X43.607 Y68.337 E18.77820
G1 X42.591 Y68.332 E18.82216
G1 X39.858 Y65.599 E18.98940
G1 X39.353 Y66.105 E19.02032
G1 X41.575 Y68.327 E19.15631
G1 X40.559 Y68.321 E19.20027
G1 X38.848 Y66.610 E19.30501
G1 X38.342 Y67.115 E19.33593
G1 X39.543 Y68.316 E19.40943
G1 X38.528 Y68.311 E19.45339
G1 X37.837 Y67.620 E19.49564
G1 X37.332 Y68.126 E19.52656
G1 X37.512 Y68.305 E19.53757
G1 X41.374 Y64.083 F7800.000
G1 X48.110 Y70.819 F540.000 E19.94979
G1 X48.618 Y70.316 E19.98071
G1 X41.879 Y63.578 E20.39307
G1 X42.385 Y63.073 E20.42399
G1 X49.210 Y69.898 E20.84167
G1 X49.895 Y69.573 E20.87450
G1 X42.890 Y62.568 E21.30323
G1 X43.395 Y62.062 E21.33415
G1 X50.748 Y69.415 E21.78410
G1 X51.812 Y69.468 E21.83021
G1 X43.900 Y61.557 E22.31436
G1 X44.406 Y61.052 E22.34528
G1 X55.939 Y72.585 E23.05108
G1 X55.434 Y73.090 E23.08200
G1 X54.728 Y72.384 E23.12520
G1 X56.444 Y72.080 F7800.000
G1 X44.911 Y60.546 F540.000 E23.83100
G1 X45.416 Y60.041 E23.86192
G1 X56.949 Y71.574 E24.56771
G1 X57.455 Y71.069 E24.59864
G1 X45.922 Y59.536 E25.30443
G1 X46.427 Y59.031 E25.33535
G1 X57.960 Y70.564 E26.04115
G1 X58.465 Y70.058 E26.07207
G1 X46.932 Y58.525 E26.77787
G1 X47.437 Y58.020 E26.80879
G1 X58.970 Y69.553 E27.51458
G1 X59.476 Y69.048 E27.54551
G1 X47.943 Y57.515 E28.25130
G1 X48.448 Y57.010 E28.28222
G1 X59.981 Y68.543 E28.98802
G1 X60.486 Y68.037 E29.01894
G1 X48.953 Y56.504 E29.72474
G1 X49.459 Y55.999 E29.75566
G1 X60.992 Y67.532 E30.46146
G1 X61.497 Y67.027 E30.49238
G1 X49.964 Y55.494 E31.19817
G1 X50.469 Y54.988 E31.22909
G1 X62.002 Y66.521 E31.93489
G1 X62.507 Y66.016 E31.96581
G1 X50.732 Y54.241 E32.68641
G1 X50.910 Y53.408 E32.72326
G1 X63.013 Y65.511 E33.46390
G1 X63.518 Y65.006 E33.49483
G1 X51.088 Y52.576 E34.25551
G1 X51.266 Y51.743 E34.29236
G1 X64.023 Y64.500 E35.07309
G1 X64.529 Y63.995 E35.10401
G1 X51.444 Y50.910 E35.90478
G1 X51.621 Y50.077 E35.94163
G1 X65.034 Y63.490 E36.76244
G1 X65.539 Y62.985 E36.79336
G1 X51.799 Y49.245 E37.63422
G1 X51.977 Y48.412 E37.67107
G1 X66.044 Y62.479 E38.53196
G1 X66.550 Y61.974 E38.56288
G1 X52.155 Y47.579 E39.44382
G1 X52.332 Y46.746 E39.48067
G1 X67.055 Y61.469 E40.38165
G1 X67.560 Y60.963 E40.41257
G1 X52.510 Y45.913 E41.33360
G1 X52.688 Y45.081 E41.37045
G1 X68.065 Y60.458 E42.31151
G1 X68.746 Y60.128 E42.34424
G1 X52.866 Y44.248 E43.31609
G1 X53.044 Y43.415 E43.35294
G1 X69.724 Y60.096 E44.37377
G1 X70.703 Y60.064 E44.41612
G1 X53.221 Y42.582 E45.48594
G1 X53.399 Y41.750 E45.52279
G1 X71.681 Y60.031 E46.64159
G1 X72.659 Y59.999 E46.68395
G1 X53.577 Y40.917 E47.85174
