; generated by Slic3r 0.9.8 on 2013-03-16 at 11:10:15

; layer_height = 0.2
; perimeters = 3
; top_solid_layers = 3
; bottom_solid_layers = 3
; fill_density = 0.3
; perimeter_speed = 15
; infill_speed = 30
; travel_speed = 65
; scale = 1
; nozzle_diameter = 0.5
; filament_diameter = 3
; extrusion_multiplier = 1
; perimeters extrusion width = 0.80mm
; infill extrusion width = 0.80mm
; first layer extrusion width = 0.40mm

M107
M190 S70 ; wait for bed temperature to be reached
M104 S230 ; set temperature
G28 ; home all axes
M92 X63.0159 ; calibrate X
M92 Y62.8937 ; calibrate Y
M92 Z2387.0719 ; calibrate Z
M92 E569 ; calibrate E
M109 S230 ; wait for temperature to be reached
G90 ; use absolute coordinates
G21 ; set units to millimeters
G92 E0
M82 ; use absolute distances for extrusion
G1 F1800.000 E-1.00000
G92 E0
G1 Z0.200 F3900.000
G1 X38.040 Y76.474
G1 F1800.000 E1.00000
G1 X37.000 Y76.424 F360.000 E1.01242
G1 X35.980 Y76.314 E1.02465
G1 X35.050 Y76.154 E1.03590
G1 X34.450 Y76.024 E1.04322
G1 X33.440 Y75.744 E1.05572
G1 X32.450 Y75.404 E1.06820
G1 X31.490 Y74.994 E1.08065
G1 X30.610 Y74.554 E1.09239
G1 X29.750 Y74.064 E1.10419
G1 X28.920 Y73.524 E1.11600
G1 X28.400 Y73.144 E1.12368
G1 X27.840 Y72.684 E1.13232
G1 X27.240 Y72.114 E1.14219
G1 X26.560 Y71.324 E1.15462
G1 X26.110 Y70.654 E1.16424
G1 X25.840 Y70.134 E1.17123
G1 X25.590 Y69.554 E1.17876
G1 X25.260 Y68.564 E1.19121
G1 X25.160 Y68.114 E1.19670
G1 X25.080 Y67.634 E1.20251
G1 X25.030 Y66.914 E1.21111
G1 X25.040 Y52.914 E1.37806
G1 X25.100 Y52.054 E1.38834
G1 X25.180 Y51.474 E1.39532
G1 X25.420 Y50.424 E1.40817
G1 X25.600 Y49.854 E1.41529
G1 X25.950 Y48.954 E1.42681
G1 X26.210 Y48.424 E1.43385
G1 X26.650 Y47.664 E1.44432
G1 X26.980 Y47.174 E1.45137
G1 X27.610 Y46.394 E1.46332
G1 X28.010 Y45.964 E1.47033
G1 X28.620 Y45.384 E1.48036
G1 X28.850 Y45.194 E1.48392
G1 X37.720 Y38.164 E1.61889
G1 X38.810 Y37.324 E1.63530
G1 X39.550 Y36.824 E1.64595
G1 X40.960 Y35.994 E1.66546
G1 X42.190 Y35.374 E1.68188
G1 X43.010 Y35.024 E1.69252
G1 X44.570 Y34.464 E1.71228
G1 X45.430 Y34.214 E1.72296
G1 X45.850 Y34.114 E1.72811
G1 X47.080 Y33.854 E1.74310
G1 X47.960 Y33.714 E1.75373
G1 X49.210 Y33.574 E1.76873
G1 X50.590 Y33.524 E1.78519
G1 X79.400 Y33.524 E2.12875
G1 X80.780 Y33.574 E2.14522
G1 X82.030 Y33.714 E2.16022
G1 X83.270 Y33.924 E2.17521
G1 X84.560 Y34.214 E2.19098
G1 X85.810 Y34.594 E2.20656
G1 X86.980 Y35.024 E2.22142
G1 X87.800 Y35.374 E2.23206
G1 X88.240 Y35.584 E2.23787
G1 X89.030 Y35.994 E2.24848
G1 X90.440 Y36.824 E2.26800
G1 X91.180 Y37.324 E2.27865
G1 X91.570 Y37.614 E2.28444
G1 X101.370 Y45.384 E2.43358
G1 X101.980 Y45.964 E2.44362
G1 X102.380 Y46.394 E2.45062
G1 X103.010 Y47.174 E2.46258
G1 X103.340 Y47.664 E2.46962
G1 X103.660 Y48.214 E2.47721
G1 X104.110 Y49.134 E2.48942
G1 X104.330 Y49.684 E2.49649
G1 X104.640 Y50.664 E2.50874
G1 X104.770 Y51.244 E2.51583
G1 X104.890 Y51.984 E2.52477
G1 X104.950 Y52.894 E2.53565
G1 X104.970 Y56.244 E2.57560
G1 X104.960 Y66.774 E2.70116
G1 X104.900 Y67.664 E2.71180
G1 X104.870 Y67.874 E2.71433
G1 X104.630 Y68.914 E2.72706
G1 X104.300 Y69.824 E2.73860
G1 X103.940 Y70.554 E2.74831
G1 X103.620 Y71.054 E2.75539
G1 X103.240 Y71.564 E2.76297
G1 X102.530 Y72.344 E2.77555
G1 X101.980 Y72.834 E2.78433
G1 X101.500 Y73.214 E2.79163
G1 X101.070 Y73.524 E2.79796
G1 X100.240 Y74.064 E2.80976
G1 X99.380 Y74.554 E2.82157
G1 X98.500 Y74.994 E2.83330
G1 X97.540 Y75.404 E2.84575
G1 X96.550 Y75.744 E2.85823
G1 X95.540 Y76.024 E2.87073
G1 X94.620 Y76.214 E2.88193
G1 X93.600 Y76.364 E2.89422
G1 X92.570 Y76.454 E2.90655
G1 X91.960 Y76.474 E2.91383
G1 X38.103 Y76.474 E3.55607
G1 X38.040 Y76.474 E3.55682
G1 F1800.000 E2.55682
G92 E0
G1 X48.177 Y56.460 F3900.000
G1 F1800.000 E1.00000
G1 X47.840 Y56.289 F360.000 E1.00451
G1 X47.200 Y55.883 E1.01354
G1 X46.899 Y55.650 E1.01807
G1 X46.345 Y55.130 E1.02713
G1 X46.094 Y54.845 E1.03167
G1 X45.648 Y54.233 E1.04070
G1 X45.453 Y53.904 E1.04526
G1 X45.131 Y53.216 E1.05431
G1 X45.004 Y52.860 E1.05883
G1 X44.813 Y52.126 E1.06787
G1 X44.719 Y51.372 E1.07693
G1 X44.707 Y50.992 E1.08146
G1 X44.719 Y50.611 E1.08601
G1 X44.813 Y49.860 E1.09504
G1 X45.003 Y49.126 E1.10408
G1 X45.281 Y48.421 E1.11311
G1 X45.453 Y48.082 E1.11765
G1 X45.863 Y47.440 E1.12673
G1 X46.094 Y47.141 E1.13123
G1 X46.614 Y46.587 E1.14029
G1 X46.899 Y46.336 E1.14483
G1 X47.511 Y45.892 E1.15384
G1 X48.177 Y45.524 E1.16291
G1 X48.528 Y45.373 E1.16747
G1 X49.247 Y45.139 E1.17648
G1 X49.618 Y45.057 E1.18102
G1 X50.369 Y44.961 E1.19005
G1 X50.750 Y44.949 E1.19459
G1 X51.511 Y44.997 E1.20368
G1 X52.253 Y45.139 E1.21270
G1 X52.974 Y45.373 E1.22174
G1 X53.325 Y45.524 E1.22629
G1 X53.666 Y45.700 E1.23087
G1 X54.301 Y46.102 E1.23983
G1 X54.603 Y46.336 E1.24438
G1 X55.158 Y46.858 E1.25347
G1 X55.640 Y47.440 E1.26248
G1 X55.853 Y47.755 E1.26702
G1 X56.047 Y48.082 E1.27155
G1 X56.370 Y48.767 E1.28058
G1 X56.605 Y49.491 E1.28966
G1 X56.687 Y49.863 E1.29420
G1 X56.781 Y50.611 E1.30320
G1 X56.793 Y50.992 E1.30774
G1 X56.745 Y51.750 E1.31679
G1 X56.605 Y52.495 E1.32584
G1 X56.370 Y53.219 E1.33492
G1 X56.218 Y53.567 E1.33945
G1 X56.047 Y53.904 E1.34395
G1 X55.640 Y54.546 E1.35302
G1 X55.158 Y55.128 E1.36202
G1 X54.888 Y55.399 E1.36658
G1 X54.301 Y55.884 E1.37567
G1 X53.987 Y56.095 E1.38017
G1 X53.662 Y56.289 E1.38469
G1 X52.977 Y56.612 E1.39372
G1 X52.253 Y56.847 E1.40279
G1 X51.884 Y56.929 E1.40730
G1 X51.507 Y56.990 E1.41185
G1 X50.750 Y57.035 E1.42090
G1 X49.994 Y56.989 E1.42993
G1 X49.618 Y56.929 E1.43447
G1 X49.246 Y56.847 E1.43901
G1 X48.883 Y56.740 E1.44353
G1 X48.235 Y56.485 E1.45184
G1 X48.177 Y56.460 E1.45259
G1 X48.357 Y56.078 F3900.000
G1 X48.043 Y55.919 F360.000 E1.45679
G1 X47.447 Y55.542 E1.46520
G1 X47.168 Y55.325 E1.46941
G1 X46.653 Y54.842 E1.47784
G1 X46.419 Y54.576 E1.48206
G1 X46.004 Y54.006 E1.49046
G1 X45.823 Y53.701 E1.49469
G1 X45.523 Y53.062 E1.50311
G1 X45.405 Y52.730 E1.50732
G1 X45.227 Y52.047 E1.51573
G1 X45.139 Y51.345 E1.52416
G1 X45.128 Y50.992 E1.52838
G1 X45.139 Y50.638 E1.53260
G1 X45.227 Y49.939 E1.54100
G1 X45.405 Y49.256 E1.54942
G1 X45.663 Y48.600 E1.55782
G1 X45.823 Y48.285 E1.56204
G1 X46.203 Y47.688 E1.57048
G1 X46.419 Y47.410 E1.57467
G1 X46.902 Y46.895 E1.58310
G1 X47.168 Y46.661 E1.58732
G1 X47.738 Y46.248 E1.59571
G1 X48.357 Y45.906 E1.60415
G1 X48.682 Y45.765 E1.60837
G1 X49.351 Y45.548 E1.61677
G1 X49.697 Y45.471 E1.62099
G1 X50.396 Y45.381 E1.62939
G1 X50.750 Y45.370 E1.63361
G1 X51.457 Y45.415 E1.64206
G1 X52.149 Y45.548 E1.65046
G1 X52.820 Y45.765 E1.65887
G1 X53.145 Y45.906 E1.66310
G1 X53.462 Y46.068 E1.66734
G1 X54.054 Y46.444 E1.67570
G1 X54.334 Y46.661 E1.67993
G1 X54.850 Y47.145 E1.68837
G1 X55.299 Y47.688 E1.69677
G1 X55.497 Y47.981 E1.70099
G1 X55.677 Y48.285 E1.70520
G1 X55.978 Y48.922 E1.71360
G1 X56.196 Y49.596 E1.72204
G1 X56.273 Y49.941 E1.72626
G1 X56.361 Y50.638 E1.73464
G1 X56.372 Y50.992 E1.73886
G1 X56.327 Y51.697 E1.74729
G1 X56.196 Y52.391 E1.75570
G1 X55.978 Y53.064 E1.76414
G1 X55.836 Y53.387 E1.76835
G1 X55.677 Y53.701 E1.77255
G1 X55.299 Y54.298 E1.78098
G1 X54.850 Y54.841 E1.78937
G1 X54.600 Y55.091 E1.79360
G1 X54.054 Y55.542 E1.80204
G1 X53.761 Y55.739 E1.80624
G1 X53.459 Y55.919 E1.81044
G1 X52.822 Y56.220 E1.81885
G1 X52.149 Y56.438 E1.82729
G1 X51.805 Y56.515 E1.83148
G1 X51.455 Y56.571 E1.83571
G1 X50.750 Y56.614 E1.84413
G1 X50.047 Y56.571 E1.85254
G1 X49.697 Y56.515 E1.85675
G1 X49.014 Y56.339 E1.86517
G1 X48.415 Y56.104 E1.87285
G1 X48.357 Y56.078 E1.87360
G1 X48.537 Y55.697 F3900.000
G1 X48.246 Y55.549 F360.000 E1.87749
G1 X47.695 Y55.200 E1.88527
G1 X47.437 Y55.000 E1.88916
G1 X46.960 Y54.553 E1.89696
G1 X46.744 Y54.307 E1.90086
G1 X46.359 Y53.780 E1.90865
G1 X46.193 Y53.498 E1.91255
G1 X45.916 Y52.907 E1.92033
G1 X45.806 Y52.600 E1.92422
G1 X45.641 Y51.968 E1.93201
G1 X45.560 Y51.319 E1.93981
G1 X45.550 Y50.992 E1.94371
G1 X45.560 Y50.665 E1.94761
G1 X45.641 Y50.018 E1.95538
G1 X45.806 Y49.386 E1.96317
G1 X46.045 Y48.779 E1.97095
G1 X46.193 Y48.488 E1.97485
G1 X46.544 Y47.936 E1.98265
G1 X46.744 Y47.679 E1.98653
G1 X47.191 Y47.202 E1.99433
G1 X47.437 Y46.986 E1.99823
G1 X47.964 Y46.603 E2.00600
G1 X48.537 Y46.287 E2.01380
G1 X48.837 Y46.158 E2.01769
G1 X49.456 Y45.956 E2.02546
G1 X49.776 Y45.885 E2.02937
G1 X50.423 Y45.802 E2.03715
G1 X50.750 Y45.792 E2.04105
G1 X51.403 Y45.834 E2.04886
G1 X52.044 Y45.956 E2.05663
G1 X52.665 Y46.158 E2.06442
G1 X52.965 Y46.287 E2.06832
G1 X53.257 Y46.437 E2.07223
G1 X53.807 Y46.786 E2.08000
G1 X54.065 Y46.986 E2.08389
G1 X54.542 Y47.433 E2.09169
G1 X54.958 Y47.936 E2.09947
G1 X55.141 Y48.207 E2.10337
G1 X55.307 Y48.488 E2.10726
G1 X55.586 Y49.078 E2.11505
G1 X55.788 Y49.700 E2.12285
G1 X55.859 Y50.019 E2.12674
G1 X55.940 Y50.665 E2.13451
G1 X55.950 Y50.992 E2.13840
G1 X55.909 Y51.645 E2.14621
G1 X55.788 Y52.286 E2.15398
G1 X55.586 Y52.908 E2.16178
G1 X55.455 Y53.207 E2.16568
G1 X55.307 Y53.498 E2.16957
G1 X54.958 Y54.050 E2.17736
G1 X54.542 Y54.553 E2.18514
G1 X54.311 Y54.784 E2.18904
G1 X53.807 Y55.200 E2.19683
G1 X53.535 Y55.383 E2.20074
G1 X53.256 Y55.549 E2.20461
G1 X52.666 Y55.828 E2.21240
G1 X52.044 Y56.030 E2.22019
G1 X51.726 Y56.101 E2.22408
G1 X51.403 Y56.153 E2.22798
G1 X50.750 Y56.192 E2.23578
G1 X50.099 Y56.153 E2.24356
G1 X49.776 Y56.101 E2.24745
G1 X49.144 Y55.938 E2.25524
G1 X48.595 Y55.722 E2.26228
G1 X48.537 Y55.697 E2.26303
G1 X48.191 Y55.938 F3900.000
G1 F1800.000 E1.26303
G92 E0
G1 X32.303 Y53.001 F3900.000
G1 F1800.000 E1.00000
G1 X32.371 Y52.546 F360.000 E1.00549
G1 X32.510 Y52.098 E1.01108
G1 X32.602 Y51.889 E1.01381
G1 X32.710 Y51.685 E1.01656
G1 X32.972 Y51.301 E1.02211
G1 X33.291 Y50.960 E1.02767
G1 X42.916 Y43.332 E1.17413
G1 X43.607 Y42.861 E1.18409
G1 X44.328 Y42.437 E1.19407
G1 X45.075 Y42.056 E1.20408
G1 X45.843 Y41.722 E1.21406
G1 X46.630 Y41.438 E1.22404
G1 X47.435 Y41.205 E1.23403
G1 X48.252 Y41.023 E1.24401
G1 X49.079 Y40.891 E1.25399
G1 X49.913 Y40.813 E1.26398
G1 X50.750 Y40.787 E1.27397
G1 X51.391 Y40.807 E1.28162
G1 X52.030 Y40.867 E1.28927
G1 X52.663 Y40.967 E1.29692
G1 X53.288 Y41.107 E1.30455
G1 X53.903 Y41.286 E1.31219
G1 X54.508 Y41.504 E1.31986
G1 X55.097 Y41.759 E1.32751
G1 X55.668 Y42.049 E1.33514
G1 X56.218 Y42.374 E1.34277
G1 X56.749 Y42.737 E1.35044
G1 X57.258 Y43.129 E1.35809
G1 X57.737 Y43.552 E1.36573
G1 X58.191 Y44.006 E1.37337
G1 X58.614 Y44.487 E1.38102
G1 X59.008 Y44.993 E1.38867
G1 X59.366 Y45.522 E1.39628
G1 X59.694 Y46.077 E1.40397
G1 X59.986 Y46.647 E1.41160
G1 X60.240 Y47.236 E1.41925
G1 X60.457 Y47.838 E1.42689
G1 X60.635 Y48.455 E1.43454
G1 X60.775 Y49.081 E1.44219
G1 X60.877 Y49.713 E1.44983
G1 X60.937 Y50.351 E1.45747
G1 X60.957 Y50.992 E1.46512
G1 X60.937 Y51.635 E1.47279
G1 X60.877 Y52.270 E1.48040
G1 X60.775 Y52.904 E1.48804
G1 X60.635 Y53.532 E1.49572
G1 X60.457 Y54.148 E1.50337
G1 X60.240 Y54.750 E1.51099
G1 X59.986 Y55.337 E1.51863
G1 X59.694 Y55.909 E1.52628
G1 X59.366 Y56.462 E1.53395
G1 X59.007 Y56.993 E1.54160
G1 X58.614 Y57.499 E1.54924
G1 X58.191 Y57.980 E1.55688
G1 X57.738 Y58.433 E1.56451
G1 X57.258 Y58.855 E1.57214
G1 X56.748 Y59.250 E1.57983
G1 X56.208 Y59.618 E1.58762
G1 X43.066 Y67.807 E1.77227
G1 X42.564 Y68.104 E1.77922
G1 X42.063 Y68.360 E1.78594
G1 X41.548 Y68.584 E1.79263
G1 X41.018 Y68.774 E1.79935
G1 X40.479 Y68.931 E1.80605
G1 X39.930 Y69.053 E1.81275
G1 X39.373 Y69.141 E1.81948
G1 X38.812 Y69.195 E1.82620
G1 X38.250 Y69.213 E1.83290
G1 X37.689 Y69.195 E1.83960
G1 X37.129 Y69.141 E1.84630
G1 X36.570 Y69.053 E1.85304
G1 X36.023 Y68.931 E1.85973
G1 X35.482 Y68.774 E1.86645
G1 X34.954 Y68.584 E1.87315
G1 X34.437 Y68.360 E1.87986
G1 X33.936 Y68.104 E1.88657
G1 X33.451 Y67.817 E1.89329
G1 X32.985 Y67.502 E1.90000
G1 X32.470 Y67.089 E1.90787
G1 X32.383 Y66.968 E1.90965
G1 X32.311 Y66.785 E1.91199
G1 X32.293 Y66.621 E1.91395
G1 X32.293 Y64.535 E1.93883
G1 X33.517 Y64.535 E1.95344
G1 X34.647 Y66.495 E1.98041
G1 X41.852 Y66.495 E2.06633
G1 X45.454 Y60.256 E2.15224
G1 X41.852 Y54.017 E2.23815
G1 X34.648 Y54.017 E2.32405
G1 X33.820 Y55.449 E2.34378
G1 X32.293 Y55.449 E2.36199
G1 X32.300 Y53.065 E2.39042
G1 X32.303 Y53.001 E2.39118
G1 X31.882 Y52.970 F3900.000
G1 X31.960 Y52.451 F360.000 E2.39744
G1 X32.117 Y51.945 E2.40376
G1 X32.222 Y51.705 E2.40688
G1 X32.345 Y51.473 E2.41002
G1 X32.643 Y51.037 E2.41631
G1 X33.004 Y50.650 E2.42262
G1 X42.668 Y42.991 E2.56966
G1 X43.381 Y42.505 E2.57995
G1 X44.125 Y42.067 E2.59025
G1 X44.895 Y41.674 E2.60056
G1 X45.687 Y41.330 E2.61086
G1 X46.500 Y41.037 E2.62116
G1 X47.330 Y40.796 E2.63147
G1 X48.173 Y40.609 E2.64176
G1 X49.026 Y40.473 E2.65206
G1 X49.887 Y40.393 E2.66237
G1 X50.750 Y40.366 E2.67267
G1 X51.417 Y40.387 E2.68063
G1 X52.083 Y40.449 E2.68860
G1 X52.742 Y40.553 E2.69656
G1 X53.393 Y40.698 E2.70452
G1 X54.033 Y40.885 E2.71247
G1 X54.663 Y41.112 E2.72046
G1 X55.276 Y41.377 E2.72841
G1 X55.871 Y41.679 E2.73637
G1 X56.444 Y42.019 E2.74432
G1 X56.997 Y42.395 E2.75229
G1 X57.526 Y42.803 E2.76026
G1 X58.026 Y43.245 E2.76822
G1 X58.498 Y43.717 E2.77618
G1 X58.939 Y44.218 E2.78414
G1 X59.349 Y44.746 E2.79210
G1 X59.723 Y45.297 E2.80004
G1 X60.063 Y45.874 E2.80804
G1 X60.367 Y46.467 E2.81599
G1 X60.632 Y47.081 E2.82396
G1 X60.859 Y47.708 E2.83191
G1 X61.044 Y48.350 E2.83988
G1 X61.189 Y49.001 E2.84783
G1 X61.295 Y49.660 E2.85579
G1 X61.357 Y50.325 E2.86375
G1 X61.378 Y50.992 E2.87171
G1 X61.357 Y51.661 E2.87970
G1 X61.295 Y52.324 E2.88763
G1 X61.189 Y52.983 E2.89559
G1 X61.044 Y53.636 E2.90357
G1 X60.859 Y54.278 E2.91154
G1 X60.632 Y54.905 E2.91949
G1 X60.367 Y55.517 E2.92744
G1 X60.063 Y56.112 E2.93541
G1 X59.723 Y56.687 E2.94338
G1 X59.349 Y57.241 E2.95135
G1 X58.939 Y57.768 E2.95931
G1 X58.498 Y58.269 E2.96726
G1 X58.027 Y58.740 E2.97522
G1 X57.526 Y59.181 E2.98317
G1 X56.996 Y59.591 E2.99116
G1 X56.439 Y59.971 E2.99921
G1 X43.285 Y68.167 E3.18402
G1 X42.768 Y68.473 E3.19119
G1 X42.243 Y68.742 E3.19822
G1 X41.703 Y68.976 E3.20523
G1 X41.148 Y69.175 E3.21227
G1 X40.583 Y69.340 E3.21928
G1 X40.008 Y69.467 E3.22631
G1 X39.426 Y69.559 E3.23334
G1 X38.838 Y69.615 E3.24037
G1 X38.250 Y69.634 E3.24739
G1 X37.662 Y69.615 E3.25441
G1 X37.076 Y69.559 E3.26143
G1 X36.492 Y69.467 E3.26848
G1 X35.919 Y69.340 E3.27549
G1 X35.352 Y69.175 E3.28252
G1 X34.799 Y68.976 E3.28953
G1 X34.257 Y68.741 E3.29657
G1 X33.732 Y68.473 E3.30360
G1 X33.225 Y68.173 E3.31063
G1 X32.737 Y67.843 E3.31765
G1 X32.271 Y67.480 E3.32469
G1 X32.105 Y67.310 E3.32753
G1 X32.017 Y67.176 E3.32944
G1 X31.920 Y66.957 E3.33230
G1 X31.885 Y66.801 E3.33421
G1 X31.871 Y64.113 E3.36626
G1 X33.761 Y64.113 E3.38879
G1 X34.891 Y66.073 E3.41577
G1 X41.609 Y66.073 E3.49587
G1 X44.968 Y60.256 E3.57598
G1 X41.609 Y54.439 E3.65609
G1 X34.891 Y54.439 E3.73619
G1 X34.063 Y55.871 E3.75592
G1 X31.871 Y55.871 E3.78205
G1 X31.880 Y53.033 E3.81589
G1 X31.882 Y52.970 E3.81664
G1 X31.462 Y52.939 F3900.000
G1 X31.549 Y52.355 F360.000 E3.82368
G1 X31.724 Y51.791 E3.83073
G1 X31.842 Y51.521 E3.83424
G1 X31.981 Y51.261 E3.83776
G1 X32.314 Y50.773 E3.84480
G1 X32.718 Y50.341 E3.85185
G1 X42.420 Y42.650 E3.99949
G1 X43.155 Y42.149 E4.01010
G1 X43.922 Y41.697 E4.02071
G1 X44.715 Y41.293 E4.03133
G1 X45.532 Y40.938 E4.04195
G1 X46.370 Y40.636 E4.05257
G1 X47.226 Y40.388 E4.06319
G1 X48.094 Y40.195 E4.07380
G1 X48.973 Y40.055 E4.08442
G1 X49.860 Y39.972 E4.09504
G1 X50.750 Y39.944 E4.10566
G1 X51.444 Y39.966 E4.11393
G1 X52.135 Y40.031 E4.12221
G1 X52.821 Y40.139 E4.13049
G1 X53.498 Y40.290 E4.13877
G1 X54.164 Y40.484 E4.14704
G1 X54.818 Y40.720 E4.15534
G1 X55.455 Y40.995 E4.16361
G1 X56.074 Y41.309 E4.17188
G1 X56.671 Y41.663 E4.18015
G1 X57.245 Y42.054 E4.18843
G1 X57.795 Y42.478 E4.19672
G1 X58.315 Y42.938 E4.20500
G1 X58.806 Y43.429 E4.21328
G1 X59.264 Y43.950 E4.22155
G1 X59.690 Y44.498 E4.22983
G1 X60.079 Y45.071 E4.23809
G1 X60.433 Y45.671 E4.24639
G1 X60.749 Y46.287 E4.25465
G1 X61.024 Y46.926 E4.26294
G1 X61.260 Y47.578 E4.27121
G1 X61.452 Y48.246 E4.27950
G1 X61.603 Y48.922 E4.28776
G1 X61.713 Y49.607 E4.29604
G1 X61.778 Y50.298 E4.30432
G1 X61.800 Y50.992 E4.31260
G1 X61.778 Y51.688 E4.32089
G1 X61.713 Y52.377 E4.32915
G1 X61.603 Y53.062 E4.33743
