; generated by Slic3r 1.0.0RC2 on 2014-03-08 at 12:49:41

; layer_height = 0.2937
; perimeters = 3
; top_solid_layers = 3
; bottom_solid_layers = 3
; fill_density = 0.2
; perimeter_speed = 30
; infill_speed = 60
; travel_speed = 130
; nozzle_diameter = 0.4
; filament_diameter = 2.88
; extrusion_multiplier = 1
; perimeters extrusion width = 0.40mm
; infill extrusion width = 0.44mm
; solid infill extrusion width = 0.44mm
; top infill extrusion width = 0.44mm
; first layer extrusion width = 0.59mm

G21 ; set units to millimeters
M107
M104 S205 ; set temperature
G28 ; home all axes
M92 X79.7957; calibrate X
M92 Y79.6685 ; calibrate Y
M92 Z2210.2522 ; calibrate Z
M92 E687.5313 ; calibrate E
M109 S205 ; wait for temperature to be reached
G90 ; use absolute coordinates
G92 E0
M82 ; use absolute distances for extrusion
G1 F1800.000 E-1.00000
G92 E0
G1 Z0.294 F7800.000
G1 X45.724 Y36.899 F7800.000
G1 E1.00000 F1800.000
G1 X47.885 Y34.179 E1.08569 F540.000
G1 X48.614 Y33.399 E1.11204
G1 X49.444 Y32.729 E1.13836
G1 X52.344 Y30.749 E1.22498
G1 X53.275 Y30.209 E1.25151
G1 X54.275 Y29.819 E1.27799
G1 X58.275 Y28.599 E1.38116
G1 X59.035 Y28.419 E1.40042
G1 X59.814 Y28.319 E1.41982
G1 X65.044 Y27.929 E1.54920
G1 X65.734 Y27.909 E1.56623
G1 X66.415 Y27.959 E1.58305
G1 X71.534 Y28.569 E1.71026
G1 X72.564 Y28.769 E1.73614
G1 X73.564 Y29.119 E1.76228
G1 X77.684 Y30.939 E1.87339
G1 X78.674 Y31.469 E1.90109
G1 X79.564 Y32.159 E1.92888
G1 X82.575 Y34.869 E2.02879
G1 X83.385 Y35.729 E2.05794
G1 X84.035 Y36.719 E2.08715
G1 X85.825 Y39.969 E2.17869
G1 X86.264 Y40.929 E2.20474
G1 X86.554 Y41.939 E2.23066
G1 X87.454 Y46.249 E2.33928
G1 X87.605 Y47.339 E2.36642
G1 X87.904 Y53.269 E2.51290
G1 X87.904 Y74.999 E3.04897
G1 X87.774 Y76.379 E3.08317
G1 X87.364 Y77.709 E3.11750
G1 X86.715 Y78.939 E3.15182
G1 X85.834 Y80.019 E3.18619
G1 X84.755 Y80.899 E3.22056
G1 X83.524 Y81.549 E3.25488
G1 X82.195 Y81.959 E3.28921
G1 X80.814 Y82.089 E3.32341
G1 X68.635 Y82.089 E3.62388
G1 X67.325 Y81.969 E3.65633
G1 X66.055 Y81.609 E3.68890
G1 X64.885 Y81.019 E3.72122
G1 X63.834 Y80.219 E3.75379
G1 X62.954 Y79.249 E3.78610
G1 X43.505 Y53.219 E4.58771
G1 X42.764 Y51.999 E4.62292
G1 X42.294 Y50.659 E4.65795
G1 X42.094 Y49.249 E4.69308
G1 X42.184 Y47.829 E4.72818
G1 X42.864 Y43.639 E4.83290
G1 X43.035 Y42.859 E4.85259
G1 X43.294 Y42.089 E4.87264
G1 X44.715 Y38.619 E4.96514
G1 X45.165 Y37.719 E4.98996
G1 X45.678 Y36.967 E5.01243
G1 X46.154 Y37.239 F7800.000
G1 X48.315 Y34.519 E5.09812 F540.000
G1 X48.984 Y33.799 E5.12238
G1 X49.755 Y33.179 E5.14677
G1 X52.654 Y31.199 E5.23339
G1 X53.514 Y30.709 E5.25781
G1 X54.434 Y30.349 E5.28218
G1 X58.434 Y29.129 E5.38535
G1 X59.135 Y28.949 E5.40318
G1 X59.855 Y28.859 E5.42108
G1 X65.084 Y28.469 E5.55046
G1 X65.715 Y28.449 E5.56601
G1 X66.344 Y28.499 E5.58160
G1 X71.465 Y29.109 E5.70880
G1 X72.424 Y29.299 E5.73294
G1 X73.344 Y29.619 E5.75697
G1 X77.465 Y31.439 E5.86809
G1 X78.374 Y31.929 E5.89359
G1 X79.195 Y32.559 E5.91910
G1 X82.204 Y35.269 E6.01901
G1 X82.954 Y36.069 E6.04606
G1 X83.554 Y36.979 E6.07295
G1 X85.344 Y40.229 E6.16449
G1 X85.755 Y41.119 E6.18866
G1 X86.024 Y42.049 E6.21255
G1 X86.924 Y46.359 E6.32117
G1 X87.054 Y47.369 E6.34629
G1 X87.364 Y53.629 E6.50091
G1 X87.364 Y74.999 E7.02810
G1 X87.234 Y76.279 E7.05984
G1 X86.864 Y77.509 E7.09153
G1 X86.255 Y78.639 E7.12321
G1 X85.445 Y79.629 E7.15476
G1 X84.454 Y80.439 E7.18632
G1 X83.325 Y81.049 E7.21800
G1 X82.094 Y81.419 E7.24969
G1 X80.814 Y81.549 E7.28142
G1 X68.635 Y81.549 E7.58190
G1 X67.124 Y81.369 E7.61942
G1 X65.704 Y80.849 E7.65672
G1 X64.434 Y80.019 E7.69415
G1 X63.395 Y78.919 E7.73149
G1 X43.944 Y52.889 E8.53311
G1 X43.264 Y51.769 E8.56543
G1 X42.825 Y50.529 E8.59789
G1 X42.645 Y49.229 E8.63027
G1 X42.724 Y47.919 E8.66265
G1 X43.404 Y43.729 E8.76736
G1 X43.565 Y42.999 E8.78580
G1 X43.804 Y42.299 E8.80406
G1 X45.224 Y38.829 E8.89655
G1 X45.635 Y37.999 E8.91939
G1 X46.108 Y37.307 E8.94008
G1 F1800.000 E7.94008
G92 E0
G1 X52.501 Y42.024 F7800.000
G1 E1.00000 F1800.000
G1 X54.404 Y39.618 E1.07569 F540.000
G1 X56.957 Y37.874 E1.15195
G1 X60.551 Y36.774 E1.24467
G1 X65.547 Y36.393 E1.36828
G1 X70.332 Y36.963 E1.48716
G1 X74.053 Y38.618 E1.58763
G1 X76.723 Y41.023 E1.67628
G1 X78.306 Y43.879 E1.75685
G1 X79.137 Y47.885 E1.85776
G1 X79.427 Y53.668 E2.00061
G1 X79.427 Y73.613 E2.49264
G1 X70.024 Y73.613 E2.72463
G1 X70.024 Y50.641 E3.29135
G1 X68.963 Y44.957 E3.43400
G1 X67.123 Y43.249 E3.49593
G1 X64.663 Y42.722 E3.55799
G1 X61.868 Y43.439 E3.62916
G1 X59.921 Y46.181 E3.71214
G1 X59.589 Y48.993 E3.78199
G1 X50.785 Y47.794 E4.00117
G1 X51.217 Y45.161 E4.06700
G1 X52.470 Y42.100 E4.14859
G1 X52.024 Y41.745 F7800.000
G1 X54.027 Y39.213 E4.22824 F540.000
G1 X56.717 Y37.376 E4.30861
G1 X60.448 Y36.233 E4.40488
G1 X65.559 Y35.844 E4.53131
G1 X70.479 Y36.429 E4.65355
G1 X74.355 Y38.153 E4.75820
G1 X77.157 Y40.678 E4.85125
G1 X78.825 Y43.687 E4.93613
G1 X79.681 Y47.815 E5.04014
G1 X79.975 Y53.654 E5.18436
G1 X79.975 Y74.160 E5.69024
G1 X69.476 Y74.160 E5.94923
G1 X69.476 Y50.691 E6.52819
G1 X68.458 Y45.235 E6.66513
G1 X66.861 Y43.752 E6.71889
G1 X64.674 Y43.284 E6.77405
G1 X62.198 Y43.919 E6.83711
G1 X60.448 Y46.384 E6.91170
G1 X60.067 Y49.610 E6.99184
G1 X50.154 Y48.260 E7.23864
G1 X50.687 Y45.011 E7.31986
G1 X51.993 Y41.821 E7.40489
G1 X51.547 Y41.467 F7800.000
G1 X53.649 Y38.808 E7.48851 F378.000
G1 X56.477 Y36.877 E7.57299
G1 X60.346 Y35.692 E7.67282
G1 X65.570 Y35.294 E7.80206
G1 X70.626 Y35.895 E7.92766
G1 X74.657 Y37.688 E8.03649
G1 X77.591 Y40.332 E8.13394
G1 X79.344 Y43.494 E8.22313
G1 X80.225 Y47.745 E8.33023
G1 X80.522 Y53.640 E8.47584
G1 X80.522 Y74.707 E8.99555
G1 X68.929 Y74.707 E9.28154
G1 X68.929 Y50.742 E9.87275
G1 X67.953 Y45.513 E10.00398
G1 X66.599 Y44.256 E10.04957
G1 X64.685 Y43.846 E10.09784
G1 X62.528 Y44.399 E10.15278
G1 X60.975 Y46.587 E10.21898
G1 X60.545 Y50.228 E10.30941
G1 X49.523 Y48.727 E10.58382
G1 X50.157 Y44.861 E10.68045
G1 X51.515 Y41.543 E10.76892
G1 X52.093 Y41.495 F7800.000
G1 X53.131 Y41.867 F7800.000
G1 X53.369 Y43.260 E10.80379 F1080.000
G1 X53.581 Y44.888 E10.84429
G1 X53.725 Y46.523 E10.88478
G1 X53.789 Y47.803 E10.91639
G1 X53.239 Y47.728 F7800.000
G1 X53.178 Y46.540 E10.94574 F1080.000
G1 X53.032 Y44.905 E10.98623
G1 X52.897 Y43.819 E11.01323
G1 X52.703 Y42.577 E11.04424
G1 X52.305 Y43.550 F7800.000
G1 X52.466 Y44.768 E11.07455 F1080.000
G1 X52.576 Y45.857 E11.10154
G1 X52.688 Y47.653 E11.14595
G1 X52.138 Y47.578 F7800.000
G1 X52.048 Y46.110 E11.18223 F1080.000
G1 X51.890 Y44.563 E11.22058
G1 X51.486 Y45.969 F7800.000
G1 X51.587 Y47.503 E11.25850 F1080.000
G1 X54.339 Y47.878 F7800.000
G1 X54.261 Y46.352 E11.29620 F1080.000
G1 X54.112 Y44.717 E11.33669
G1 X53.896 Y43.090 E11.37718
G1 X53.579 Y41.301 E11.42201
G1 X54.022 Y40.741 F7800.000
G1 X54.212 Y41.688 E11.44586 F1080.000
G1 X54.400 Y42.767 E11.47286
G1 X54.626 Y44.392 E11.51335
G1 X54.786 Y46.026 E11.55384
G1 X54.889 Y47.953 E11.60144
G1 X55.438 Y48.027 F7800.000
G1 X55.340 Y46.091 E11.64927 F1080.000
G1 X55.243 Y45.001 E11.67627
G1 X55.118 Y43.914 E11.70326
G1 X54.876 Y42.290 E11.74376
G1 X54.678 Y41.214 E11.77076
G1 X54.461 Y40.185 E11.79670
G1 X54.921 Y39.745 F7800.000
G1 X55.320 Y41.663 E11.84502 F1080.000
G1 X55.503 Y42.741 E11.87201
G1 X55.658 Y43.825 E11.89901
G1 X55.784 Y44.912 E11.92601
G1 X55.882 Y46.002 E11.95300
G1 X55.951 Y47.094 E11.98000
G1 X55.988 Y48.102 E12.00489
G1 X56.537 Y48.177 F7800.000
G1 X56.486 Y46.850 E12.03765 F1080.000
G1 X56.411 Y45.758 E12.06465
G1 X56.309 Y44.669 E12.09165
G1 X56.178 Y43.582 E12.11865
G1 X56.019 Y42.499 E12.14564
G1 X55.832 Y41.421 E12.17264
G1 X55.617 Y40.348 E12.19964
G1 X55.406 Y39.414 E12.22326
G1 X55.889 Y39.084 F7800.000
G1 X56.207 Y40.491 E12.25885 F1080.000
G1 X56.415 Y41.565 E12.28584
G1 X56.596 Y42.645 E12.31284
G1 X56.749 Y43.728 E12.33984
G1 X56.874 Y44.815 E12.36683
G1 X56.972 Y45.905 E12.39383
G1 X57.041 Y46.997 E12.42083
G1 X57.086 Y48.252 E12.45179
G1 X57.635 Y48.327 F7800.000
G1 X57.589 Y46.990 E12.48477 F1080.000
G1 X57.520 Y45.898 E12.51177
G1 X57.424 Y44.808 E12.53877
G1 X57.300 Y43.721 E12.56577
G1 X57.062 Y42.097 E12.60626
G1 X56.870 Y41.019 E12.63326
G1 X56.650 Y39.947 E12.66025
G1 X56.372 Y38.754 E12.69047
G1 X56.853 Y38.425 F7800.000
G1 X57.175 Y39.787 E12.72499 F1080.000
G1 X57.396 Y40.859 E12.75198
G1 X57.590 Y41.936 E12.77898
G1 X57.831 Y43.560 E12.81948
G1 X57.957 Y44.647 E12.84647
G1 X58.056 Y45.736 E12.87347
G1 X58.129 Y46.828 E12.90047
G1 X58.184 Y48.401 E12.93930
G1 X58.732 Y48.476 F7800.000
G1 X58.688 Y47.058 E12.97429 F1080.000
G1 X58.623 Y45.966 E13.00129
G1 X58.474 Y44.331 E13.04178
G1 X58.341 Y43.245 E13.06878
G1 X58.092 Y41.622 E13.10927
G1 X57.893 Y40.546 E13.13627
G1 X57.667 Y39.475 E13.16327
G1 X57.353 Y38.168 E13.19644
G1 X57.877 Y38.008 F7800.000
G1 X58.243 Y39.547 E13.23547 F1080.000
G1 X58.465 Y40.619 E13.26247
G1 X58.660 Y41.695 E13.28946
G1 X58.903 Y43.319 E13.32996
G1 X59.032 Y44.405 E13.35695
G1 X59.176 Y46.041 E13.39745
G1 X59.239 Y47.133 E13.42445
G1 X59.276 Y48.258 E13.45221
G1 X59.707 Y45.797 F7800.000
G1 X59.513 Y43.782 E13.50216 F1080.000
G1 X59.370 Y42.697 E13.52915
G1 X59.201 Y41.616 E13.55615
G1 X59.006 Y40.539 E13.58315
G1 X58.786 Y39.467 E13.61014
G1 X58.401 Y37.847 E13.65122
G1 X58.924 Y37.687 F7800.000
G1 X59.174 Y38.702 E13.67701 F1080.000
G1 X59.410 Y39.771 E13.70400
G1 X59.717 Y41.383 E13.74450
G1 X59.965 Y43.006 E13.78499
G1 X60.200 Y45.103 E13.83706
G1 X60.684 Y44.421 F7800.000
G1 X60.464 Y42.619 E13.88185 F1080.000
G1 X60.205 Y40.998 E13.92234
G1 X59.888 Y39.388 E13.96284
G1 X59.448 Y37.527 E14.01001
G1 X59.972 Y37.366 F7800.000
G1 X60.331 Y38.854 E14.04777 F1080.000
G1 X60.663 Y40.461 E14.08826
G1 X60.938 Y42.080 E14.12876
G1 X61.161 Y43.749 E14.17030
G1 X61.632 Y43.090 F7800.000
G1 X61.468 Y41.928 E14.19924 F1080.000
G1 X61.191 Y40.310 E14.23973
G1 X60.858 Y38.703 E14.28023
G1 X60.495 Y37.206 E14.31823
G1 X61.042 Y37.135 F7800.000
G1 X61.351 Y38.401 E14.35038 F1080.000
G1 X61.690 Y40.007 E14.39088
G1 X61.975 Y41.624 E14.43137
G1 X62.165 Y42.953 E14.46450
G1 X62.700 Y42.816 F7800.000
G1 X62.541 Y41.707 E14.49214 F1080.000
G1 X62.263 Y40.089 E14.53264
G1 X61.930 Y38.482 E14.57313
G1 X61.596 Y37.092 E14.60838
G1 X62.150 Y37.050 F7800.000
G1 X62.475 Y38.411 E14.64290 F1080.000
G1 X62.807 Y40.019 E14.68339
G1 X62.998 Y41.096 E14.71039
G1 X63.234 Y42.679 E14.74987
G1 X63.768 Y42.542 F7800.000
G1 X63.603 Y41.413 E14.77802 F1080.000
G1 X63.321 Y39.796 E14.81851
G1 X62.986 Y38.189 E14.85900
G1 X62.704 Y37.008 E14.88897
G1 X63.257 Y36.966 F7800.000
G1 X63.583 Y38.350 E14.92406 F1080.000
G1 X63.806 Y39.422 E14.95106
G1 X64.097 Y41.037 E14.99155
G1 X64.301 Y42.406 E15.02568
G1 X64.846 Y42.356 F7800.000
G1 X64.653 Y41.048 E15.05829 F1080.000
G1 X64.366 Y39.432 E15.09879
G1 X64.145 Y38.360 E15.12579
G1 X63.811 Y36.924 E15.16218
G1 X64.364 Y36.881 F7800.000
G1 X64.674 Y38.219 E15.19605 F1080.000
G1 X64.998 Y39.828 E15.23654
G1 X65.185 Y40.906 E15.26354
G1 X65.415 Y42.478 E15.30272
G1 X65.982 Y42.599 F7800.000
G1 X65.778 Y41.152 E15.33877 F1080.000
G1 X65.499 Y39.534 E15.37926
G1 X65.170 Y37.926 E15.41976
G1 X64.917 Y36.839 E15.44728
G1 X65.470 Y36.797 F7800.000
G1 X65.750 Y38.016 E15.47815 F1080.000
G1 X66.073 Y39.626 E15.51864
G1 X66.346 Y41.244 E15.55914
G1 X66.549 Y42.720 E15.59589
G1 X67.115 Y42.841 F7800.000
G1 X66.890 Y41.184 E15.63715 F1080.000
G1 X66.618 Y39.565 E15.67765
G1 X66.297 Y37.955 E15.71814
G1 X66.046 Y36.852 E15.74605
G1 X66.624 Y36.921 F7800.000
G1 X66.924 Y38.278 E15.78034 F1080.000
G1 X67.233 Y39.890 E15.82083
G1 X67.492 Y41.511 E15.86133
G1 X67.713 Y43.256 E15.90471
G1 X68.323 Y43.822 F7800.000
G1 X68.142 Y42.228 E15.94428 F1080.000
G1 X67.907 Y40.603 E15.98477
G1 X67.623 Y38.986 E16.02527
G1 X67.202 Y36.990 E16.07561
G1 X67.779 Y37.058 F7800.000
G1 X68.184 Y39.006 E16.12470 F1080.000
G1 X68.464 Y40.624 E16.16519
G1 X68.696 Y42.249 E16.20569
G1 X68.925 Y44.380 E16.25857
G1 X69.603 Y46.223 F7800.000
G1 X69.512 Y44.837 E16.29282 F1080.000
G1 X69.416 Y43.747 E16.31982
G1 X69.158 Y41.574 E16.37381
G1 X68.815 Y39.412 E16.42780
G1 X68.355 Y37.127 E16.48531
G1 X68.931 Y37.195 F7800.000
G1 X69.219 Y38.590 E16.52044 F1080.000
G1 X69.506 Y40.206 E16.56093
G1 X69.745 Y41.830 E16.60143
G1 X69.937 Y43.460 E16.64192
G1 X70.080 Y45.095 E16.68242
G1 X70.176 Y46.734 E16.72291
G1 X70.223 Y48.375 E16.76341
G1 X70.227 Y49.569 E16.79287
G1 X70.420 Y55.493 F7800.000
G1 X70.574 Y53.945 E16.83125 F1080.000
G1 X70.656 Y52.854 E16.85825
G1 X70.756 Y50.667 E16.91224
G1 X70.772 Y48.479 E16.96623
G1 X70.703 Y46.291 E17.02022
G1 X70.549 Y44.108 E17.07421
G1 X70.310 Y41.933 E17.12821
G1 X69.988 Y39.768 E17.18220
G1 X69.795 Y38.691 E17.20919
G1 X69.505 Y37.264 E17.24511
G1 X70.080 Y37.332 F7800.000
G1 X70.342 Y38.639 E17.27801 F1080.000
G1 X70.622 Y40.257 E17.31850
G1 X70.783 Y41.339 E17.34550
G1 X70.985 Y42.968 E17.38599
G1 X71.094 Y44.057 E17.41299
G1 X71.217 Y45.694 E17.45349
G1 X71.294 Y47.334 E17.49398
G1 X71.319 Y48.428 E17.52098
G1 X71.322 Y49.522 E17.54798
G1 X71.288 Y51.163 E17.58847
G1 X71.240 Y52.257 E17.61547
G1 X71.127 Y53.894 E17.65596
G1 X71.026 Y54.984 E17.68296
G1 X70.835 Y56.614 E17.72346
G1 X70.681 Y57.698 E17.75045
G1 X70.420 Y59.272 E17.78981
G1 X70.420 Y62.001 F7800.000
G1 X70.697 Y60.728 E17.82196 F1080.000
G1 X71.004 Y59.115 E17.86246
G1 X71.265 Y57.495 E17.90295
G1 X71.479 Y55.867 E17.94345
G1 X71.647 Y54.234 E17.98394
G1 X71.768 Y52.597 E18.02444
G1 X71.843 Y50.957 E18.06493
G1 X71.866 Y49.863 E18.09193
G1 X71.863 Y48.222 E18.13242
G1 X71.812 Y46.581 E18.17292
G1 X71.753 Y45.488 E18.19992
G1 X71.624 Y43.852 E18.24041
G1 X71.449 Y42.220 E18.28091
G1 X71.228 Y40.593 E18.32140
G1 X70.960 Y38.974 E18.36190
G1 X70.685 Y37.554 E18.39758
G1 X71.299 Y37.827 F7800.000
G1 X71.640 Y39.695 E18.44444 F1080.000
G1 X71.885 Y41.319 E18.48494
G1 X72.084 Y42.948 E18.52543
G1 X72.236 Y44.582 E18.56593
G1 X72.343 Y46.220 E18.60642
G1 X72.403 Y47.861 E18.64692
G1 X72.417 Y49.502 E18.68741
G1 X72.384 Y51.143 E18.72791
G1 X72.305 Y52.783 E18.76840
G1 X72.180 Y54.420 E18.80890
G1 X72.008 Y56.052 E18.84939
G1 X71.791 Y57.679 E18.88989
G1 X71.527 Y59.300 E18.93039
G1 X71.218 Y60.912 E18.97088
G1 X70.863 Y62.514 E19.01138
G1 X70.420 Y64.266 E19.05596
G1 X70.420 Y66.253 F7800.000
G1 X70.879 Y64.668 E19.09665 F1080.000
G1 X71.290 Y63.079 E19.13714
G1 X71.658 Y61.479 E19.17764
G1 X72.077 Y59.331 E19.23163
G1 X72.339 Y57.711 E19.27213
G1 X72.618 Y55.540 E19.32612
G1 X72.773 Y53.906 E19.36661
G1 X72.883 Y52.268 E19.40711
G1 X72.958 Y50.081 E19.46110
G1 X72.960 Y48.439 E19.50160
G1 X72.917 Y46.798 E19.54209
G1 X72.828 Y45.159 E19.58259
G1 X72.693 Y43.523 E19.62308
G1 X72.441 Y41.349 E19.67707
G1 X72.199 Y39.726 E19.71757
G1 X71.910 Y38.099 E19.75833
G1 X72.518 Y38.369 F7800.000
G1 X72.820 Y40.143 E19.80273 F1080.000
G1 X73.048 Y41.769 E19.84323
G1 X73.230 Y43.400 E19.88372
G1 X73.403 Y45.582 E19.93771
G1 X73.496 Y47.768 E19.99171
G1 X73.512 Y49.410 E20.03220
G1 X73.462 Y51.598 E20.08619
G1 X73.372 Y53.237 E20.12669
G1 X73.181 Y55.417 E20.18068
G1 X72.985 Y57.047 E20.22118
G1 X72.744 Y58.671 E20.26167
G1 X72.353 Y60.824 E20.31566
G1 X71.882 Y62.961 E20.36966
G1 X71.477 Y64.552 E20.41015
G1 X71.029 Y66.131 E20.45065
G1 X70.420 Y68.043 E20.50015
G1 X70.420 Y69.695 F7800.000
G1 X71.026 Y67.958 E20.54553 F1080.000
G1 X71.677 Y65.868 E20.59952
G1 X72.250 Y63.756 E20.65351
G1 X72.629 Y62.159 E20.69401
G1 X72.964 Y60.552 E20.73451
G1 X73.342 Y58.396 E20.78850
G1 X73.573 Y56.771 E20.82899
G1 X73.812 Y54.595 E20.88299
G1 X73.971 Y52.413 E20.93698
G1 X74.050 Y50.225 E20.99097
G1 X74.049 Y48.037 E21.04496
G1 X73.995 Y46.396 E21.08546
G1 X73.853 Y44.212 E21.13945
G1 X73.695 Y42.578 E21.17995
G1 X73.413 Y40.408 E21.23394
G1 X73.123 Y38.638 E21.27818
G1 X73.726 Y38.906 F7800.000
G1 X74.059 Y41.062 E21.33197 F1080.000
G1 X74.314 Y43.235 E21.38596
G1 X74.490 Y45.417 E21.43996
G1 X74.569 Y47.056 E21.48045
G1 X74.606 Y49.245 E21.53444
G1 X74.564 Y51.433 E21.58844
G1 X74.480 Y53.072 E21.62893
G1 X74.298 Y55.253 E21.68292
G1 X74.110 Y56.884 E21.72342
G1 X73.791 Y59.049 E21.77741
