; generated by Slic3r 0.9.9 on 2013-04-06 at 13:18:41

; layer_height = 0.3
; perimeters = 3
; top_solid_layers = 0
; bottom_solid_layers = 3
; fill_density = 0
; perimeter_speed = 20
; infill_speed = 30
; travel_speed = 130
; nozzle_diameter = 0.4
; filament_diameter = 3.10
; extrusion_multiplier = 1
; perimeters extrusion width = 0.42mm
; infill extrusion width = 0.42mm
; solid infill extrusion width = 0.42mm
; top infill extrusion width = 0.42mm
; first layer extrusion width = 0.80mm

G21 ; set units to millimeters
M107
M190 S50 ; wait for bed temperature to be reached
M104 S200 ; set temperature
G28 ; home all axes
M92 X62.2360 ; calibrate X
M92 Y62.4264 ; calibrate Y
M92 Z2318.3792 ; calibrate Z
M92 E569 ; calibrate E
M109 S200 ; wait for temperature to be reached
G90 ; use absolute coordinates
G92 E0
M82 ; use absolute distances for extrusion
G1 F1800.000 E-1.00000
G92 E0
G1 Z0.400 F7800.000
G1 X50.410 Y43.735
G1 F1800.000 E1.00000
G1 X52.050 Y41.915 F600.000 E1.09272
G1 X52.540 Y41.405 E1.11949
G1 X53.080 Y40.945 E1.14634
G1 X55.090 Y39.485 E1.24036
G1 X55.680 Y39.095 E1.26713
G1 X55.980 Y38.925 E1.28018
G1 X56.610 Y38.615 E1.30676
G1 X58.480 Y37.785 E1.38419
G1 X58.810 Y37.645 E1.39776
G1 X59.480 Y37.415 E1.42457
G1 X60.170 Y37.235 E1.45156
G1 X62.220 Y36.805 E1.53084
G1 X63.250 Y36.655 E1.57023
G1 X63.950 Y36.625 E1.59675
G1 X66.040 Y36.625 E1.67585
G1 X66.740 Y36.655 E1.70237
G1 X67.770 Y36.805 E1.74176
G1 X69.820 Y37.235 E1.82104
G1 X70.520 Y37.415 E1.84839
G1 X71.200 Y37.655 E1.87569
G1 X73.750 Y38.785 E1.98125
G1 X74.650 Y39.305 E2.02059
G1 X76.910 Y40.945 E2.12627
G1 X77.190 Y41.175 E2.13999
G1 X77.700 Y41.655 E2.16650
G1 X79.340 Y43.465 E2.25894
G1 X79.800 Y44.015 E2.28608
G1 X80.010 Y44.305 E2.29963
G1 X80.400 Y44.915 E2.32703
G1 X81.440 Y46.725 E2.40604
G1 X81.760 Y47.345 E2.43244
G1 X82.030 Y47.985 E2.45873
G1 X82.790 Y50.295 E2.55077
G1 X82.990 Y50.995 E2.57833
G1 X83.170 Y52.065 E2.61939
G1 X83.380 Y54.145 E2.69852
G1 X83.420 Y54.825 E2.72430
G1 X83.420 Y55.165 E2.73717
G1 X83.380 Y55.845 E2.76295
G1 X83.170 Y57.925 E2.84207
G1 X82.990 Y58.995 E2.88314
G1 X82.790 Y59.695 E2.91069
G1 X82.140 Y61.685 E2.98993
G1 X81.900 Y62.335 E3.01615
G1 X81.760 Y62.645 E3.02902
G1 X81.440 Y63.265 E3.05543
G1 X80.400 Y65.075 E3.13444
G1 X80.210 Y65.385 E3.14820
G1 X79.800 Y65.975 E3.17539
G1 X79.580 Y66.255 E3.18887
G1 X77.940 Y68.075 E3.28159
G1 X77.700 Y68.335 E3.29498
G1 X77.190 Y68.815 E3.32149
G1 X76.630 Y69.255 E3.34845
G1 X74.930 Y70.485 E3.42786
G1 X74.650 Y70.685 E3.44089
G1 X74.350 Y70.865 E3.45413
G1 X73.750 Y71.205 E3.48023
G1 X71.210 Y72.335 E3.58545
G1 X70.880 Y72.455 E3.59874
G1 X70.200 Y72.665 E3.62567
G1 X69.860 Y72.745 E3.63889
G1 X67.810 Y73.185 E3.71825
G1 X67.110 Y73.305 E3.74513
G1 X66.750 Y73.345 E3.75884
G1 X66.040 Y73.375 E3.78573
G1 X63.950 Y73.375 E3.86483
G1 X63.240 Y73.345 E3.89173
G1 X62.530 Y73.255 E3.91882
G1 X62.180 Y73.185 E3.93233
G1 X60.130 Y72.745 E4.01168
G1 X59.460 Y72.575 E4.03784
G1 X58.800 Y72.345 E4.06430
G1 X56.610 Y71.375 E4.15495
G1 X55.980 Y71.065 E4.18152
G1 X55.680 Y70.895 E4.19458
G1 X55.090 Y70.505 E4.22134
G1 X53.080 Y69.045 E4.31537
G1 X52.540 Y68.585 E4.34222
G1 X52.290 Y68.335 E4.35560
G1 X50.650 Y66.525 E4.44804
G1 X50.190 Y65.975 E4.47518
G1 X49.980 Y65.685 E4.48873
G1 X49.590 Y65.075 E4.51613
G1 X48.550 Y63.265 E4.59514
G1 X48.230 Y62.645 E4.62155
G1 X47.960 Y62.005 E4.64784
G1 X47.200 Y59.695 E4.73987
G1 X47.000 Y58.995 E4.76743
G1 X46.820 Y57.925 E4.80849
G1 X46.610 Y55.845 E4.88762
G1 X46.570 Y55.165 E4.91340
G1 X46.570 Y54.825 E4.92627
G1 X46.610 Y54.145 E4.95205
G1 X46.820 Y52.065 E5.03117
G1 X47.000 Y50.995 E5.07224
G1 X47.200 Y50.295 E5.09979
G1 X47.850 Y48.305 E5.17903
G1 X48.090 Y47.655 E5.20525
G1 X48.230 Y47.345 E5.21812
G1 X48.550 Y46.725 E5.24453
G1 X49.590 Y44.915 E5.32354
G1 X49.980 Y44.305 E5.35094
G1 X50.344 Y43.819 E5.37391
G1 X50.960 Y44.195 F7800.000
G1 X52.800 Y42.155 F600.000 E5.47789
G1 X53.270 Y41.715 E5.50226
G1 X53.520 Y41.505 E5.51461
G1 X55.510 Y40.065 E5.60758
G1 X55.780 Y39.875 E5.62008
G1 X56.330 Y39.545 E5.64435
G1 X56.900 Y39.265 E5.66839
G1 X59.070 Y38.305 E5.75820
G1 X59.690 Y38.095 E5.78297
G1 X60.000 Y38.005 E5.79519
G1 X62.370 Y37.505 E5.88686
G1 X62.680 Y37.445 E5.89881
G1 X63.310 Y37.365 E5.92285
G1 X63.630 Y37.345 E5.93498
G1 X66.360 Y37.345 E6.03831
G1 X66.680 Y37.365 E6.05044
G1 X67.310 Y37.445 E6.07448
G1 X67.620 Y37.505 E6.08643
G1 X70.000 Y38.005 E6.17847
G1 X70.310 Y38.095 E6.19069
G1 X70.630 Y38.195 E6.20338
G1 X71.240 Y38.445 E6.22833
G1 X73.430 Y39.425 E6.31914
G1 X73.710 Y39.575 E6.33116
G1 X74.510 Y40.085 E6.36707
G1 X76.210 Y41.315 E6.44648
G1 X76.720 Y41.715 E6.47102
G1 X77.190 Y42.155 E6.49538
G1 X78.810 Y43.945 E6.58676
G1 X79.030 Y44.195 E6.59936
G1 X79.430 Y44.715 E6.62419
G1 X79.780 Y45.275 E6.64918
G1 X80.970 Y47.365 E6.74021
G1 X81.110 Y47.645 E6.75206
G1 X81.360 Y48.235 E6.77631
G1 X82.210 Y50.835 E6.87984
G1 X82.360 Y51.485 E6.90509
G1 X82.460 Y52.145 E6.93035
G1 X82.670 Y54.225 E7.00948
G1 X82.700 Y55.155 E7.04469
G1 X82.670 Y55.765 E7.06781
G1 X82.460 Y57.845 E7.14693
G1 X82.360 Y58.505 E7.17220
G1 X82.290 Y58.835 E7.18496
G1 X82.110 Y59.475 E7.21013
G1 X81.460 Y61.465 E7.28936
G1 X81.240 Y62.055 E7.31319
G1 X80.820 Y62.905 E7.34908
G1 X79.780 Y64.715 E7.42808
G1 X79.430 Y65.275 E7.45308
G1 X79.030 Y65.795 E7.47791
G1 X77.410 Y67.595 E7.56956
G1 X77.190 Y67.835 E7.58189
G1 X76.720 Y68.275 E7.60625
G1 X76.210 Y68.675 E7.63078
G1 X74.510 Y69.905 E7.71020
G1 X73.710 Y70.415 E7.74611
G1 X73.430 Y70.565 E7.75813
G1 X71.240 Y71.545 E7.84894
G1 X70.640 Y71.785 E7.87340
G1 X70.020 Y71.975 E7.89794
G1 X69.710 Y72.045 E7.90997
G1 X67.660 Y72.485 E7.98932
G1 X67.020 Y72.595 E8.01390
G1 X66.370 Y72.655 E8.03861
G1 X63.620 Y72.655 E8.14269
G1 X63.300 Y72.635 E8.15482
G1 X62.330 Y72.485 E8.19197
G1 X60.280 Y72.045 E8.27133
G1 X59.660 Y71.885 E8.29556
G1 X58.770 Y71.555 E8.33149
G1 X56.900 Y70.725 E8.40892
G1 X56.330 Y70.445 E8.43296
G1 X55.780 Y70.115 E8.45723
G1 X53.520 Y68.485 E8.56269
G1 X52.800 Y67.835 E8.59941
G1 X50.960 Y65.795 E8.70338
G1 X50.560 Y65.275 E8.72821
G1 X50.380 Y64.995 E8.74081
G1 X49.170 Y62.905 E8.83221
G1 X48.880 Y62.345 E8.85608
G1 X48.630 Y61.755 E8.88033
G1 X47.880 Y59.475 E8.97118
G1 X47.700 Y58.835 E8.99634
G1 X47.630 Y58.505 E9.00911
G1 X47.530 Y57.845 E9.03437
G1 X47.320 Y55.765 E9.11349
G1 X47.290 Y54.835 E9.14871
G1 X47.320 Y54.225 E9.17183
G1 X47.530 Y52.145 E9.25095
G1 X47.630 Y51.485 E9.27622
G1 X47.700 Y51.155 E9.28898
G1 X47.880 Y50.515 E9.31415
G1 X48.530 Y48.525 E9.39338
G1 X48.630 Y48.235 E9.40499
G1 X48.880 Y47.645 E9.42924
G1 X49.170 Y47.085 E9.45311
G1 X50.210 Y45.275 E9.53212
G1 X50.560 Y44.715 E9.55711
G1 X50.895 Y44.280 E9.57789
G1 F1800.000 E8.57789
G92 E0
G1 X62.465 Y62.803 F7800.000
G1 F1800.000 E1.00000
G1 X60.898 Y62.106 F600.000 E1.06492
G1 X59.510 Y61.097 E1.12984
G1 X58.362 Y59.823 E1.19476
G1 X57.505 Y58.337 E1.25968
G1 X56.975 Y56.706 E1.32460
G1 X56.795 Y55.000 E1.38951
G1 X56.975 Y53.294 E1.45443
G1 X57.505 Y51.663 E1.51935
G1 X58.362 Y50.177 E1.58427
G1 X59.510 Y48.903 E1.64919
G1 X60.898 Y47.894 E1.71411
G1 X62.465 Y47.197 E1.77903
G1 X64.142 Y46.840 E1.84395
G1 X65.858 Y46.840 E1.90887
G1 X67.535 Y47.197 E1.97379
G1 X69.102 Y47.894 E2.03871
G1 X70.490 Y48.903 E2.10363
G1 X71.638 Y50.177 E2.16854
G1 X72.495 Y51.663 E2.23346
G1 X73.025 Y53.294 E2.29838
G1 X73.205 Y55.000 E2.36330
G1 X73.025 Y56.706 E2.42822
G1 X72.495 Y58.337 E2.49314
G1 X71.638 Y59.823 E2.55806
G1 X70.490 Y61.097 E2.62298
G1 X69.102 Y62.106 E2.68790
G1 X67.535 Y62.803 E2.75282
G1 X65.858 Y63.160 E2.81774
G1 X64.142 Y63.160 E2.88265
G1 X62.569 Y62.825 E2.94352
G1 X62.243 Y63.486 F7800.000
G1 X60.539 Y62.727 F600.000 E3.01412
G1 X59.029 Y61.631 E3.08472
G1 X57.781 Y60.245 E3.15532
G1 X56.849 Y58.629 E3.22592
G1 X56.272 Y56.855 E3.29652
G1 X56.077 Y55.000 E3.36713
G1 X56.272 Y53.145 E3.43773
G1 X56.849 Y51.371 E3.50833
G1 X57.781 Y49.755 E3.57893
G1 X59.029 Y48.369 E3.64953
G1 X60.539 Y47.273 E3.72013
G1 X62.243 Y46.514 E3.79073
G1 X64.067 Y46.126 E3.86133
G1 X65.933 Y46.126 E3.93193
G1 X67.757 Y46.514 E4.00253
G1 X69.461 Y47.273 E4.07313
G1 X70.971 Y48.369 E4.14374
G1 X72.219 Y49.755 E4.21434
G1 X73.151 Y51.371 E4.28494
G1 X73.728 Y53.145 E4.35554
G1 X73.923 Y55.000 E4.42614
G1 X73.728 Y56.855 E4.49674
G1 X73.151 Y58.629 E4.56734
G1 X72.219 Y60.245 E4.63794
G1 X70.971 Y61.631 E4.70854
G1 X69.461 Y62.727 E4.77914
G1 X67.757 Y63.486 E4.84974
G1 X65.933 Y63.874 E4.92035
G1 X64.067 Y63.874 E4.99095
G1 X62.347 Y63.508 E5.05749
G1 X62.021 Y64.169 F7800.000
G1 X60.180 Y63.349 F480.000 E5.13378
G1 X58.549 Y62.165 E5.21006
G1 X57.200 Y60.667 E5.28634
G1 X56.193 Y58.921 E5.36262
G1 X55.570 Y57.004 E5.43891
G1 X55.359 Y55.000 E5.51519
G1 X55.570 Y52.996 E5.59147
G1 X56.193 Y51.079 E5.66776
G1 X57.200 Y49.333 E5.74404
G1 X58.549 Y47.835 E5.82032
G1 X60.180 Y46.651 E5.89660
G1 X62.021 Y45.831 E5.97289
G1 X63.992 Y45.412 E6.04917
G1 X66.008 Y45.412 E6.12545
G1 X67.979 Y45.831 E6.20173
G1 X69.820 Y46.651 E6.27802
G1 X71.451 Y47.835 E6.35430
G1 X72.800 Y49.333 E6.43058
G1 X73.807 Y51.079 E6.50687
G1 X74.430 Y52.996 E6.58315
G1 X74.641 Y55.000 E6.65943
G1 X74.430 Y57.004 E6.73571
G1 X73.807 Y58.921 E6.81200
G1 X72.800 Y60.667 E6.88828
G1 X71.451 Y62.165 E6.96456
G1 X69.820 Y63.349 E7.04084
G1 X67.979 Y64.169 E7.11713
G1 X66.008 Y64.588 E7.19341
G1 X63.992 Y64.588 E7.26969
G1 X62.126 Y64.191 E7.34192
G1 X61.897 Y63.466 F7800.000
G1 X59.859 Y60.711
G1 X62.380 Y62.199 F900.000 E7.45533
G1 X57.823 Y57.641 E7.70498
G1 X57.445 Y56.230 E7.76156
G1 X63.765 Y62.550 E8.10775
G1 X64.891 Y62.642 E8.15148
G1 X57.324 Y55.075 E8.56595
G1 X57.408 Y54.126 E8.60287
G1 X65.903 Y62.621 E9.06820
G1 X66.755 Y62.440 E9.10195
G1 X57.541 Y53.226 E9.60665
G1 X57.795 Y52.445 E9.63842
G1 X67.570 Y62.221 E10.17387
G1 X68.285 Y61.903 E10.20418
G1 X58.081 Y51.699 E10.76309
G1 X58.460 Y51.044 E10.79239
G1 X68.975 Y61.558 E11.36833
G1 X69.573 Y61.124 E11.39699
G1 X58.854 Y50.405 E11.98412
G1 X59.344 Y49.861 E12.01246
G1 X70.166 Y60.683 E12.60525
G1 X70.656 Y60.139 E12.63360
G1 X59.834 Y49.317 E13.22639
G1 X60.427 Y48.876 E13.25500
G1 X71.146 Y59.595 E13.84212
G1 X71.540 Y58.956 E13.87121
G1 X61.025 Y48.441 E14.44715
G1 X61.715 Y48.097 E14.47699
G1 X71.919 Y58.301 E15.03590
G1 X72.205 Y57.555 E15.06688
G1 X62.430 Y47.779 E15.60233
G1 X63.245 Y47.560 E15.63500
G1 X72.459 Y56.774 E16.13970
G1 X72.592 Y55.874 E16.17494
G1 X64.097 Y47.379 E16.64027
G1 X65.109 Y47.358 E16.67948
G1 X72.676 Y54.925 E17.09396
G1 X72.555 Y53.770 E17.13894
G1 X66.235 Y47.450 E17.48513
G1 X67.620 Y47.801 E17.54047
G1 X72.177 Y52.359 E17.79011
G1 X70.141 Y49.289 E17.93277
M106 S204
M104 S190 ; set temperature
M140 S45 ; set bed temperature
G1 F1800.000 E16.93277
G92 E0
G1 Z0.700 F7800.000
G1 X60.526 Y47.252
G1 F1800.000 E1.00000
G1 X62.235 Y46.491 F1200.000 E1.03114
G1 X64.065 Y46.102 E1.06228
G1 X65.935 Y46.102 E1.09342
G1 X67.765 Y46.491 E1.12457
G1 X69.474 Y47.252 E1.15571
G1 X70.987 Y48.351 E1.18685
G1 X72.238 Y49.741 E1.21799
G1 X73.174 Y51.361 E1.24913
G1 X73.752 Y53.140 E1.28027
G1 X73.947 Y55.000 E1.31142
G1 X73.752 Y56.860 E1.34256
G1 X73.174 Y58.639 E1.37370
G1 X72.238 Y60.259 E1.40484
G1 X70.987 Y61.649 E1.43598
G1 X69.474 Y62.748 E1.46712
G1 X67.765 Y63.509 E1.49826
G1 X65.935 Y63.898 E1.52941
G1 X64.065 Y63.898 E1.56055
G1 X62.235 Y63.509 E1.59169
G1 X60.526 Y62.748 E1.62283
G1 X59.013 Y61.649 E1.65397
G1 X57.762 Y60.259 E1.68511
G1 X56.826 Y58.639 E1.71626
G1 X56.248 Y56.860 E1.74740
G1 X56.053 Y55.000 E1.77854
G1 X56.248 Y53.140 E1.80968
G1 X56.826 Y51.361 E1.84082
G1 X57.762 Y49.741 E1.87196
G1 X59.013 Y48.351 E1.90311
G1 X60.476 Y47.289 E1.93320
G1 X60.316 Y46.887 F7800.000
G1 X62.105 Y46.090 F1200.000 E1.96581
G1 X64.021 Y45.683 E1.99842
G1 X65.979 Y45.683 E2.03102
G1 X67.895 Y46.090 E2.06363
G1 X69.684 Y46.887 E2.09624
G1 X71.269 Y48.038 E2.12885
G1 X72.579 Y49.493 E2.16145
G1 X73.558 Y51.190 E2.19406
G1 X74.164 Y53.052 E2.22667
G1 X74.368 Y55.000 E2.25928
G1 X74.164 Y56.948 E2.29188
G1 X73.573 Y58.764 E2.32368
G1 X72.579 Y60.506 E2.35708
G1 X71.269 Y61.962 E2.38969
G1 X69.684 Y63.113 E2.42230
G1 X67.895 Y63.910 E2.45490
G1 X66.027 Y64.307 E2.48670
G1 X64.021 Y64.317 E2.52010
G1 X62.105 Y63.910 E2.55271
G1 X60.316 Y63.113 E2.58532
G1 X58.731 Y61.962 E2.61792
G1 X57.421 Y60.506 E2.65053
G1 X56.442 Y58.810 E2.68314
G1 X55.836 Y56.948 E2.71575
G1 X55.632 Y55.000 E2.74835
G1 X55.836 Y53.052 E2.78096
G1 X56.442 Y51.190 E2.81357
G1 X57.421 Y49.493 E2.84618
G1 X58.731 Y48.038 E2.87879
G1 X60.265 Y46.924 E2.91035
G1 X60.105 Y46.522 F7800.000
G1 X61.975 Y45.690 F960.000 E2.94442
G1 X63.977 Y45.264 E2.97849
G1 X66.023 Y45.264 E3.01257
G1 X68.025 Y45.690 E3.04664
G1 X69.895 Y46.522 E3.08071
G1 X71.550 Y47.725 E3.11479
G1 X72.920 Y49.246 E3.14886
G1 X73.943 Y51.018 E3.18294
G1 X74.575 Y52.965 E3.21701
G1 X74.789 Y55.000 E3.25108
G1 X74.575 Y57.035 E3.28516
G1 X73.972 Y58.893 E3.31768
G1 X73.943 Y58.982 E3.31923
G1 X72.920 Y60.754 E3.35330
G1 X71.550 Y62.275 E3.38738
G1 X69.895 Y63.478 E3.42145
G1 X68.025 Y64.310 E3.45552
G1 X66.023 Y64.736 E3.48960
G1 X63.977 Y64.736 E3.52367
G1 X61.975 Y64.310 E3.55774
G1 X60.105 Y63.478 E3.59182
G1 X58.450 Y62.275 E3.62589
G1 X57.080 Y60.754 E3.65996
G1 X56.057 Y58.982 E3.69404
G1 X55.425 Y57.035 E3.72811
G1 X55.211 Y55.000 E3.76219
G1 X55.425 Y52.965 E3.79626
G1 X56.057 Y51.018 E3.83033
G1 X57.080 Y49.246 E3.86441
G1 X58.450 Y47.725 E3.89848
G1 X60.054 Y46.559 E3.93151
G1 X60.461 Y46.744 F7800.000
G1 X59.218 Y48.578
G1 X59.216 Y48.579 F1800.000 E3.93155
G1 X57.378 Y51.013 F7800.000
G1 X61.032 Y47.359 F1800.000 E4.01802
G1 X62.105 Y46.881 E4.03767
G1 X56.915 Y52.071 E4.16049
G1 X56.628 Y52.953 E4.17601
G1 X62.927 Y46.654 E4.32507
G1 X63.684 Y46.493 E4.33800
G1 X56.497 Y53.680 E4.50806
G1 X56.427 Y54.345 E4.51925
G1 X64.367 Y46.406 E4.70713
G1 X64.962 Y46.406 E4.71709
G1 X56.359 Y55.008 E4.92066
G1 X56.416 Y55.547 E4.92973
G1 X65.557 Y46.406 E5.14605
G1 X66.109 Y46.449 E5.15531
G1 X56.472 Y56.086 E5.38334
G1 X56.529 Y56.625 E5.39240
G1 X66.600 Y46.554 E5.63072
G1 X67.091 Y46.658 E5.63911
G1 X56.646 Y57.103 E5.88627
G1 X56.792 Y57.552 E5.89417
G1 X67.582 Y46.762 E6.14948
G1 X68.008 Y46.931 E6.15716
G1 X56.938 Y58.001 E6.41910
G1 X57.084 Y58.451 E6.42701
G1 X68.420 Y47.115 E6.69524
G1 X68.832 Y47.298 E6.70279
G1 X57.292 Y58.838 E6.97586
G1 X57.510 Y59.216 E6.98315
G1 X69.244 Y47.482 E7.26082
G1 X69.601 Y47.720 E7.26800
G1 X57.728 Y59.593 E7.54896
G1 X57.946 Y59.971 E7.55626
G1 X69.946 Y47.970 E7.84022
G1 X70.291 Y48.221 E7.84735
G1 X58.209 Y60.302 E8.13324
G1 X58.491 Y60.616 E8.14030
G1 X70.636 Y48.471 E8.42767
G1 X70.944 Y48.758 E8.43472
G1 X58.773 Y60.929 E8.72273
G1 X59.055 Y61.242 E8.72978
G1 X71.227 Y49.071 E9.01778
G1 X71.509 Y49.384 E9.02484
G1 X59.364 Y61.529 E9.31221
G1 X59.709 Y61.779 E9.31934
G1 X71.791 Y49.698 E9.60523
G1 X72.054 Y50.029 E9.61232
G1 X60.054 Y62.030 E9.89629
G1 X60.399 Y62.280 E9.90342
G1 X72.272 Y50.407 E10.18438
G1 X72.490 Y50.784 E10.19168
G1 X60.756 Y62.518 E10.46934
G1 X61.168 Y62.702 E10.47688
G1 X72.708 Y51.162 E10.74996
G1 X72.916 Y51.549 E10.75732
G1 X61.580 Y62.885 E11.02555
G1 X61.992 Y63.068 E11.03310
G1 X73.062 Y51.999 E11.29504
G1 X73.208 Y52.448 E11.30295
G1 X62.418 Y63.238 E11.55826
G1 X62.909 Y63.342 E11.56666
G1 X73.354 Y52.897 E11.81381
G1 X73.471 Y53.375 E11.82205
G1 X63.400 Y63.446 E12.06036
G1 X63.891 Y63.551 E12.06876
G1 X73.528 Y53.914 E12.29679
G1 X73.584 Y54.453 E12.30585
G1 X64.443 Y63.594 E12.52217
G1 X65.038 Y63.594 E12.53214
G1 X73.641 Y54.992 E12.73571
G1 X73.573 Y55.655 E12.74686
G1 X65.633 Y63.594 E12.93474
G1 X66.316 Y63.507 E12.94627
G1 X73.503 Y56.320 E13.11632
G1 X73.372 Y57.047 E13.12868
G1 X67.073 Y63.346 E13.27774
G1 X67.895 Y63.119 E13.29201
G1 X73.085 Y57.929 E13.41483
G1 X72.622 Y58.987 E13.43416
G1 X68.968 Y62.641 E13.52063
G1 X70.782 Y61.422 F7800.000
G1 X70.784 Y61.421 F1800.000 E13.52068
M106 S204
G1 F1800.000 E12.52068
G92 E0
G1 Z1.000 F7800.000
G1 X70.987 Y61.649
G1 F1800.000 E1.00000
