; generated by Slic3r 1.0.0RC2 on 2014-03-17 at 21:01:33

; layer_height = 0.2937
; perimeters = 3
; top_solid_layers = 3
; bottom_solid_layers = 3
; fill_density = 0.2
; perimeter_speed = 30
; infill_speed = 60
; travel_speed = 130
; nozzle_diameter = 0.4
; filament_diameter = 2.88
; extrusion_multiplier = 1
; perimeters extrusion width = 0.40mm
; infill extrusion width = 0.44mm
; solid infill extrusion width = 0.44mm
; top infill extrusion width = 0.44mm
; first layer extrusion width = 0.59mm

G21 ; set units to millimeters
M107
M104 S205 ; set temperature
G28 ; home all axes
M92 X84.5834; calibrate X
M92 Y84.4486 ; calibrate Y
M92 Z2210.2522 ; calibrate Z
M92 E687.5313 ; calibrate E
M109 S205 ; wait for temperature to be reached
G90 ; use absolute coordinates
G92 E0
M82 ; use absolute distances for extrusion
G1 F1800.000 E-1.00000
G92 E0
G1 Z0.294 F7800.000
G1 X35.700 Y27.260 F7800.000
G1 E1.00000 F1800.000
G1 X36.140 Y26.760 E1.01643 F540.000
G1 X36.800 Y26.110 E1.03928
G1 X37.280 Y25.690 E1.05502
G1 X37.990 Y25.140 E1.07717
G1 X38.540 Y24.770 E1.09353
G1 X39.420 Y24.270 E1.11850
G1 X40.000 Y23.990 E1.13438
G1 X40.740 Y23.680 E1.15418
G1 X41.370 Y23.460 E1.17064
G1 X42.380 Y23.190 E1.19643
G1 X43.010 Y23.070 E1.21225
G1 X43.900 Y22.960 E1.23437
G1 X44.990 Y22.910 E1.26129
G1 X84.990 Y22.910 E2.24808
G1 X86.080 Y22.960 E2.27499
G1 X87.060 Y23.090 E2.29938
G1 X87.700 Y23.220 E2.31549
G1 X88.570 Y23.450 E2.33769
G1 X89.190 Y23.660 E2.35384
G1 X89.990 Y23.990 E2.37519
G1 X90.570 Y24.270 E2.39108
G1 X91.450 Y24.770 E2.41605
G1 X92.000 Y25.140 E2.43240
G1 X92.720 Y25.700 E2.45490
G1 X93.210 Y26.130 E2.47099
G1 X93.860 Y26.780 E2.49366
G1 X94.290 Y27.270 E2.50975
G1 X94.810 Y27.940 E2.53067
G1 X95.180 Y28.480 E2.54682
G1 X95.740 Y29.450 E2.57445
G1 X96.020 Y30.040 E2.59056
G1 X96.330 Y30.800 E2.61081
G1 X96.540 Y31.420 E2.62696
G1 X96.770 Y32.290 E2.64916
G1 X96.900 Y32.930 E2.66527
G1 X97.020 Y33.800 E2.68693
G1 X97.090 Y34.990 E2.71634
G1 X97.090 Y74.990 E3.70312
G1 X97.070 Y75.530 E3.71646
G1 X97.020 Y76.190 E3.73278
G1 X96.900 Y77.060 E3.75445
G1 X96.770 Y77.700 E3.77056
G1 X96.540 Y78.570 E3.79276
G1 X96.330 Y79.190 E3.80891
G1 X96.000 Y79.990 E3.83026
G1 X95.720 Y80.570 E3.84615
G1 X95.220 Y81.450 E3.87112
G1 X94.850 Y82.000 E3.88747
G1 X94.290 Y82.720 E3.90997
G1 X93.860 Y83.210 E3.92605
G1 X93.210 Y83.860 E3.94873
G1 X92.720 Y84.290 E3.96481
G1 X92.000 Y84.850 E3.98731
G1 X91.450 Y85.220 E4.00367
G1 X90.570 Y85.720 E4.02864
G1 X89.990 Y86.000 E4.04452
G1 X89.190 Y86.330 E4.06587
G1 X88.570 Y86.540 E4.08202
G1 X87.700 Y86.770 E4.10422
G1 X87.060 Y86.900 E4.12033
G1 X86.190 Y87.020 E4.14200
G1 X84.990 Y87.090 E4.17165
G1 X44.990 Y87.090 E5.15844
G1 X44.450 Y87.070 E5.17177
G1 X43.800 Y87.020 E5.18785
G1 X42.930 Y86.900 E5.20952
G1 X42.290 Y86.770 E5.22563
G1 X41.420 Y86.540 E5.24783
G1 X40.800 Y86.330 E5.26398
G1 X40.040 Y86.020 E5.28422
G1 X39.450 Y85.740 E5.30034
G1 X38.480 Y85.180 E5.32797
G1 X37.940 Y84.810 E5.34412
G1 X37.270 Y84.290 E5.36504
G1 X36.780 Y83.860 E5.38112
G1 X36.130 Y83.210 E5.40380
G1 X35.700 Y82.720 E5.41988
G1 X35.140 Y82.000 E5.44238
G1 X34.770 Y81.450 E5.45874
G1 X34.270 Y80.570 E5.48370
G1 X33.990 Y79.990 E5.49959
G1 X33.660 Y79.190 E5.52094
G1 X33.450 Y78.570 E5.53709
G1 X33.220 Y77.720 E5.55881
G1 X33.090 Y77.090 E5.57468
G1 X32.960 Y76.080 E5.59980
G1 X32.910 Y74.990 E5.62672
G1 X32.920 Y34.550 E6.62436
G1 X32.960 Y33.900 E6.64043
G1 X33.090 Y32.930 E6.66457
G1 X33.220 Y32.290 E6.68068
G1 X33.430 Y31.490 E6.70109
G1 X33.630 Y30.880 E6.71692
G1 X34.000 Y29.960 E6.74138
G1 X34.290 Y29.370 E6.75760
G1 X34.770 Y28.540 E6.78126
G1 X35.140 Y27.990 E6.79761
G1 X35.650 Y27.325 E6.81828
G1 X36.110 Y27.620 F7800.000
G1 X36.550 Y27.120 E6.83471 F540.000
G1 X37.160 Y26.520 E6.85582
G1 X37.640 Y26.100 E6.87156
G1 X38.300 Y25.600 E6.89198
G1 X38.850 Y25.230 E6.90833
G1 X39.650 Y24.760 E6.93122
G1 X40.230 Y24.480 E6.94711
G1 X40.920 Y24.200 E6.96548
G1 X41.550 Y23.980 E6.98195
G1 X42.480 Y23.730 E7.00570
G1 X43.110 Y23.610 E7.02152
G1 X43.940 Y23.510 E7.04215
G1 X44.990 Y23.450 E7.06809
G1 X84.990 Y23.450 E8.05488
G1 X86.050 Y23.500 E8.08106
G1 X86.950 Y23.620 E8.10345
G1 X87.590 Y23.750 E8.11957
G1 X88.390 Y23.970 E8.14003
G1 X89.010 Y24.180 E8.15618
G1 X89.760 Y24.480 E8.17611
G1 X90.340 Y24.760 E8.19200
G1 X91.140 Y25.230 E8.21489
G1 X91.690 Y25.600 E8.23124
G1 X92.360 Y26.110 E8.25201
G1 X92.850 Y26.540 E8.26810
G1 X93.450 Y27.140 E8.28903
G1 X93.880 Y27.630 E8.30511
G1 X94.360 Y28.250 E8.32445
G1 X94.730 Y28.790 E8.34060
G1 X95.240 Y29.680 E8.36591
G1 X95.520 Y30.270 E8.38202
G1 X95.810 Y30.980 E8.40094
G1 X96.020 Y31.600 E8.41709
G1 X96.240 Y32.400 E8.43756
G1 X96.370 Y33.040 E8.45367
G1 X96.480 Y33.840 E8.47359
G1 X96.550 Y34.990 E8.50201
G1 X96.550 Y74.990 E9.48880
G1 X96.530 Y75.480 E9.50089
G1 X96.480 Y76.140 E9.51722
G1 X96.370 Y76.950 E9.53739
G1 X96.240 Y77.590 E9.55350
G1 X96.020 Y78.390 E9.57397
G1 X95.810 Y79.010 E9.59012
G1 X95.510 Y79.760 E9.61004
G1 X95.230 Y80.340 E9.62593
G1 X94.760 Y81.140 E9.64882
G1 X94.390 Y81.690 E9.66518
G1 X93.880 Y82.360 E9.68595
G1 X93.450 Y82.850 E9.70203
G1 X92.850 Y83.450 E9.72296
G1 X92.360 Y83.880 E9.73905
G1 X91.690 Y84.390 E9.75982
G1 X91.140 Y84.760 E9.77617
G1 X90.340 Y85.230 E9.79906
G1 X89.760 Y85.510 E9.81495
G1 X89.010 Y85.810 E9.83488
G1 X88.390 Y86.020 E9.85102
G1 X87.590 Y86.240 E9.87149
G1 X86.950 Y86.370 E9.88760
G1 X86.140 Y86.480 E9.90777
G1 X84.990 Y86.550 E9.93619
G1 X44.990 Y86.550 E10.92298
G1 X44.490 Y86.530 E10.93532
G1 X43.840 Y86.480 E10.95140
G1 X43.040 Y86.370 E10.97133
G1 X42.400 Y86.240 E10.98744
G1 X41.600 Y86.020 E11.00790
G1 X40.980 Y85.810 E11.02405
G1 X40.270 Y85.520 E11.04297
G1 X39.680 Y85.240 E11.05908
G1 X38.790 Y84.730 E11.08439
G1 X38.250 Y84.360 E11.10054
G1 X37.630 Y83.880 E11.11988
G1 X37.140 Y83.450 E11.13596
G1 X36.540 Y82.850 E11.15690
G1 X36.110 Y82.360 E11.17298
G1 X35.600 Y81.690 E11.19375
G1 X35.230 Y81.140 E11.21010
G1 X34.760 Y80.340 E11.23299
G1 X34.480 Y79.760 E11.24888
G1 X34.180 Y79.010 E11.26881
G1 X33.970 Y78.390 E11.28496
G1 X33.760 Y77.610 E11.30489
G1 X33.630 Y76.980 E11.32076
G1 X33.500 Y76.050 E11.34392
G1 X33.450 Y74.990 E11.37010
G1 X33.450 Y34.990 E12.35688
G1 X33.470 Y34.590 E12.36676
G1 X33.510 Y33.940 E12.38283
G1 X33.620 Y33.040 E12.40520
G1 X33.750 Y32.400 E12.42131
G1 X33.950 Y31.660 E12.44022
G1 X34.150 Y31.050 E12.45606
G1 X34.490 Y30.200 E12.47864
G1 X34.780 Y29.610 E12.49486
G1 X35.230 Y28.850 E12.51665
G1 X35.600 Y28.300 E12.53300
G1 X36.061 Y27.686 E12.55195
G1 F1800.000 E11.55195
G92 E0
G1 X43.230 Y31.935 F7800.000
G1 E1.00000 F1800.000
G1 X46.770 Y31.935 E1.08731 F540.000
G1 X48.539 Y35.000 E1.17462
G1 X47.256 Y37.222 E1.23791
G1 X47.349 Y37.327 E1.24137
G1 X48.432 Y36.879 E1.27028
G1 X49.000 Y36.804 E1.28443
G1 X49.568 Y36.879 E1.29857
G1 X50.098 Y37.098 E1.31271
G1 X50.553 Y37.447 E1.32686
G1 X50.902 Y37.902 E1.34100
G1 X51.121 Y38.432 E1.35514
G1 X51.196 Y39.000 E1.36929
G1 X51.121 Y39.568 E1.38343
G1 X50.902 Y40.098 E1.39758
G1 X50.553 Y40.553 E1.41172
G1 X50.098 Y40.902 E1.42586
G1 X49.568 Y41.121 E1.44001
G1 X49.000 Y41.196 E1.45415
G1 X48.432 Y41.121 E1.46830
G1 X47.902 Y40.902 E1.48244
G1 X47.447 Y40.553 E1.49658
G1 X47.098 Y40.098 E1.51073
G1 X46.879 Y39.568 E1.52487
G1 X46.804 Y39.000 E1.53901
G1 X46.879 Y38.432 E1.55316
G1 X47.030 Y38.065 E1.56295
G1 X43.230 Y38.065 E1.65669
G1 X41.607 Y35.252 E1.73682
G1 X41.315 Y35.252 E1.74400
G1 X43.189 Y32.006 E1.83647
G1 X43.325 Y31.396 F7800.000
G1 X78.879 Y38.432 F7800.000
G1 X79.098 Y37.902 E1.85062 F540.000
G1 X79.447 Y37.447 E1.86476
G1 X79.902 Y37.098 E1.87890
G1 X80.432 Y36.879 E1.89305
G1 X81.000 Y36.804 E1.90719
G1 X81.568 Y36.879 E1.92134
G1 X82.651 Y37.327 E1.95025
G1 X82.744 Y37.222 E1.95371
G1 X81.607 Y35.252 E2.00981
G1 X81.315 Y35.252 E2.01700
G1 X83.230 Y31.935 E2.11149
G1 X86.770 Y31.935 E2.19880
G1 X88.539 Y35.000 E2.28611
G1 X86.770 Y38.065 E2.37342
G1 X82.970 Y38.065 E2.46717
G1 X83.121 Y38.432 E2.47695
G1 X83.196 Y39.000 E2.49110
G1 X83.121 Y39.568 E2.50524
G1 X82.902 Y40.098 E2.51939
G1 X82.553 Y40.553 E2.53353
G1 X82.098 Y40.902 E2.54767
G1 X81.568 Y41.121 E2.56182
G1 X81.000 Y41.196 E2.57596
G1 X80.432 Y41.121 E2.59011
G1 X79.902 Y40.902 E2.60425
G1 X79.447 Y40.553 E2.61839
G1 X79.098 Y40.098 E2.63254
G1 X78.879 Y39.568 E2.64668
G1 X78.804 Y39.000 E2.66082
G1 X78.868 Y38.513 E2.67294
G1 X78.509 Y38.028 F7800.000
G1 X78.060 Y41.592 F7800.000
G1 X78.257 Y41.743 E2.67906 F540.000
G1 X81.236 Y45.626 E2.79980
G1 X83.109 Y50.148 E2.92054
G1 X83.748 Y55.000 E3.04128
G1 X83.109 Y59.852 E3.16202
G1 X81.236 Y64.374 E3.28276
G1 X78.257 Y68.257 E3.40349
G1 X74.374 Y71.236 E3.52423
G1 X69.852 Y73.109 E3.64497
G1 X65.000 Y73.748 E3.76571
G1 X60.148 Y73.109 E3.88645
G1 X55.626 Y71.236 E4.00719
G1 X51.743 Y68.257 E4.12793
G1 X48.764 Y64.374 E4.24867
G1 X46.891 Y59.852 E4.36941
G1 X46.252 Y55.000 E4.49015
G1 X46.891 Y50.148 E4.61089
G1 X46.986 Y49.919 E4.61700
G1 X48.764 Y45.626 E4.73163
G1 X51.743 Y41.743 E4.85236
G1 X55.626 Y38.764 E4.97310
G1 X59.919 Y36.986 E5.08773
G1 X60.148 Y36.891 E5.09384
G1 X65.000 Y36.252 E5.21458
G1 X69.852 Y36.891 E5.33532
G1 X74.374 Y38.764 E5.45606
G1 X77.995 Y41.542 E5.56866
G1 X77.727 Y42.026 F7800.000
G1 X77.867 Y42.133 E5.57300 F378.000
G1 X80.758 Y45.902 E5.69018
G1 X82.576 Y50.290 E5.80737
G1 X83.196 Y55.000 E5.92455
G1 X82.576 Y59.710 E6.04174
G1 X80.758 Y64.098 E6.15892
G1 X77.867 Y67.867 E6.27611
G1 X74.098 Y70.758 E6.39329
G1 X69.710 Y72.576 E6.51048
G1 X65.000 Y73.196 E6.62766
G1 X60.290 Y72.576 E6.74485
G1 X55.902 Y70.758 E6.86203
G1 X52.133 Y67.867 E6.97921
G1 X49.242 Y64.098 E7.09640
G1 X47.424 Y59.710 E7.21358
G1 X46.804 Y55.000 E7.33077
G1 X47.424 Y50.290 E7.44795
G1 X47.491 Y50.128 E7.45229
G1 X49.242 Y45.902 E7.56514
G1 X52.133 Y42.133 E7.68232
G1 X55.902 Y39.242 E7.79951
G1 X60.128 Y37.491 E7.91235
G1 X60.290 Y37.424 E7.91669
G1 X65.000 Y36.804 E8.03388
G1 X69.710 Y37.424 E8.15106
G1 X74.098 Y39.242 E8.26825
G1 X77.662 Y41.976 E8.37907
G1 X77.890 Y41.959 F7800.000
G1 F1800.000 E7.37907
G92 E0
G1 X80.814 Y68.812 F7800.000
G1 E1.00000 F1800.000
G1 X81.387 Y68.838 E1.01414 F540.000
G1 X81.933 Y69.012 E1.02829
G1 X82.416 Y69.321 E1.04243
G1 X82.802 Y69.745 E1.05658
G1 X83.066 Y70.254 E1.07072
G1 X83.188 Y70.814 E1.08486
G1 X83.162 Y71.387 E1.09901
G1 X82.988 Y71.935 E1.11320
G1 X86.770 Y71.935 E1.20650
G1 X88.539 Y75.000 E1.29381
G1 X86.770 Y78.065 E1.38112
G1 X83.230 Y78.065 E1.46843
G1 X81.461 Y75.000 E1.55574
G1 X82.772 Y72.729 E1.62044
G1 X82.648 Y72.599 E1.62487
G1 X81.746 Y73.066 E1.64993
G1 X81.186 Y73.188 E1.66407
G1 X80.613 Y73.162 E1.67821
G1 X80.067 Y72.988 E1.69236
G1 X79.584 Y72.679 E1.70650
G1 X79.198 Y72.255 E1.72065
G1 X78.934 Y71.746 E1.73479
G1 X78.812 Y71.186 E1.74893
G1 X78.838 Y70.613 E1.76308
G1 X79.012 Y70.067 E1.77722
G1 X79.321 Y69.584 E1.79137
G1 X79.745 Y69.198 E1.80551
G1 X80.254 Y68.934 E1.81965
G1 X80.734 Y68.829 E1.83177
G1 X81.068 Y68.327 F7800.000
G1 F1800.000 E0.83177
G92 E0
G1 X51.196 Y71.000 F7800.000
G1 E1.00000 F1800.000
G1 X51.121 Y71.568 E1.01414 F540.000
G1 X50.902 Y72.098 E1.02829
G1 X50.553 Y72.553 E1.04243
G1 X50.098 Y72.902 E1.05658
G1 X49.568 Y73.121 E1.07072
G1 X49.000 Y73.196 E1.08486
G1 X48.432 Y73.121 E1.09901
G1 X47.349 Y72.673 E1.12792
G1 X47.256 Y72.778 E1.13138
G1 X48.539 Y75.000 E1.19467
G1 X46.770 Y78.065 E1.28198
G1 X43.230 Y78.065 E1.36929
G1 X41.461 Y75.000 E1.45660
G1 X43.230 Y71.935 E1.54391
G1 X47.030 Y71.935 E1.63765
G1 X46.879 Y71.568 E1.64744
G1 X46.804 Y71.000 E1.66158
G1 X46.879 Y70.432 E1.67573
G1 X47.098 Y69.902 E1.68987
G1 X47.447 Y69.447 E1.70401
G1 X47.902 Y69.098 E1.71816
G1 X48.432 Y68.879 E1.73230
G1 X49.000 Y68.804 E1.74645
G1 X49.568 Y68.879 E1.76059
G1 X50.098 Y69.098 E1.77473
G1 X50.553 Y69.447 E1.78888
G1 X50.902 Y69.902 E1.80302
G1 X51.121 Y70.432 E1.81717
G1 X51.186 Y70.919 E1.82929
G1 X51.658 Y71.294 F7800.000
G1 X52.274 Y71.196 F7800.000
G1 X52.300 Y71.000 E1.83415 F540.000
G1 X52.188 Y70.146 E1.85541
G1 X51.816 Y69.249 E1.87934
G1 X51.977 Y69.126 E1.88434
G1 X55.350 Y71.714 E1.98923
G1 X60.005 Y73.642 E2.11352
G1 X65.000 Y74.300 E2.23781
G1 X69.995 Y73.642 E2.36211
G1 X74.650 Y71.714 E2.48640
G1 X77.994 Y69.148 E2.59040
G1 X78.126 Y69.241 E2.59437
G1 X77.752 Y70.419 E2.62487
G1 X77.712 Y71.280 E2.64612
G1 X77.896 Y72.121 E2.66738
G1 X78.292 Y72.886 E2.68863
G1 X78.872 Y73.523 E2.70988
G1 X79.598 Y73.987 E2.73113
G1 X80.598 Y74.305 E2.75703
G1 X80.197 Y75.000 E2.77681
G1 X82.283 Y78.612 E2.87970
G1 X47.717 Y78.612 E3.73241
G1 X49.803 Y75.000 E3.83530
G1 X49.371 Y74.251 E3.85662
G1 X49.854 Y74.188 E3.86866
G1 X50.650 Y73.858 E3.88991
G1 X51.333 Y73.333 E3.91116
G1 X51.858 Y72.650 E3.93241
G1 X52.188 Y71.854 E3.95367
G1 X52.264 Y71.277 E3.96803
G1 X50.751 Y68.184 F7800.000
G1 X49.854 Y67.812 E3.99196 F540.000
G1 X49.000 Y67.700 E4.01322
G1 X48.146 Y67.812 E4.03447
G1 X47.350 Y68.142 E4.05572
G1 X46.667 Y68.667 E4.07697
G1 X46.142 Y69.350 E4.09823
G1 X45.812 Y70.146 E4.11948
G1 X45.721 Y70.841 E4.13677
G1 X42.599 Y70.841 E4.21379
G1 X41.584 Y72.599 E4.26387
G1 X41.388 Y72.546 E4.26886
G1 X41.388 Y37.454 E5.13457
G1 X41.584 Y37.401 E5.13957
G1 X42.599 Y39.159 E5.18965
G1 X45.721 Y39.159 E5.26667
G1 X45.812 Y39.854 E5.28396
G1 X46.142 Y40.650 E5.30521
G1 X46.667 Y41.334 E5.32647
G1 X47.350 Y41.858 E5.34772
G1 X48.146 Y42.188 E5.36897
G1 X49.000 Y42.300 E5.39022
G1 X49.854 Y42.188 E5.41148
G1 X50.751 Y41.816 E5.43541
G1 X50.874 Y41.977 E5.44041
G1 X48.286 Y45.350 E5.54530
G1 X46.358 Y50.005 E5.66959
G1 X45.700 Y55.000 E5.79388
G1 X46.358 Y59.995 E5.91818
G1 X48.286 Y64.650 E6.04247
G1 X50.874 Y68.023 E6.14736
G1 X50.801 Y68.119 E6.15033
G1 F1800.000 E5.15033
G92 E0
G1 X51.977 Y40.874 F7800.000
G1 E1.00000 F1800.000
G1 X51.816 Y40.751 E1.00500 F540.000
G1 X52.188 Y39.854 E1.02893
G1 X52.300 Y39.000 E1.05019
G1 X52.188 Y38.146 E1.07144
G1 X51.858 Y37.350 E1.09269
G1 X51.333 Y36.667 E1.11394
G1 X50.650 Y36.142 E1.13520
G1 X49.854 Y35.812 E1.15645
G1 X49.371 Y35.749 E1.16848
G1 X49.803 Y35.000 E1.18981
G1 X47.717 Y31.388 E1.29270
G1 X82.283 Y31.388 E2.14541
G1 X79.597 Y36.040 E2.27792
G1 X79.350 Y36.142 E2.28451
G1 X78.667 Y36.667 E2.30576
G1 X78.142 Y37.350 E2.32702
G1 X77.812 Y38.146 E2.34827
G1 X77.700 Y39.000 E2.36952
G1 X77.812 Y39.854 E2.39077
G1 X78.184 Y40.751 E2.41471
G1 X78.023 Y40.874 E2.41971
G1 X74.650 Y38.286 E2.52459
G1 X69.995 Y36.358 E2.64889
G1 X65.000 Y35.700 E2.77318
G1 X60.005 Y36.358 E2.89747
G1 X55.350 Y38.286 E3.02177
G1 X52.042 Y40.824 E3.12463
G1 F1800.000 E2.12463
G92 E0
G1 X79.126 Y41.977 F7800.000
G1 E1.00000 F1800.000
G1 X79.249 Y41.816 E1.00500 F540.000
G1 X80.146 Y42.188 E1.02893
G1 X81.000 Y42.300 E1.05019
G1 X81.854 Y42.188 E1.07144
G1 X82.650 Y41.858 E1.09269
G1 X83.333 Y41.333 E1.11394
G1 X83.858 Y40.650 E1.13520
G1 X84.188 Y39.854 E1.15645
G1 X84.279 Y39.159 E1.17374
G1 X87.401 Y39.159 E1.25076
G1 X88.416 Y37.401 E1.30084
G1 X88.612 Y37.454 E1.30583
G1 X88.612 Y72.546 E2.17155
G1 X88.416 Y72.599 E2.17654
G1 X87.401 Y70.841 E2.22662
G1 X84.315 Y70.841 E2.30277
G1 X84.104 Y69.879 E2.32705
G1 X83.708 Y69.114 E2.34831
G1 X83.128 Y68.477 E2.36956
G1 X82.402 Y68.013 E2.39081
G1 X81.581 Y67.752 E2.41207
G1 X80.721 Y67.712 E2.43332
G1 X79.879 Y67.896 E2.45457
G1 X79.297 Y68.197 E2.47073
G1 X79.138 Y68.007 E2.47684
G1 X81.714 Y64.650 E2.58124
G1 X83.642 Y59.995 E2.70553
G1 X84.300 Y55.000 E2.82982
G1 X83.642 Y50.005 E2.95412
G1 X81.714 Y45.350 E3.07841
G1 X79.176 Y42.042 E3.18127
G1 X79.626 Y41.380 F7800.000
G1 X80.289 Y41.654 E3.19897 F540.000
G1 X81.000 Y41.748 E3.21667
G1 X81.711 Y41.654 E3.23437
G1 X82.374 Y41.380 E3.25207
G1 X82.943 Y40.943 E3.26976
G1 X83.380 Y40.374 E3.28746
G1 X83.654 Y39.711 E3.30516
G1 X83.748 Y39.000 E3.32286
G1 X83.697 Y38.612 E3.33251
G1 X87.085 Y38.612 E3.41610
G1 X88.963 Y35.359 E3.50876
G1 X89.159 Y35.412 E3.51375
G1 X89.159 Y74.588 E4.48022
G1 X88.963 Y74.641 E4.48522
G1 X87.085 Y71.388 E4.57788
G1 X83.710 Y71.388 E4.66116
G1 X83.738 Y70.767 E4.67648
G1 X83.585 Y70.067 E4.69418
G1 X83.255 Y69.429 E4.71188
