; generated by Slic3r 1.0.0RC2 on 2014-03-29 at 17:30:58

; layer_height = 0.2937
; perimeters = 3
; top_solid_layers = 3
; bottom_solid_layers = 3
; fill_density = 0
; perimeter_speed = 30
; infill_speed = 30
; travel_speed = 130
; nozzle_diameter = 0.4
; filament_diameter = 2.93
; extrusion_multiplier = 1
; perimeters extrusion width = 0.40mm
; infill extrusion width = 0.44mm
; solid infill extrusion width = 0.44mm
; top infill extrusion width = 0.44mm
; first layer extrusion width = 0.59mm

G21 ; set units to millimeters
M107
M104 S205 ; set temperature
G28 ; home all axes
M92 X84.5834; calibrate X
M92 Y84.4486 ; calibrate Y
M92 Z2210.2522 ; calibrate Z
M92 E687.5313 ; calibrate E
M109 S205 ; wait for temperature to be reached
G90 ; use absolute coordinates
G92 E0
M82 ; use absolute distances for extrusion
G1 F1800.000 E-1.00000
G92 E0
G1 Z0.294 F7800.000
G1 X50.830 Y45.459 F7800.000
G1 E1.00000 F1800.000
G1 X51.930 Y44.469 E1.03527 F540.000
G1 X53.210 Y43.729 E1.07051
G1 X54.630 Y43.269 E1.10609
G1 X56.100 Y43.119 E1.14131
G1 X73.900 Y43.119 E1.56557
G1 X75.370 Y43.269 E1.60079
G1 X76.790 Y43.729 E1.63637
G1 X78.070 Y44.469 E1.67161
G1 X79.170 Y45.459 E1.70688
G1 X80.040 Y46.659 E1.74221
G1 X81.940 Y49.949 E1.83276
G1 X82.650 Y51.659 E1.87689
G1 X82.890 Y53.499 E1.92112
G1 X82.890 Y66.499 E2.23097
G1 X82.650 Y68.339 E2.27520
G1 X81.940 Y70.049 E2.31933
G1 X80.040 Y73.339 E2.40988
G1 X79.170 Y74.539 E2.44521
G1 X78.070 Y75.529 E2.48049
G1 X76.790 Y76.269 E2.51573
G1 X75.370 Y76.729 E2.55130
G1 X73.900 Y76.879 E2.58652
G1 X56.100 Y76.879 E3.01078
G1 X54.630 Y76.729 E3.04600
G1 X53.220 Y76.269 E3.08135
G1 X51.930 Y75.529 E3.11680
G1 X50.830 Y74.539 E3.15207
G1 X49.960 Y73.339 E3.18740
G1 X47.850 Y69.669 E3.28830
G1 X47.300 Y68.129 E3.32727
G1 X47.110 Y66.499 E3.36639
G1 X47.110 Y53.499 E3.67624
G1 X47.350 Y51.659 E3.72047
G1 X48.060 Y49.949 E3.76460
G1 X49.960 Y46.659 E3.85515
G1 X50.782 Y45.526 E3.88853
G1 X51.230 Y45.829 F7800.000
G1 X52.250 Y44.909 E3.92127 F540.000
G1 X53.440 Y44.229 E3.95393
G1 X54.740 Y43.809 E3.98649
G1 X56.100 Y43.659 E4.01911
G1 X73.900 Y43.659 E4.44337
G1 X75.260 Y43.809 E4.47598
G1 X76.560 Y44.229 E4.50854
G1 X77.750 Y44.909 E4.54121
G1 X78.770 Y45.829 E4.57395
G1 X79.570 Y46.939 E4.60656
G1 X81.470 Y50.229 E4.69711
G1 X82.120 Y51.809 E4.73784
G1 X82.350 Y53.499 E4.77849
G1 X82.350 Y66.499 E5.08834
G1 X82.120 Y68.189 E5.12899
G1 X81.470 Y69.769 E5.16971
G1 X79.570 Y73.059 E5.26027
G1 X78.770 Y74.169 E5.29288
G1 X77.750 Y75.089 E5.32562
G1 X76.560 Y75.769 E5.35829
G1 X75.260 Y76.189 E5.39085
G1 X73.900 Y76.339 E5.42346
G1 X56.100 Y76.339 E5.84772
G1 X54.740 Y76.189 E5.88033
G1 X53.440 Y75.769 E5.91289
G1 X52.250 Y75.089 E5.94556
G1 X51.240 Y74.169 E5.97813
G1 X50.430 Y73.069 E6.01069
G1 X48.340 Y69.429 E6.11073
G1 X47.830 Y67.999 E6.14691
G1 X47.650 Y66.499 E6.18292
G1 X47.650 Y53.499 E6.49278
G1 X47.880 Y51.809 E6.53343
G1 X48.530 Y50.229 E6.57415
G1 X50.430 Y46.939 E6.66470
G1 X51.182 Y45.896 E6.69536
G1 F1800.000 E5.69536
G92 E0
G1 X56.901 Y64.597 F7800.000
G1 E1.00000 F1800.000
G1 X59.099 Y64.597 E1.05237 F540.000
G1 X60.197 Y66.500 E1.10474
G1 X59.099 Y68.403 E1.15711
G1 X56.901 Y68.403 E1.20948
G1 X55.803 Y66.500 E1.26185
G1 X56.860 Y64.668 E1.31226
G1 X56.585 Y64.050 F7800.000
G1 X59.415 Y64.050 E1.37969 F540.000
G1 X60.829 Y66.500 E1.44712
G1 X59.415 Y68.950 E1.51455
G1 X56.585 Y68.950 E1.58198
G1 X55.171 Y66.500 E1.64941
G1 X56.544 Y64.121 E1.71488
G1 X56.270 Y63.503 F7800.000
G1 X59.730 Y63.503 E1.79737 F540.000
G1 X61.461 Y66.500 E1.87986
G1 X59.730 Y69.497 E1.96235
G1 X56.270 Y69.497 E2.04484
G1 X54.539 Y66.500 E2.12733
G1 X56.229 Y63.574 E2.20786
G1 X56.689 Y63.855 F7800.000
G1 X58.946 Y65.070 F7800.000
G1 X58.842 Y64.966 E2.21147 F1080.000
G1 X58.050 Y64.966 E2.23078
G1 X59.703 Y66.619 E2.28781
G1 X59.413 Y67.121 E2.30195
G1 X57.258 Y64.966 E2.37629
G1 X56.877 Y65.377 E2.38996
G1 X59.123 Y67.623 E2.46744
G1 X58.742 Y68.034 E2.48110
G1 X56.587 Y65.879 E2.55545
G1 X56.297 Y66.381 E2.56959
G1 X57.950 Y68.034 E2.62661
G1 X57.054 Y67.930 E2.64862
G1 X57.158 Y68.034 E2.65223
G1 F1800.000 E1.65223
G92 E0
G1 X56.901 Y55.403 F7800.000
G1 E1.00000 F1800.000
G1 X55.803 Y53.500 E1.05237 F540.000
G1 X56.901 Y51.597 E1.10474
G1 X59.099 Y51.597 E1.15711
G1 X60.197 Y53.500 E1.20948
G1 X59.099 Y55.403 E1.26185
G1 X56.983 Y55.403 E1.31226
G1 X56.585 Y55.950 F7800.000
G1 X55.171 Y53.500 E1.37969 F540.000
G1 X56.585 Y51.050 E1.44712
G1 X59.415 Y51.050 E1.51455
G1 X60.829 Y53.500 E1.58198
G1 X59.415 Y55.950 E1.64941
G1 X56.668 Y55.950 E1.71488
G1 X56.270 Y56.497 F7800.000
G1 X54.539 Y53.500 E1.79737 F540.000
G1 X56.270 Y50.503 E1.87986
G1 X59.730 Y50.503 E1.96235
G1 X61.461 Y53.500 E2.04484
G1 X59.730 Y56.497 E2.12733
G1 X56.352 Y56.497 E2.20786
G1 X56.365 Y55.958 F7800.000
G1 X57.158 Y55.034 F7800.000
G1 X57.054 Y54.930 E2.21147 F1080.000
G1 X57.950 Y55.034 E2.23348
G1 X56.297 Y53.381 E2.29050
G1 X56.587 Y52.879 E2.30464
G1 X58.742 Y55.034 E2.37898
G1 X59.123 Y54.623 E2.39265
G1 X56.877 Y52.377 E2.47013
G1 X57.258 Y51.966 E2.48380
G1 X59.413 Y54.121 E2.55814
G1 X59.703 Y53.619 E2.57228
G1 X58.050 Y51.966 E2.62931
G1 X58.842 Y51.966 E2.64862
G1 X58.946 Y52.070 E2.65223
G1 F1800.000 E1.65223
G92 E0
G1 X69.803 Y53.500 F7800.000
G1 E1.00000 F1800.000
G1 X70.901 Y51.597 E1.05237 F540.000
G1 X73.099 Y51.597 E1.10474
G1 X74.197 Y53.500 E1.15711
G1 X73.099 Y55.403 E1.20948
G1 X70.901 Y55.403 E1.26185
G1 X69.844 Y53.571 E1.31226
G1 X69.171 Y53.500 F7800.000
G1 X70.585 Y51.050 E1.37969 F540.000
G1 X73.415 Y51.050 E1.44712
G1 X74.829 Y53.500 E1.51455
G1 X73.415 Y55.950 E1.58198
G1 X70.585 Y55.950 E1.64941
G1 X69.212 Y53.571 E1.71488
G1 X68.539 Y53.500 F7800.000
G1 X70.270 Y50.503 E1.79737 F540.000
G1 X73.730 Y50.503 E1.87986
G1 X75.461 Y53.500 E1.96235
G1 X73.730 Y56.497 E2.04484
G1 X70.270 Y56.497 E2.12733
G1 X68.580 Y53.571 E2.20786
G1 X69.053 Y53.313 F7800.000
G1 X71.158 Y55.034 F7800.000
G1 X71.054 Y54.930 E2.21147 F1080.000
G1 X71.950 Y55.034 E2.23348
G1 X70.297 Y53.381 E2.29050
G1 X70.587 Y52.879 E2.30464
G1 X72.742 Y55.034 E2.37898
G1 X73.123 Y54.623 E2.39265
G1 X70.877 Y52.377 E2.47013
G1 X71.258 Y51.966 E2.48380
G1 X73.413 Y54.121 E2.55814
G1 X73.703 Y53.619 E2.57228
G1 X72.050 Y51.966 E2.62931
G1 X72.842 Y51.966 E2.64862
G1 X72.946 Y52.070 E2.65223
G1 F1800.000 E1.65223
G92 E0
G1 X73.099 Y64.597 F7800.000
G1 E1.00000 F1800.000
G1 X74.197 Y66.500 E1.05237 F540.000
G1 X73.099 Y68.403 E1.10474
G1 X70.901 Y68.403 E1.15711
G1 X69.803 Y66.500 E1.20948
G1 X70.901 Y64.597 E1.26185
G1 X73.017 Y64.597 E1.31226
G1 X73.415 Y64.050 F7800.000
G1 X74.829 Y66.500 E1.37969 F540.000
G1 X73.415 Y68.950 E1.44712
G1 X70.585 Y68.950 E1.51455
G1 X69.171 Y66.500 E1.58198
G1 X70.585 Y64.050 E1.64941
G1 X73.332 Y64.050 E1.71488
G1 X73.730 Y63.503 F7800.000
G1 X75.461 Y66.500 E1.79737 F540.000
G1 X73.730 Y69.497 E1.87986
G1 X70.270 Y69.497 E1.96235
G1 X68.539 Y66.500 E2.04484
G1 X70.270 Y63.503 E2.12733
G1 X73.648 Y63.503 E2.20786
G1 X73.635 Y64.042 F7800.000
G1 X72.946 Y65.070 F7800.000
G1 X72.842 Y64.966 E2.21147 F1080.000
G1 X72.050 Y64.966 E2.23078
G1 X73.703 Y66.619 E2.28781
G1 X73.413 Y67.121 E2.30195
G1 X71.258 Y64.966 E2.37629
G1 X70.877 Y65.377 E2.38996
G1 X73.123 Y67.623 E2.46744
G1 X72.742 Y68.034 E2.48110
G1 X70.587 Y65.879 E2.55545
G1 X70.297 Y66.381 E2.56959
G1 X71.950 Y68.034 E2.62661
G1 X71.054 Y67.930 E2.64862
G1 X71.158 Y68.034 E2.65223
M106 S255
G1 F1800.000 E1.65223
G92 E0
G1 Z0.587 F7800.000
G1 X60.645 Y66.500 F7800.000
G1 E1.00000 F1800.000
G1 X59.323 Y68.791 E1.04609 F1189.190
G1 X56.677 Y68.791 E1.09218
G1 X55.355 Y66.500 E1.13827
G1 X56.677 Y64.209 E1.18436
G1 X59.323 Y64.209 E1.23045
G1 X60.615 Y66.448 E1.27550
G1 X61.107 Y66.500 F7800.000
G1 X59.554 Y69.191 E1.32964 F1189.190
G1 X56.446 Y69.191 E1.38378
G1 X54.893 Y66.500 E1.43791
G1 X56.446 Y63.809 E1.49205
G1 X59.554 Y63.809 E1.54619
G1 X61.077 Y66.448 E1.59928
G1 X61.569 Y66.500 F7800.000
G1 X59.785 Y69.591 E1.66147 F1189.190
G1 X56.215 Y69.591 E1.72366
G1 X54.431 Y66.500 E1.78584
G1 X56.215 Y63.409 E1.84803
G1 X59.785 Y63.409 E1.91021
G1 X61.539 Y66.448 E1.97135
G1 X61.193 Y66.637 F7800.000
G1 X59.212 Y68.434 F7800.000
G1 X59.129 Y68.517 E1.97363 F2378.380
G1 X58.500 Y68.517 E1.98583
G1 X60.072 Y66.945 E2.02891
G1 X60.167 Y66.220 E2.04308
G1 X57.871 Y68.517 E2.10603
G1 X57.242 Y68.517 E2.11822
G1 X59.937 Y65.821 E2.19211
G1 X59.707 Y65.422 E2.20103
G1 X56.754 Y68.375 E2.28197
G1 X56.524 Y67.976 E2.29090
G1 X59.476 Y65.024 E2.37184
G1 X59.246 Y64.625 E2.38077
G1 X56.293 Y67.578 E2.46171
G1 X56.063 Y67.179 E2.47063
G1 X58.758 Y64.483 E2.54452
G1 X58.129 Y64.483 E2.55671
G1 X55.833 Y66.780 E2.61966
G1 X55.928 Y66.055 E2.63383
G1 X57.500 Y64.483 E2.67691
G1 X56.871 Y64.483 E2.68911
G1 X56.788 Y64.566 E2.69138
G1 F1800.000 E1.69138
G92 E0
G1 X56.677 Y55.791 F7800.000
G1 E1.00000 F1800.000
G1 X55.355 Y53.500 E1.04609 F1189.190
G1 X56.677 Y51.209 E1.09218
G1 X59.323 Y51.209 E1.13827
G1 X60.645 Y53.500 E1.18436
G1 X59.323 Y55.791 E1.23045
G1 X56.737 Y55.791 E1.27550
G1 X56.446 Y56.191 F7800.000
G1 X54.893 Y53.500 E1.32964 F1189.190
G1 X56.446 Y50.809 E1.38378
G1 X59.554 Y50.809 E1.43791
G1 X61.107 Y53.500 E1.49205
G1 X59.554 Y56.191 E1.54619
G1 X56.506 Y56.191 E1.59928
G1 X56.215 Y56.591 F7800.000
G1 X54.431 Y53.500 E1.66147 F1189.190
G1 X56.215 Y50.409 E1.72366
G1 X59.785 Y50.409 E1.78584
G1 X61.569 Y53.500 E1.84803
G1 X59.785 Y56.591 E1.91021
G1 X56.275 Y56.591 E1.97135
G1 X56.285 Y56.197 F7800.000
G1 X59.212 Y55.434 F7800.000
G1 X59.129 Y55.517 E1.97363 F2378.380
G1 X58.500 Y55.517 E1.98583
G1 X60.072 Y53.945 E2.02891
G1 X60.167 Y53.220 E2.04308
G1 X57.871 Y55.517 E2.10603
G1 X57.242 Y55.517 E2.11822
G1 X59.937 Y52.821 E2.19211
G1 X59.707 Y52.422 E2.20103
G1 X56.754 Y55.375 E2.28197
G1 X56.524 Y54.976 E2.29090
G1 X59.476 Y52.024 E2.37184
G1 X59.246 Y51.625 E2.38077
G1 X56.293 Y54.578 E2.46171
G1 X56.063 Y54.179 E2.47063
G1 X58.758 Y51.483 E2.54452
G1 X58.129 Y51.483 E2.55671
G1 X55.833 Y53.780 E2.61966
G1 X55.928 Y53.055 E2.63383
G1 X57.500 Y51.483 E2.67691
G1 X56.871 Y51.483 E2.68911
G1 X56.788 Y51.566 E2.69138
G1 F1800.000 E1.69138
G92 E0
G1 X69.355 Y53.500 F7800.000
G1 E1.00000 F1800.000
G1 X70.677 Y51.209 E1.04609 F1189.190
G1 X73.323 Y51.209 E1.09218
G1 X74.645 Y53.500 E1.13827
G1 X73.323 Y55.791 E1.18436
G1 X70.677 Y55.791 E1.23045
G1 X69.385 Y53.552 E1.27550
G1 X68.893 Y53.500 F7800.000
G1 X70.446 Y50.809 E1.32964 F1189.190
G1 X73.554 Y50.809 E1.38378
G1 X75.107 Y53.500 E1.43791
G1 X73.554 Y56.191 E1.49205
G1 X70.446 Y56.191 E1.54619
G1 X68.923 Y53.552 E1.59928
G1 X68.431 Y53.500 F7800.000
G1 X70.215 Y50.409 E1.66147 F1189.190
G1 X73.785 Y50.409 E1.72366
G1 X75.569 Y53.500 E1.78584
G1 X73.785 Y56.591 E1.84803
G1 X70.215 Y56.591 E1.91021
G1 X68.461 Y53.552 E1.97135
G1 X68.807 Y53.363 F7800.000
G1 X70.788 Y51.566 F7800.000
G1 X70.871 Y51.483 E1.97363 F2378.380
G1 X71.500 Y51.483 E1.98583
G1 X69.928 Y53.055 E2.02891
G1 X69.833 Y53.780 E2.04308
G1 X72.129 Y51.483 E2.10603
G1 X72.758 Y51.483 E2.11822
G1 X70.063 Y54.179 E2.19210
G1 X70.293 Y54.578 E2.20103
G1 X73.246 Y51.625 E2.28197
G1 X73.476 Y52.024 E2.29090
G1 X70.524 Y54.976 E2.37184
G1 X70.754 Y55.375 E2.38077
G1 X73.707 Y52.422 E2.46171
G1 X73.937 Y52.821 E2.47063
G1 X71.242 Y55.517 E2.54452
G1 X71.871 Y55.517 E2.55671
G1 X74.167 Y53.220 E2.61966
G1 X74.072 Y53.945 E2.63383
G1 X72.500 Y55.517 E2.67691
G1 X73.129 Y55.517 E2.68911
G1 X73.212 Y55.434 E2.69138
G1 F1800.000 E1.69138
G92 E0
G1 X73.323 Y64.209 F7800.000
G1 E1.00000 F1800.000
G1 X74.645 Y66.500 E1.04609 F1189.190
G1 X73.323 Y68.791 E1.09218
G1 X70.677 Y68.791 E1.13827
G1 X69.355 Y66.500 E1.18436
G1 X70.677 Y64.209 E1.23045
G1 X73.263 Y64.209 E1.27550
G1 X73.554 Y63.809 F7800.000
G1 X75.107 Y66.500 E1.32964 F1189.190
G1 X73.554 Y69.191 E1.38378
G1 X70.446 Y69.191 E1.43791
G1 X68.893 Y66.500 E1.49205
G1 X70.446 Y63.809 E1.54619
G1 X73.494 Y63.809 E1.59928
G1 X73.785 Y63.409 F7800.000
G1 X75.569 Y66.500 E1.66147 F1189.190
G1 X73.785 Y69.591 E1.72366
G1 X70.215 Y69.591 E1.78584
G1 X68.431 Y66.500 E1.84803
G1 X70.215 Y63.409 E1.91021
G1 X73.725 Y63.409 E1.97135
G1 X73.715 Y63.803 F7800.000
G1 X70.788 Y64.566 F7800.000
G1 X70.871 Y64.483 E1.97363 F2378.380
G1 X71.500 Y64.483 E1.98583
G1 X69.928 Y66.055 E2.02891
G1 X69.833 Y66.780 E2.04308
G1 X72.129 Y64.483 E2.10603
G1 X72.758 Y64.483 E2.11822
G1 X70.063 Y67.179 E2.19210
G1 X70.293 Y67.578 E2.20103
G1 X73.246 Y64.625 E2.28197
G1 X73.476 Y65.024 E2.29090
G1 X70.524 Y67.976 E2.37184
G1 X70.754 Y68.375 E2.38077
G1 X73.707 Y65.422 E2.46171
G1 X73.937 Y65.821 E2.47063
G1 X71.242 Y68.517 E2.54452
G1 X71.871 Y68.517 E2.55671
G1 X74.167 Y66.220 E2.61966
G1 X74.072 Y66.945 E2.63383
G1 X72.500 Y68.517 E2.67691
G1 X73.129 Y68.517 E2.68911
G1 X73.212 Y68.434 E2.69138
G1 F1800.000 E1.69138
G92 E0
G1 Z0.881 F7800.000
G1 X60.645 Y66.500 F7800.000
G1 E1.00000 F1800.000
G1 X59.323 Y68.791 E1.04609 F1189.893
G1 X56.677 Y68.791 E1.09218
G1 X55.355 Y66.500 E1.13827
G1 X56.677 Y64.209 E1.18436
G1 X59.323 Y64.209 E1.23045
G1 X60.615 Y66.448 E1.27550
G1 X61.107 Y66.500 F7800.000
G1 X59.554 Y69.191 E1.32964 F1189.893
G1 X56.446 Y69.191 E1.38378
G1 X54.893 Y66.500 E1.43791
G1 X56.446 Y63.809 E1.49205
G1 X59.554 Y63.809 E1.54619
G1 X61.077 Y66.448 E1.59928
G1 X61.569 Y66.500 F7800.000
G1 X59.785 Y69.591 E1.66147 F1189.893
G1 X56.215 Y69.591 E1.72366
G1 X54.431 Y66.500 E1.78584
G1 X56.215 Y63.409 E1.84803
G1 X59.785 Y63.409 E1.91021
G1 X61.539 Y66.448 E1.97135
G1 X61.193 Y66.637 F7800.000
G1 X59.212 Y64.566 F7800.000
G1 X59.129 Y64.483 E1.97363 F2379.786
G1 X58.500 Y64.483 E1.98583
G1 X60.072 Y66.055 E2.02891
G1 X60.167 Y66.780 E2.04308
G1 X57.871 Y64.483 E2.10603
G1 X57.242 Y64.483 E2.11822
G1 X59.937 Y67.179 E2.19210
G1 X59.707 Y67.578 E2.20103
G1 X56.754 Y64.625 E2.28197
G1 X56.524 Y65.024 E2.29090
G1 X59.476 Y67.976 E2.37184
G1 X59.246 Y68.375 E2.38077
G1 X56.293 Y65.422 E2.46171
G1 X56.063 Y65.821 E2.47063
G1 X58.758 Y68.517 E2.54452
G1 X58.129 Y68.517 E2.55671
G1 X55.833 Y66.220 E2.61966
G1 X55.928 Y66.945 E2.63383
G1 X57.500 Y68.517 E2.67691
G1 X56.788 Y68.434 E2.69081
G1 X56.871 Y68.517 E2.69309
G1 F1800.000 E1.69309
G92 E0
G1 X56.677 Y55.791 F7800.000
G1 E1.00000 F1800.000
G1 X55.355 Y53.500 E1.04609 F1189.893
G1 X56.677 Y51.209 E1.09218
G1 X59.323 Y51.209 E1.13827
G1 X60.645 Y53.500 E1.18436
G1 X59.323 Y55.791 E1.23045
G1 X56.737 Y55.791 E1.27550
G1 X56.446 Y56.191 F7800.000
G1 X54.893 Y53.500 E1.32964 F1189.893
G1 X56.446 Y50.809 E1.38378
G1 X59.554 Y50.809 E1.43791
G1 X61.107 Y53.500 E1.49205
G1 X59.554 Y56.191 E1.54619
G1 X56.506 Y56.191 E1.59928
G1 X56.215 Y56.591 F7800.000
G1 X54.431 Y53.500 E1.66147 F1189.893
G1 X56.215 Y50.409 E1.72366
G1 X59.785 Y50.409 E1.78584
G1 X61.569 Y53.500 E1.84803
G1 X59.785 Y56.591 E1.91021
G1 X56.275 Y56.591 E1.97135
G1 X56.285 Y56.197 F7800.000
G1 X56.871 Y55.517 F7800.000
G1 X56.788 Y55.434 E1.97363 F2379.786
G1 X57.500 Y55.517 E1.98753
G1 X55.928 Y53.945 E2.03061
G1 X55.833 Y53.220 E2.04478
G1 X58.129 Y55.517 E2.10773
G1 X58.758 Y55.517 E2.11992
G1 X56.063 Y52.821 E2.19381
G1 X56.293 Y52.422 E2.20274
G1 X59.246 Y55.375 E2.28367
G1 X59.476 Y54.976 E2.29260
G1 X56.524 Y52.024 E2.37354
G1 X56.754 Y51.625 E2.38247
G1 X59.707 Y54.578 E2.46341
G1 X59.937 Y54.179 E2.47234
G1 X57.242 Y51.483 E2.54622
G1 X57.871 Y51.483 E2.55842
G1 X60.167 Y53.780 E2.62136
G1 X60.072 Y53.055 E2.63553
G1 X58.500 Y51.483 E2.67861
G1 X59.129 Y51.483 E2.69081
G1 X59.212 Y51.566 E2.69309
G1 F1800.000 E1.69309
G92 E0
G1 X69.355 Y53.500 F7800.000
G1 E1.00000 F1800.000
G1 X70.677 Y51.209 E1.04609 F1189.893
G1 X73.323 Y51.209 E1.09218
G1 X74.645 Y53.500 E1.13827
G1 X73.323 Y55.791 E1.18436
G1 X70.677 Y55.791 E1.23045
G1 X69.385 Y53.552 E1.27550
G1 X68.893 Y53.500 F7800.000
G1 X70.446 Y50.809 E1.32964 F1189.893
G1 X73.554 Y50.809 E1.38378
G1 X75.107 Y53.500 E1.43791
G1 X73.554 Y56.191 E1.49205
G1 X70.446 Y56.191 E1.54619
G1 X68.923 Y53.552 E1.59928
G1 X68.431 Y53.500 F7800.000
G1 X70.215 Y50.409 E1.66147 F1189.893
G1 X73.785 Y50.409 E1.72366
G1 X75.569 Y53.500 E1.78584
