; generated by Slic3r 1.0.0RC2 on 2014-03-29 at 21:31:12

; layer_height = 0.2937
; perimeters = 3
; top_solid_layers = 3
; bottom_solid_layers = 3
; fill_density = 0.4
; perimeter_speed = 30
; infill_speed = 30
; travel_speed = 130
; nozzle_diameter = 0.4
; filament_diameter = 2.93
; extrusion_multiplier = 1
; perimeters extrusion width = 0.40mm
; infill extrusion width = 0.44mm
; solid infill extrusion width = 0.44mm
; top infill extrusion width = 0.44mm
; first layer extrusion width = 0.59mm

G21 ; set units to millimeters
M107
M104 S205 ; set temperature
G28 ; home all axes
M92 X84.5834; calibrate X
M92 Y84.4486 ; calibrate Y
M92 Z2210.2522 ; calibrate Z
M92 E687.5313 ; calibrate E
M109 S205 ; wait for temperature to be reached
G90 ; use absolute coordinates
G92 E0
M82 ; use absolute distances for extrusion
G1 F1800.000 E-1.00000
G92 E0
G1 Z0.294 F7800.000
G1 X49.330 Y38.020 F7800.000
G1 E1.00000 F1800.000
G1 X50.810 Y36.950 E1.04353 F540.000
G1 X51.440 Y36.530 E1.06158
G1 X52.120 Y36.190 E1.07970
G1 X55.860 Y34.520 E1.17732
G1 X56.530 Y34.260 E1.19445
G1 X57.220 Y34.070 E1.21151
G1 X60.720 Y33.310 E1.29688
G1 X61.340 Y33.210 E1.31184
G1 X62.390 Y33.080 E1.33706
G1 X63.190 Y33.030 E1.35617
G1 X66.800 Y33.030 E1.44221
G1 X67.600 Y33.080 E1.46132
G1 X68.650 Y33.210 E1.48653
G1 X69.270 Y33.310 E1.50150
G1 X72.770 Y34.070 E1.58687
G1 X73.460 Y34.260 E1.60393
G1 X74.130 Y34.520 E1.62106
G1 X77.250 Y35.910 E1.70247
G1 X77.870 Y36.190 E1.71868
G1 X78.550 Y36.530 E1.73680
G1 X79.180 Y36.950 E1.75485
G1 X80.650 Y38.010 E1.79805
G1 X82.490 Y39.350 E1.85230
G1 X83.020 Y39.770 E1.86842
G1 X83.500 Y40.240 E1.88443
G1 X84.230 Y41.020 E1.90989
G1 X85.980 Y42.970 E1.97234
G1 X86.340 Y43.410 E1.98589
G1 X86.980 Y44.250 E2.01106
G1 X87.430 Y44.910 E2.03010
G1 X88.020 Y45.900 E2.05757
G1 X89.250 Y48.060 E2.11682
G1 X89.640 Y48.860 E2.13803
G1 X90.220 Y50.310 E2.17525
G1 X90.960 Y52.560 E2.23171
G1 X91.340 Y53.820 E2.26307
G1 X91.510 Y54.480 E2.27932
G1 X91.610 Y55.150 E2.29546
G1 X92.050 Y59.230 E2.39327
G1 X92.090 Y60.000 E2.41165
G1 X92.050 Y60.770 E2.43003
G1 X91.610 Y64.840 E2.52760
G1 X91.510 Y65.510 E2.54375
G1 X91.340 Y66.170 E2.55999
G1 X90.960 Y67.430 E2.59136
G1 X90.220 Y69.680 E2.64782
G1 X89.640 Y71.130 E2.68504
G1 X89.250 Y71.930 E2.70625
G1 X88.020 Y74.090 E2.76550
G1 X87.430 Y75.080 E2.79297
G1 X86.980 Y75.740 E2.81201
G1 X86.340 Y76.580 E2.83718
G1 X85.980 Y77.020 E2.85073
G1 X84.230 Y78.970 E2.91318
G1 X83.500 Y79.750 E2.93864
G1 X83.020 Y80.220 E2.95465
G1 X82.490 Y80.640 E2.97077
G1 X80.650 Y81.980 E3.02502
G1 X79.180 Y83.040 E3.06822
G1 X78.550 Y83.460 E3.08627
G1 X77.870 Y83.800 E3.10439
G1 X77.250 Y84.080 E3.12060
G1 X74.130 Y85.470 E3.20201
G1 X73.460 Y85.730 E3.21914
G1 X72.770 Y85.920 E3.23620
G1 X69.270 Y86.680 E3.32157
G1 X68.650 Y86.780 E3.33653
G1 X67.600 Y86.910 E3.36175
G1 X66.870 Y86.960 E3.37919
G1 X65.860 Y86.980 E3.40327
G1 X64.130 Y86.980 E3.44450
G1 X63.120 Y86.960 E3.46858
G1 X62.390 Y86.910 E3.48602
G1 X61.340 Y86.780 E3.51124
G1 X60.720 Y86.680 E3.52621
G1 X57.220 Y85.920 E3.61157
G1 X56.530 Y85.730 E3.62863
G1 X55.860 Y85.470 E3.64576
G1 X52.150 Y83.820 E3.74254
G1 X51.430 Y83.450 E3.76183
G1 X50.750 Y83.010 E3.78114
G1 X47.500 Y80.640 E3.87701
G1 X46.970 Y80.220 E3.89313
G1 X46.490 Y79.750 E3.90914
G1 X45.660 Y78.860 E3.93815
G1 X44.010 Y77.020 E3.99705
G1 X43.650 Y76.580 E4.01060
G1 X43.010 Y75.740 E4.03578
G1 X42.560 Y75.080 E4.05481
G1 X41.970 Y74.090 E4.08228
G1 X40.740 Y71.930 E4.14153
G1 X40.350 Y71.130 E4.16274
G1 X39.770 Y69.680 E4.19996
G1 X39.030 Y67.430 E4.25642
G1 X38.650 Y66.170 E4.28779
G1 X38.480 Y65.510 E4.30403
G1 X38.380 Y64.840 E4.32018
G1 X37.940 Y60.730 E4.41870
G1 X37.910 Y60.000 E4.43611
G1 X37.940 Y59.270 E4.45353
G1 X38.110 Y57.620 E4.49306
G1 X38.380 Y55.150 E4.55228
G1 X38.480 Y54.480 E4.56843
G1 X38.650 Y53.820 E4.58468
G1 X39.030 Y52.560 E4.61604
G1 X39.770 Y50.310 E4.67250
G1 X40.350 Y48.860 E4.70972
G1 X40.740 Y48.060 E4.73093
G1 X41.970 Y45.900 E4.79018
G1 X42.560 Y44.910 E4.81765
G1 X43.010 Y44.250 E4.83669
G1 X43.650 Y43.410 E4.86186
G1 X44.010 Y42.970 E4.87541
G1 X45.660 Y41.130 E4.93431
G1 X46.490 Y40.240 E4.96332
G1 X46.970 Y39.770 E4.97933
G1 X47.500 Y39.350 E4.99545
G1 X49.264 Y38.068 E5.04742
G1 X49.660 Y38.460 F7800.000
G1 X51.130 Y37.390 E5.09075 F540.000
G1 X51.720 Y37.000 E5.10761
G1 X52.340 Y36.690 E5.12413
G1 X56.090 Y35.020 E5.22197
G1 X56.700 Y34.780 E5.23760
G1 X57.340 Y34.610 E5.25338
G1 X60.830 Y33.850 E5.33851
G1 X61.410 Y33.750 E5.35254
G1 X62.460 Y33.620 E5.37776
G1 X63.200 Y33.570 E5.39544
G1 X66.790 Y33.570 E5.48100
G1 X67.530 Y33.620 E5.49868
G1 X68.580 Y33.750 E5.52390
G1 X69.160 Y33.850 E5.53793
G1 X72.650 Y34.610 E5.62306
G1 X73.290 Y34.780 E5.63884
G1 X73.900 Y35.020 E5.65447
G1 X77.650 Y36.690 E5.75231
G1 X78.270 Y37.000 E5.76883
G1 X78.860 Y37.390 E5.78569
G1 X80.340 Y38.460 E5.82922
G1 X82.170 Y39.790 E5.88314
G1 X82.650 Y40.180 E5.89788
G1 X83.100 Y40.620 E5.91288
G1 X83.830 Y41.400 E5.93835
G1 X85.570 Y43.340 E6.00046
G1 X85.910 Y43.740 E6.01297
G1 X86.550 Y44.580 E6.03814
G1 X86.960 Y45.190 E6.05566
G1 X87.480 Y46.060 E6.07982
G1 X88.770 Y48.330 E6.14205
G1 X89.130 Y49.060 E6.16145
G1 X89.700 Y50.480 E6.19792
G1 X90.440 Y52.730 E6.25437
G1 X90.820 Y53.980 E6.28551
G1 X90.970 Y54.590 E6.30049
G1 X91.070 Y55.210 E6.31545
G1 X91.510 Y59.290 E6.41326
G1 X91.550 Y60.000 E6.43021
G1 X91.510 Y60.710 E6.44716
G1 X91.070 Y64.780 E6.54474
G1 X90.970 Y65.400 E6.55971
G1 X90.820 Y66.010 E6.57468
G1 X90.440 Y67.260 E6.60582
G1 X89.700 Y69.510 E6.66227
G1 X89.130 Y70.930 E6.69874
G1 X88.770 Y71.660 E6.71814
G1 X87.480 Y73.930 E6.78037
G1 X86.960 Y74.800 E6.80453
G1 X86.550 Y75.410 E6.82205
G1 X85.910 Y76.250 E6.84722
G1 X85.570 Y76.650 E6.85973
G1 X83.830 Y78.590 E6.92185
G1 X83.100 Y79.370 E6.94731
G1 X82.650 Y79.810 E6.96231
G1 X82.170 Y80.200 E6.97705
G1 X80.340 Y81.530 E7.03097
G1 X78.860 Y82.600 E7.07450
G1 X78.270 Y82.990 E7.09136
G1 X77.650 Y83.300 E7.10788
G1 X73.900 Y84.970 E7.20572
G1 X73.290 Y85.210 E7.22135
G1 X72.650 Y85.380 E7.23713
G1 X69.160 Y86.140 E7.32226
G1 X68.580 Y86.240 E7.33629
G1 X67.530 Y86.370 E7.36151
G1 X66.860 Y86.420 E7.37752
G1 X65.850 Y86.440 E7.40160
G1 X64.140 Y86.440 E7.44236
G1 X63.130 Y86.420 E7.46644
G1 X62.460 Y86.370 E7.48245
G1 X61.410 Y86.240 E7.50767
G1 X60.830 Y86.140 E7.52170
G1 X57.340 Y85.380 E7.60683
G1 X56.700 Y85.210 E7.62261
G1 X56.090 Y84.970 E7.63824
G1 X52.370 Y83.320 E7.73523
G1 X51.700 Y82.980 E7.75314
G1 X51.080 Y82.570 E7.77086
G1 X47.820 Y80.200 E7.86692
G1 X47.340 Y79.810 E7.88166
G1 X46.890 Y79.370 E7.89666
G1 X46.160 Y78.590 E7.92213
G1 X44.420 Y76.650 E7.98424
G1 X44.080 Y76.250 E7.99675
G1 X43.440 Y75.410 E8.02192
G1 X43.030 Y74.800 E8.03944
G1 X42.510 Y73.930 E8.06360
G1 X41.220 Y71.660 E8.12583
G1 X40.860 Y70.930 E8.14523
G1 X40.290 Y69.510 E8.18170
G1 X39.550 Y67.260 E8.23815
G1 X39.170 Y66.010 E8.26929
G1 X39.020 Y65.400 E8.28427
G1 X38.920 Y64.780 E8.29924
G1 X38.660 Y62.330 E8.35796
G1 X38.490 Y60.680 E8.39749
G1 X38.450 Y60.000 E8.41373
G1 X38.490 Y59.330 E8.42973
G1 X38.660 Y57.660 E8.46974
G1 X38.920 Y55.210 E8.52846
G1 X39.020 Y54.590 E8.54343
G1 X39.170 Y53.980 E8.55840
G1 X39.550 Y52.730 E8.58954
G1 X40.290 Y50.480 E8.64600
G1 X40.860 Y49.060 E8.68247
G1 X41.220 Y48.330 E8.70187
G1 X42.510 Y46.060 E8.76410
G1 X43.030 Y45.190 E8.78826
G1 X43.440 Y44.580 E8.80577
G1 X44.080 Y43.740 E8.83094
G1 X46.160 Y41.400 E8.90557
G1 X46.890 Y40.620 E8.93103
G1 X47.340 Y40.180 E8.94603
G1 X47.820 Y39.790 E8.96077
G1 X49.592 Y38.502 E9.01297
G1 F1800.000 E8.01297
G92 E0
G1 X55.400 Y44.899 F7800.000
G1 E1.00000 F1800.000
G1 X55.676 Y43.850 E1.02584 F540.000
G1 X56.722 Y44.136 E1.05167
G1 X57.248 Y43.376 E1.07370
G1 X58.706 Y43.510 E1.10860
G1 X58.706 Y42.516 E1.13229
G1 X59.602 Y42.939 E1.15591
G1 X60.253 Y42.283 E1.17793
G1 X61.144 Y42.526 E1.19995
G1 X61.650 Y41.796 E1.22112
G1 X61.911 Y41.741 E1.22748
G1 X62.647 Y42.261 E1.24895
G1 X63.127 Y41.922 E1.26297
G1 X63.566 Y42.799 E1.28636
G1 X64.856 Y41.498 E1.33003
G1 X65.144 Y41.498 E1.33692
G1 X65.763 Y42.122 E1.35786
G1 X66.599 Y41.728 E1.37989
G1 X67.353 Y42.261 E1.40191
G1 X68.089 Y41.741 E1.42339
G1 X68.350 Y41.796 E1.42975
G1 X68.856 Y42.526 E1.45091
G1 X69.747 Y42.283 E1.47294
G1 X70.398 Y42.939 E1.49496
G1 X71.294 Y42.516 E1.51857
G1 X71.294 Y43.510 E1.54226
G1 X72.752 Y43.376 E1.57717
G1 X73.278 Y44.136 E1.59919
G1 X74.324 Y43.850 E1.62503
G1 X74.600 Y44.899 E1.65086
G1 X75.521 Y44.975 E1.67289
G1 X76.225 Y46.503 E1.71299
G1 X77.003 Y45.905 E1.73638
G1 X77.076 Y46.795 E1.75768
G1 X77.970 Y47.030 E1.77970
G1 X78.205 Y47.924 E1.80173
G1 X79.095 Y47.997 E1.82302
G1 X78.497 Y48.775 E1.84641
G1 X80.025 Y49.479 E1.88650
G1 X80.101 Y50.400 E1.90853
G1 X80.951 Y50.624 E1.92948
G1 X81.096 Y50.874 E1.93636
G1 X80.864 Y51.722 E1.95731
G1 X81.624 Y52.248 E1.97934
G1 X81.539 Y53.168 E2.00136
G1 X82.357 Y53.545 E2.02283
G1 X82.440 Y53.799 E2.02920
G1 X82.061 Y54.602 E2.05036
G1 X82.717 Y55.253 E2.07238
G1 X82.474 Y56.144 E2.09441
G1 X83.365 Y56.762 E2.12024
G1 X82.739 Y57.647 E2.14608
G1 X83.272 Y58.401 E2.16810
G1 X82.878 Y59.237 E2.19013
G1 X83.648 Y60.000 E2.21597
G1 X82.585 Y61.054 E2.25165
G1 X83.213 Y61.682 E2.27283
G1 X82.739 Y62.353 E2.29242
G1 X83.365 Y63.238 E2.31826
G1 X82.474 Y63.856 E2.34410
G1 X82.717 Y64.747 E2.36612
G1 X82.061 Y65.398 E2.38814
G1 X82.484 Y66.294 E2.41175
G1 X81.490 Y66.294 E2.43545
G1 X81.624 Y67.752 E2.47035
G1 X80.864 Y68.278 E2.49238
G1 X81.144 Y69.304 E2.51773
G1 X80.126 Y69.304 E2.54200
G1 X80.025 Y70.521 E2.57109
G1 X79.186 Y70.907 E2.59312
G1 X79.269 Y71.805 E2.61459
G1 X79.090 Y72.003 E2.62096
G1 X78.205 Y72.076 E2.64212
G1 X77.970 Y72.970 E2.66414
G1 X77.076 Y73.205 E2.68616
G1 X76.987 Y74.285 E2.71200
G1 X75.907 Y74.186 E2.73783
G1 X75.759 Y74.507 E2.74627
G1 X74.965 Y73.713 E2.77305
G1 X74.324 Y76.150 E2.83311
G1 X73.278 Y75.864 E2.85894
G1 X72.752 Y76.624 E2.88097
G1 X71.832 Y76.539 E2.90300
G1 X71.378 Y77.524 E2.92883
G1 X70.398 Y77.061 E2.95467
G1 X69.747 Y77.717 E2.97669
G1 X68.856 Y77.474 E2.99871
G1 X68.350 Y78.204 E3.01988
G1 X68.089 Y78.259 E3.02624
G1 X67.353 Y77.739 E3.04772
G1 X66.682 Y78.213 E3.06730
G1 X66.054 Y77.585 E3.08849
G1 X65.144 Y78.502 E3.11928
G1 X64.856 Y78.502 E3.12616
G1 X63.946 Y77.585 E3.15695
G1 X63.318 Y78.213 E3.17814
G1 X62.647 Y77.739 E3.19772
G1 X61.911 Y78.259 E3.21920
G1 X61.650 Y78.204 E3.22556
G1 X61.144 Y77.474 E3.24672
G1 X60.253 Y77.717 E3.26875
G1 X59.602 Y77.061 E3.29077
G1 X58.622 Y77.524 E3.31661
G1 X58.168 Y76.539 E3.34244
G1 X57.248 Y76.624 E3.36446
G1 X56.722 Y75.864 E3.38649
G1 X55.696 Y76.144 E3.41184
G1 X55.696 Y75.126 E3.43612
G1 X54.479 Y75.025 E3.46521
G1 X54.093 Y74.186 E3.48723
G1 X53.013 Y74.285 E3.51307
G1 X52.924 Y73.205 E3.53891
G1 X52.030 Y72.970 E3.56093
G1 X51.795 Y72.076 E3.58296
G1 X50.910 Y72.003 E3.60412
G1 X50.731 Y71.805 E3.61048
G1 X50.814 Y70.907 E3.63195
G1 X49.975 Y70.521 E3.65398
G1 X49.874 Y69.304 E3.68307
G1 X48.856 Y69.304 E3.70734
G1 X49.136 Y68.278 E3.73269
G1 X48.376 Y67.752 E3.75472
G1 X48.461 Y66.832 E3.77675
G1 X47.643 Y66.455 E3.79822
G1 X47.560 Y66.201 E3.80459
G1 X47.939 Y65.398 E3.82575
G1 X47.283 Y64.747 E3.84777
G1 X47.526 Y63.856 E3.86979
G1 X46.635 Y63.238 E3.89563
G1 X47.261 Y62.353 E3.92147
G1 X46.728 Y61.599 E3.94349
G1 X47.122 Y60.763 E3.96552
G1 X46.352 Y60.000 E3.99135
G1 X47.799 Y58.566 E4.03992
G1 X46.922 Y58.127 E4.06332
G1 X47.261 Y57.647 E4.07733
G1 X46.635 Y56.762 E4.10316
G1 X47.526 Y56.144 E4.12900
G1 X47.283 Y55.253 E4.15103
G1 X47.939 Y54.602 E4.17305
G1 X47.516 Y53.706 E4.19666
G1 X48.510 Y53.706 E4.22035
G1 X48.376 Y52.248 E4.25526
G1 X49.136 Y51.722 E4.27728
G1 X48.904 Y50.874 E4.29823
G1 X49.049 Y50.624 E4.30511
G1 X49.899 Y50.400 E4.32606
G1 X49.975 Y49.479 E4.34809
G1 X51.503 Y48.775 E4.38819
G1 X50.905 Y47.997 E4.41157
G1 X51.795 Y47.924 E4.43287
G1 X52.030 Y47.030 E4.45489
G1 X52.924 Y46.795 E4.47692
G1 X52.994 Y45.942 E4.49732
G1 X53.745 Y46.568 E4.52062
G1 X54.479 Y44.975 E4.56242
G1 X55.318 Y44.905 E4.58249
G1 X54.970 Y44.385 F7800.000
G1 X55.179 Y43.589 E4.60212 F540.000
G1 X55.423 Y43.412 E4.60930
G1 X55.698 Y43.289 E4.61649
G1 X56.492 Y43.506 E4.63611
G1 X56.980 Y42.802 E4.65653
G1 X58.159 Y42.911 E4.68474
G1 X58.159 Y42.193 E4.70184
G1 X58.748 Y41.931 E4.71721
G1 X59.486 Y42.279 E4.73664
G1 X60.089 Y41.671 E4.75705
G1 X60.915 Y41.896 E4.77747
G1 X61.324 Y41.306 E4.79458
G1 X62.032 Y41.156 E4.81182
G1 X62.647 Y41.591 E4.82978
G1 X63.331 Y41.107 E4.84976
G1 X63.714 Y41.872 E4.87016
G1 X64.627 Y40.950 E4.90109
G1 X65.373 Y40.950 E4.91885
G1 X65.879 Y41.462 E4.93601
G1 X66.654 Y41.096 E4.95642
G1 X67.353 Y41.591 E4.97684
G1 X67.968 Y41.156 E4.99480
G1 X68.676 Y41.306 E5.01204
G1 X69.085 Y41.896 E5.02915
G1 X69.911 Y41.671 E5.04956
G1 X70.514 Y42.279 E5.06998
G1 X71.252 Y41.931 E5.08941
G1 X71.841 Y42.193 E5.10478
G1 X71.841 Y42.911 E5.12188
G1 X73.020 Y42.802 E5.15009
G1 X73.508 Y43.506 E5.17051
G1 X74.302 Y43.289 E5.19013
G1 X74.577 Y43.412 E5.19732
G1 X74.821 Y43.589 E5.20450
G1 X75.030 Y44.385 E5.22413
G1 X75.884 Y44.456 E5.24454
G1 X76.435 Y45.651 E5.27590
G1 X77.030 Y45.193 E5.29379
G1 X77.522 Y45.551 E5.30831
G1 X77.590 Y46.364 E5.32775
G1 X78.418 Y46.582 E5.34816
G1 X78.636 Y47.410 E5.36857
G1 X79.351 Y47.470 E5.38568
G1 X79.805 Y47.973 E5.40183
G1 X79.349 Y48.565 E5.41964
G1 X80.544 Y49.116 E5.45100
G1 X80.615 Y49.970 E5.47142
G1 X81.311 Y50.153 E5.48858
G1 X81.684 Y50.798 E5.50633
G1 X81.494 Y51.492 E5.52350
G1 X82.198 Y51.980 E5.54391
G1 X82.119 Y52.833 E5.56432
G1 X82.804 Y53.149 E5.58228
G1 X83.027 Y53.837 E5.59953
G1 X82.721 Y54.486 E5.61664
G1 X83.329 Y55.089 E5.63705
G1 X83.104 Y55.915 E5.65746
G1 X83.774 Y56.380 E5.67690
G1 X83.843 Y57.034 E5.69257
G1 X83.409 Y57.647 E5.71047
G1 X83.904 Y58.346 E5.73089
G1 X83.538 Y59.121 E5.75130
G1 X84.123 Y59.700 E5.77093
G1 X84.154 Y60.000 E5.77811
G1 X84.123 Y60.300 E5.78529
G1 X83.360 Y61.055 E5.81088
G1 X83.926 Y61.622 E5.82997
G1 X83.409 Y62.353 E5.85132
G1 X83.843 Y62.966 E5.86922
G1 X83.774 Y63.620 E5.88490
G1 X83.104 Y64.085 E5.90434
G1 X83.329 Y64.911 E5.92475
G1 X82.721 Y65.514 E5.94516
G1 X83.027 Y66.163 E5.96227
G1 X82.807 Y66.841 E5.97925
G1 X82.089 Y66.841 E5.99636
G1 X82.198 Y68.020 E6.02457
G1 X81.494 Y68.508 E6.04499
G1 X81.684 Y69.202 E6.06215
G1 X81.309 Y69.852 E6.08002
G1 X80.630 Y69.852 E6.09621
G1 X80.544 Y70.884 E6.12090
G1 X79.766 Y71.243 E6.14131
G1 X79.835 Y71.993 E6.15927
G1 X79.351 Y72.530 E6.17652
G1 X78.636 Y72.590 E6.19363
G1 X78.418 Y73.418 E6.21404
G1 X77.590 Y73.636 E6.23445
G1 X77.522 Y74.449 E6.25389
G1 X76.990 Y74.835 E6.26956
G1 X76.243 Y74.766 E6.28746
G1 X75.928 Y75.450 E6.30540
G1 X75.252 Y74.774 E6.32818
G1 X74.821 Y76.411 E6.36854
G1 X74.577 Y76.588 E6.37572
G1 X74.302 Y76.711 E6.38290
G1 X73.508 Y76.494 E6.40253
G1 X73.020 Y77.198 E6.42295
G1 X72.167 Y77.119 E6.44336
G1 X71.852 Y77.801 E6.46126
G1 X71.252 Y78.069 E6.47693
G1 X70.514 Y77.721 E6.49637
G1 X69.911 Y78.329 E6.51678
G1 X69.085 Y78.104 E6.53720
G1 X68.676 Y78.694 E6.55431
G1 X67.968 Y78.844 E6.57155
G1 X67.353 Y78.409 E6.58951
G1 X66.622 Y78.926 E6.61087
G1 X66.055 Y78.360 E6.62995
G1 X65.373 Y79.050 E6.65307
G1 X64.627 Y79.050 E6.67083
G1 X63.945 Y78.360 E6.69395
G1 X63.378 Y78.926 E6.71304
G1 X62.647 Y78.409 E6.73439
G1 X62.032 Y78.844 E6.75235
G1 X61.324 Y78.694 E6.76959
G1 X60.915 Y78.104 E6.78671
G1 X60.089 Y78.329 E6.80712
G1 X59.486 Y77.721 E6.82753
G1 X58.748 Y78.069 E6.84697
G1 X58.148 Y77.801 E6.86265
G1 X57.833 Y77.119 E6.88054
G1 X56.980 Y77.198 E6.90096
G1 X56.492 Y76.494 E6.92137
G1 X55.698 Y76.711 E6.94100
G1 X55.423 Y76.588 E6.94818
G1 X55.148 Y76.389 E6.95626
G1 X55.148 Y75.630 E6.97436
G1 X54.116 Y75.544 E6.99906
G1 X53.758 Y74.766 E7.01947
G1 X53.010 Y74.835 E7.03737
G1 X52.478 Y74.449 E7.05304
G1 X52.410 Y73.636 E7.07248
G1 X51.582 Y73.418 E7.09289
G1 X51.364 Y72.590 E7.11331
G1 X50.649 Y72.530 E7.13042
G1 X50.165 Y71.993 E7.14766
G1 X50.234 Y71.243 E7.16562
G1 X49.456 Y70.884 E7.18603
G1 X49.370 Y69.852 E7.21073
G1 X48.691 Y69.852 E7.22691
G1 X48.316 Y69.202 E7.24478
