; generated by Slic3r 0.9.9 on 2013-04-12 at 19:18:28

; layer_height = 0.2
; perimeters = 2
; top_solid_layers = 3
; bottom_solid_layers = 3
; fill_density = 0
; perimeter_speed = 60
; infill_speed = 60
; travel_speed = 130
; nozzle_diameter = 0.4
; filament_diameter = 2.9
; extrusion_multiplier = 1
; perimeters extrusion width = 0.67mm
; infill extrusion width = 0.67mm
; solid infill extrusion width = 0.67mm
; top infill extrusion width = 0.67mm
; first layer extrusion width = 0.80mm

G21 ; set units to millimeters
M107
M190 S45 ; wait for bed temperature to be reached
M104 S190 ; set temperature
G28 ; home all axes
M92 X83.0055 ; calibrate X
M92 Y82.8824 ; calibrate Y
M92 Z1543.1410 ; calibrate Z
M92 E569 ; calibrate E
M109 S190 ; wait for temperature to be reached
G90 ; use absolute coordinates
G92 E0
M82 ; use absolute distances for extrusion
G1 F1800.000 E-1.00000
G92 E0
G1 Z0.400 F7800.000
G1 X44.320 Y35.733
G1 F1800.000 E1.00000
G1 X44.830 Y35.143 F1440.000 E1.03373
G1 X45.290 Y34.703 E1.06126
G1 X46.030 Y34.093 E1.10273
G1 X46.290 Y33.913 E1.11641
G1 X46.840 Y33.583 E1.14415
G1 X47.880 Y33.053 E1.19463
G1 X48.210 Y32.903 E1.21031
G1 X48.890 Y32.663 E1.24150
G1 X49.590 Y32.483 E1.27275
G1 X50.410 Y32.333 E1.30881
G1 X51.850 Y32.203 E1.37134
G1 X78.130 Y32.213 E2.50790
G1 X79.540 Y32.333 E2.56910
G1 X80.010 Y32.413 E2.58972
G1 X80.730 Y32.573 E2.62162
G1 X81.430 Y32.783 E2.65323
G1 X81.770 Y32.913 E2.66897
G1 X82.440 Y33.223 E2.70090
G1 X83.160 Y33.593 E2.73591
G1 X83.440 Y33.763 E2.75007
G1 X83.990 Y34.123 E2.77850
G1 X84.250 Y34.323 E2.79269
G1 X84.980 Y34.973 E2.83496
G1 X85.430 Y35.453 E2.86342
G1 X85.720 Y35.813 E2.88341
G1 X85.950 Y36.113 E2.89976
G1 X86.350 Y36.733 E2.93167
G1 X86.700 Y37.393 E2.96398
G1 X87.050 Y38.153 E3.00017
G1 X87.190 Y38.493 E3.01607
G1 X87.420 Y39.203 E3.04835
G1 X87.510 Y39.563 E3.06439
G1 X87.660 Y40.363 E3.09960
G1 X87.790 Y41.603 E3.15352
G1 X87.830 Y42.753 E3.20328
G1 X87.850 Y45.173 E3.30795
G1 X87.850 Y64.823 E4.15778
G1 X87.820 Y67.733 E4.28364
G1 X87.780 Y68.803 E4.32994
G1 X87.660 Y69.733 E4.37050
G1 X87.410 Y70.803 E4.41802
G1 X87.180 Y71.523 E4.45071
G1 X86.890 Y72.213 E4.48308
G1 X86.520 Y72.963 E4.51925
G1 X86.170 Y73.573 E4.54966
G1 X85.540 Y74.423 E4.59542
G1 X85.040 Y74.983 E4.62789
G1 X84.800 Y75.223 E4.64257
G1 X84.280 Y75.663 E4.67203
G1 X83.730 Y76.073 E4.70170
G1 X83.450 Y76.253 E4.71609
G1 X82.860 Y76.583 E4.74533
G1 X82.070 Y76.983 E4.78362
G1 X81.720 Y77.133 E4.80009
G1 X81.020 Y77.383 E4.83224
G1 X80.650 Y77.483 E4.84882
G1 X79.580 Y77.703 E4.89606
G1 X78.440 Y77.813 E4.94559
G1 X77.680 Y77.843 E4.97849
G1 X74.810 Y77.873 E5.10262
G1 X55.560 Y77.873 E5.93515
G1 X52.240 Y77.843 E6.07874
G1 X50.980 Y77.773 E6.13331
G1 X49.770 Y77.583 E6.18628
G1 X49.140 Y77.433 E6.21429
G1 X48.420 Y77.193 E6.24712
G1 X47.710 Y76.883 E6.28062
G1 X46.930 Y76.473 E6.31873
G1 X46.340 Y76.123 E6.34840
G1 X45.520 Y75.503 E6.39286
G1 X45.010 Y75.033 E6.42285
G1 X44.710 Y74.723 E6.44151
G1 X44.250 Y74.173 E6.47252
G1 X43.840 Y73.593 E6.50324
G1 X43.470 Y72.973 E6.53446
G1 X43.310 Y72.653 E6.54994
G1 X43.100 Y72.213 E6.57102
G1 X42.810 Y71.523 E6.60339
G1 X42.580 Y70.803 E6.63608
G1 X42.280 Y69.433 E6.69674
G1 X42.220 Y68.823 E6.72324
G1 X42.170 Y67.763 E6.76914
G1 X42.140 Y64.863 E6.89457
G1 X42.150 Y44.173 E7.78937
G1 X42.190 Y41.723 E7.89535
G1 X42.330 Y40.323 E7.95620
G1 X42.500 Y39.493 E7.99284
G1 X42.720 Y38.713 E8.02789
G1 X42.860 Y38.333 E8.04540
G1 X43.360 Y37.223 E8.09805
G1 X43.530 Y36.903 E8.11372
G1 X43.900 Y36.303 E8.14421
G1 X44.254 Y35.817 E8.17020
G1 X44.880 Y36.183 F7800.000
G1 X45.150 Y35.853 F1440.000 E8.18864
G1 X45.600 Y35.383 E8.21678
G1 X46.340 Y34.753 E8.25881
G1 X46.880 Y34.383 E8.28712
G1 X47.450 Y34.063 E8.31539
G1 X48.170 Y33.703 E8.35021
G1 X49.100 Y33.343 E8.39334
G1 X49.740 Y33.173 E8.42198
G1 X50.530 Y33.033 E8.45667
G1 X51.850 Y32.923 E8.51396
G1 X78.130 Y32.933 E9.65053
G1 X79.420 Y33.043 E9.70652
G1 X80.220 Y33.183 E9.74164
G1 X80.870 Y33.353 E9.77070
G1 X81.500 Y33.573 E9.79956
G1 X82.540 Y34.073 E9.84947
G1 X83.120 Y34.403 E9.87833
G1 X83.400 Y34.583 E9.89272
G1 X83.940 Y34.993 E9.92204
G1 X84.430 Y35.433 E9.95053
G1 X84.890 Y35.923 E9.97959
G1 X85.160 Y36.253 E9.99803
G1 X85.370 Y36.523 E10.01283
G1 X85.740 Y37.093 E10.04222
G1 X86.050 Y37.693 E10.07142
G1 X86.390 Y38.423 E10.10625
G1 X86.520 Y38.743 E10.12119
G1 X86.730 Y39.393 E10.15073
G1 X86.960 Y40.493 E10.19933
G1 X87.080 Y41.633 E10.24891
G1 X87.110 Y42.583 E10.29002
G1 X87.130 Y45.183 E10.40246
G1 X87.130 Y64.813 E11.25143
G1 X87.100 Y67.933 E11.38637
G1 X87.040 Y69.033 E11.43401
G1 X86.900 Y69.873 E11.47084
G1 X86.720 Y70.613 E11.50378
G1 X86.510 Y71.273 E11.53373
G1 X86.240 Y71.903 E11.56338
G1 X85.860 Y72.693 E11.60129
G1 X85.460 Y73.343 E11.63430
G1 X85.240 Y73.663 E11.65109
G1 X85.000 Y73.963 E11.66771
G1 X84.530 Y74.483 E11.69802
G1 X84.310 Y74.703 E11.71148
G1 X83.840 Y75.113 E11.73845
G1 X83.590 Y75.303 E11.75203
G1 X82.810 Y75.803 E11.79210
G1 X81.770 Y76.333 E11.84258
G1 X81.130 Y76.593 E11.87246
G1 X80.810 Y76.693 E11.88696
G1 X80.140 Y76.863 E11.91685
G1 X79.470 Y76.993 E11.94637
G1 X78.420 Y77.103 E11.99203
G1 X77.880 Y77.123 E12.01540
G1 X74.800 Y77.153 E12.14861
G1 X55.570 Y77.153 E12.98028
G1 X51.980 Y77.123 E13.13554
G1 X51.520 Y77.103 E13.15546
G1 X50.860 Y77.043 E13.18412
G1 X49.940 Y76.893 E13.22443
G1 X49.340 Y76.743 E13.25118
G1 X48.670 Y76.523 E13.28168
G1 X48.030 Y76.243 E13.31189
G1 X46.960 Y75.663 E13.36453
G1 X46.350 Y75.253 E13.39631
G1 X45.780 Y74.783 E13.42826
G1 X45.240 Y74.243 E13.46129
G1 X45.020 Y73.993 E13.47569
G1 X44.620 Y73.473 E13.50407
G1 X44.110 Y72.643 E13.54620
G1 X43.610 Y71.593 E13.59649
G1 X43.480 Y71.273 E13.61143
G1 X43.270 Y70.613 E13.64139
G1 X43.090 Y69.873 E13.67432
G1 X42.950 Y69.043 E13.71073
G1 X42.890 Y67.973 E13.75708
G1 X42.860 Y64.853 E13.89202
G1 X42.870 Y44.183 E14.78596
G1 X42.910 Y41.733 E14.89193
G1 X43.040 Y40.453 E14.94757
G1 X43.190 Y39.663 E14.98235
G1 X43.400 Y38.943 E15.01479
G1 X43.670 Y38.253 E15.04683
G1 X44.150 Y37.253 E15.09480
G1 X44.490 Y36.703 E15.12277
G1 X44.815 Y36.268 E15.14625
G1 F1800.000 E14.14625
G92 E0
G1 X79.051 Y66.116 F7800.000
G1 F1800.000 E1.00000
G1 X79.019 Y68.125 F1440.000 E1.08689
G1 X78.943 Y68.468 E1.10211
G1 X78.874 Y68.579 E1.10775
G1 X78.781 Y68.808 E1.11844
G1 X78.456 Y68.976 E1.13427
G1 X78.107 Y69.039 E1.14959
G1 X77.588 Y69.061 E1.17207
G1 X74.729 Y69.095 E1.29572
G1 X55.178 Y69.095 E2.14124
G1 X52.342 Y69.059 E2.26393
G1 X51.742 Y69.022 E2.28994
G1 X51.545 Y68.968 E2.29874
G1 X51.428 Y68.891 E2.30480
G1 X51.205 Y68.792 E2.31534
G1 X51.054 Y68.474 E2.33057
G1 X50.982 Y68.127 E2.34593
G1 X50.947 Y66.036 E2.43635
G1 X51.253 Y66.017 E2.44961
G1 X51.335 Y66.826 E2.48481
G1 X51.501 Y67.368 E2.50931
G1 X51.665 Y67.820 E2.53009
G1 X51.836 Y67.953 E2.53946
G1 X51.906 Y68.090 E2.54611
G1 X52.043 Y68.158 E2.55276
G1 X52.177 Y68.327 E2.56206
G1 X53.053 Y68.635 E2.60221
G1 X53.593 Y68.702 E2.62576
G1 X54.275 Y68.714 E2.65526
G1 X56.645 Y68.674 E2.75777
G1 X70.013 Y68.672 E3.33591
G1 X73.794 Y68.676 E3.49942
G1 X76.263 Y68.708 E3.60621
G1 X76.822 Y68.653 E3.63051
G1 X77.423 Y68.470 E3.65769
G1 X77.943 Y68.161 E3.68381
G1 X78.167 Y67.941 E3.69742
G1 X78.479 Y67.424 E3.72350
G1 X78.522 Y67.259 E3.73088
G1 X78.644 Y66.950 E3.74527
G1 X78.747 Y66.096 E3.78246
G1 X78.945 Y66.109 E3.79102
G1 F1800.000 E2.79102
G92 E0
G1 X52.947 Y41.032 F7800.000
G1 F1800.000 E1.00000
G1 X52.971 Y41.118 F720.000 E1.00385
G1 X52.303 Y41.579 E1.03895
G1 X52.113 Y41.652 E1.04774
G1 X52.012 Y41.806 E1.05572
G1 X51.690 Y42.159 E1.07640
G1 X51.457 Y42.688 E1.10138
G1 X51.335 Y43.154 E1.12223
G1 X51.262 Y43.980 E1.15806
G1 X50.942 Y43.964 E1.17189
G1 X50.980 Y41.900 E1.26115
G1 X51.053 Y41.547 E1.27677
G1 X51.127 Y41.429 E1.28276
G1 X51.203 Y41.217 E1.29250
G1 X51.509 Y41.059 E1.30742
G1 X51.881 Y40.994 E1.32375
G1 X52.297 Y40.994 E1.34172
G1 X52.840 Y41.026 E1.36525
G1 X76.974 Y41.237 F7800.000
G1 X76.998 Y41.045 F720.000 E1.37362
G1 X77.686 Y41.003 E1.40345
G1 X78.119 Y41.006 E1.42219
G1 X78.495 Y41.075 E1.43869
G1 X78.804 Y41.234 E1.45374
G1 X78.949 Y41.546 E1.46862
G1 X79.018 Y41.905 E1.48442
G1 X79.060 Y44.090 E1.57896
G1 X78.744 Y44.107 E1.59264
G1 X78.672 Y43.252 E1.62973
G1 X78.549 Y42.742 E1.65241
G1 X78.405 Y42.297 E1.67264
G1 X78.301 Y42.168 E1.67984
G1 X78.189 Y41.918 E1.69165
G1 X77.765 Y41.639 E1.71360
G1 X77.590 Y41.425 E1.72554
G1 X77.077 Y41.268 E1.74875
G1 F1800.000 E0.74875
G92 E0
G1 X68.916 Y68.886 F7800.000
G1 F1800.000 E1.00000
G1 X75.326 Y68.904 F720.000 E1.27722
G1 X76.360 Y68.521 E1.32492
G1 X75.712 Y69.100 F7800.000
G1 X75.807 Y69.214 F720.000 E1.33136
G1 X75.712 Y69.100 F7800.000
G1 X75.413 Y68.899 F720.000 E1.34695
G1 F1800.000 E0.34695
G92 E0
G1 X78.496 Y66.392 F7800.000
G1 F1800.000 E1.00000
G1 X78.540 Y66.148 F720.000 E1.01070
G1 X78.540 Y66.148 F7800.000
G1 X78.854 Y65.423 F720.000 E1.04489
G1 X78.854 Y65.423 F7800.000
G1 X78.865 Y57.988 F720.000 E1.36641
G1 X78.865 Y57.988 F7800.000
G1 X78.889 Y43.620 F720.000 E1.98781
G1 X78.327 Y42.794 E2.03100
G1 F1800.000 E1.03100
G92 E0
G1 X76.554 Y41.345 F7800.000
G1 F1800.000 E1.00000
G1 X75.945 Y41.093 F720.000 E1.02851
G1 X72.750 Y41.114 E1.16671
G1 X72.750 Y41.114 F7800.000
G1 X55.576 Y41.099 F720.000 E1.90947
G1 X55.576 Y41.099 F7800.000
G1 X54.615 Y41.091 F720.000 E1.95103
G1 X54.615 Y41.091 F7800.000
G1 X54.107 Y41.091 F720.000 E1.97297
G1 X54.107 Y41.091 F7800.000
G1 X53.854 Y41.092 F720.000 E1.98393
G1 X53.854 Y41.092 F7800.000
G1 X53.390 Y41.120 F720.000 E2.00402
G1 X53.390 Y41.120 F7800.000
G1 X53.094 Y41.292 F720.000 E2.01885
G1 X53.094 Y41.292 F7800.000
G1 X53.071 Y41.295 F720.000 E2.01984
G1 X53.071 Y41.295 F7800.000
G1 X52.878 Y41.484 F720.000 E2.03153
G1 X51.649 Y42.735 F7800.000
G1 X51.116 Y44.049 F720.000 E2.09288
G1 X51.127 Y46.830 E2.21314
G1 X51.127 Y46.830 F7800.000
G1 X51.127 Y53.697 F720.000 E2.51011
G1 X51.127 Y53.697 F7800.000
G1 X51.127 Y57.060 F720.000 E2.65558
G1 X51.127 Y57.060 F7800.000
G1 X51.127 Y57.777 F720.000 E2.68656
G1 X51.127 Y57.777 F7800.000
G1 X51.127 Y58.012 F720.000 E2.69675
G1 X51.127 Y58.012 F7800.000
G1 X51.096 Y65.934 F720.000 E3.03934
G1 X51.117 Y66.267 E3.05379
G1 X51.704 Y67.242 E3.10300
G1 X52.879 Y68.385 F7800.000
G1 X53.641 Y68.754 F720.000 E3.13962
G1 X53.641 Y68.754 F7800.000
G1 X54.138 Y68.895 F720.000 E3.16195
G1 X54.138 Y68.895 F7800.000
G1 X56.296 Y68.883 F720.000 E3.25528
G1 X56.296 Y68.883 F7800.000
G1 X61.537 Y68.882 F720.000 E3.48195
G1 X61.537 Y68.882 F7800.000
G1 X68.916 Y68.886 F720.000 E3.80109
G1 F1800.000 E2.80109
G92 E0
G1 X78.878 Y65.403 F7800.000
G1 F1800.000 E1.00000
G1 X79.120 Y65.743 F720.000 E1.01804
G1 X79.120 Y65.743 F7800.000
G1 X79.184 Y65.788 F720.000 E1.02144
M106 S255
M104 S180 ; set temperature
G1 F1800.000 E0.02144
G92 E0
G1 Z0.600 F7800.000
G1 X78.305 Y65.768
G1 F1800.000 E1.00000
G1 X78.276 Y66.317 F891.362 E1.01046
G1 X78.182 Y66.891 E1.02152
G1 X77.945 Y67.489 E1.03377
G1 X77.490 Y67.937 E1.04591
G1 X76.886 Y68.172 E1.05823
G1 X76.303 Y68.265 E1.06947
G1 X75.240 Y68.305 E1.08972
G1 X70.013 Y68.289 E1.18916
G1 X54.760 Y68.305 E1.47934
G1 X53.693 Y68.264 E1.49966
G1 X53.163 Y68.180 E1.50987
G1 X52.501 Y67.929 E1.52333
G1 X52.063 Y67.496 E1.53506
G1 X51.818 Y66.884 E1.54760
G1 X51.724 Y66.311 E1.55864
G1 X51.695 Y65.764 E1.56906
G1 X51.709 Y60.023 E1.67828
G1 X51.695 Y44.279 E1.97783
G1 X51.720 Y43.749 E1.98791
G1 X51.793 Y43.211 E1.99824
G1 X51.948 Y42.721 E2.00802
G1 X52.099 Y42.401 E2.01475
G1 X52.333 Y42.184 E2.02081
G1 X52.430 Y42.035 E2.02421
G1 X52.811 Y41.902 E2.03188
G1 X53.171 Y41.713 E2.03961
G1 X53.487 Y41.677 E2.04567
G1 X53.733 Y41.622 E2.05046
G1 X54.269 Y41.599 E2.06067
G1 X56.670 Y41.632 E2.10636
G1 X72.595 Y41.633 E2.40932
G1 X75.729 Y41.597 E2.46896
G1 X76.261 Y41.621 E2.47908
G1 X76.559 Y41.654 E2.48479
G1 X77.076 Y41.779 E2.49490
G1 X77.441 Y41.997 E2.50299
G1 X77.630 Y42.151 E2.50764
G1 X77.902 Y42.404 E2.51470
G1 X78.103 Y42.827 E2.52361
G1 X78.224 Y43.293 E2.53276
G1 X78.282 Y43.755 E2.54163
G1 X78.308 Y44.282 E2.55166
G1 X78.291 Y49.998 E2.66041
G1 X78.305 Y65.674 E2.95865
G1 X78.771 Y66.059 F7800.000
G1 X77.494 Y68.817
G1 X78.812 Y67.513 F600.000 E2.99392
G1 X78.724 Y68.461 E3.01203
G1 X78.656 Y68.696 E3.01669
G1 X78.449 Y68.736 E3.02070
G1 X77.588 Y68.809 E3.03713
G1 X77.650 Y69.428 F7800.000
G1 X74.729 Y69.456 F891.362 E3.09272
G1 X53.155 Y69.445 E3.50315
G1 X52.195 Y69.422 E3.52143
G1 X51.469 Y69.360 E3.53528
G1 X51.143 Y69.276 E3.54169
G1 X50.932 Y69.169 E3.54618
G1 X50.849 Y69.083 E3.54846
G1 X50.746 Y68.877 E3.55284
G1 X50.651 Y68.525 E3.55978
G1 X50.588 Y67.777 E3.57405
G1 X50.568 Y66.810 E3.59247
G1 X50.562 Y43.825 E4.02975
G1 X50.581 Y42.356 E4.05770
G1 X50.605 Y41.896 E4.06647
G1 X50.652 Y41.470 E4.07462
G1 X50.738 Y41.152 E4.08088
G1 X50.912 Y40.849 E4.08752
G1 X51.107 Y40.732 E4.09186
G1 X51.444 Y40.652 E4.09845
G1 X51.878 Y40.610 E4.10674
G1 X52.346 Y40.596 E4.11565
G1 X74.259 Y40.590 E4.53255
G1 X78.121 Y40.612 E4.60602
G1 X78.557 Y40.654 E4.61436
G1 X78.847 Y40.723 E4.62002
G1 X79.087 Y40.852 E4.62521
G1 X79.262 Y41.161 E4.63198
G1 X79.347 Y41.476 E4.63818
G1 X79.413 Y42.231 E4.65259
G1 X79.435 Y43.210 E4.67122
G1 X79.440 Y64.739 E5.08081
G1 X79.418 Y67.661 E5.13641
G1 X79.395 Y68.119 E5.14512
G1 X79.348 Y68.544 E5.15326
G1 X79.260 Y68.869 E5.15966
G1 X79.151 Y69.086 E5.16428
G1 X79.073 Y69.166 E5.16642
G1 X78.852 Y69.277 E5.17112
G1 X78.638 Y69.339 E5.17536
G1 X78.108 Y69.405 E5.18552
G1 X77.744 Y69.423 E5.19244
G1 X77.323 Y68.892 F7800.000
G1 F1800.000 E4.19244
G92 E0
G1 Z0.800 F7800.000
G1 X76.872 Y68.035
G1 F1800.000 E1.00000
G1 X76.318 Y68.138 F1014.586 E1.01073
G1 X75.773 Y68.179 E1.02113
G1 X75.248 Y68.189 E1.03112
G1 X70.505 Y68.166 E1.12135
G1 X54.226 Y68.178 E1.43106
G1 X53.681 Y68.136 E1.44147
G1 X53.459 Y68.101 E1.44573
G1 X53.128 Y68.033 E1.45216
G1 X52.927 Y67.958 E1.45624
G1 X52.583 Y67.799 E1.46346
G1 X52.188 Y67.411 E1.47400
G1 X51.948 Y66.867 E1.48530
G1 X51.845 Y66.316 E1.49597
G1 X51.811 Y65.773 E1.50633
G1 X51.836 Y60.516 E1.60635
G1 X51.835 Y47.145 E1.86072
G1 X51.818 Y44.270 E1.91542
G1 X51.854 Y43.741 E1.92552
G1 X51.951 Y43.209 E1.93579
G1 X52.140 Y42.778 E1.94475
G1 X52.174 Y42.659 E1.94710
G1 X52.279 Y42.562 E1.94981
G1 X52.561 Y42.211 E1.95839
G1 X53.134 Y41.926 E1.97056
G1 X53.697 Y41.803 E1.98154
G1 X54.244 Y41.759 E1.99196
G1 X72.784 Y41.773 E2.34469
G1 X75.234 Y41.749 E2.39131
G1 X75.755 Y41.755 E2.40122
G1 X76.265 Y41.794 E2.41094
G1 X76.801 Y41.904 E2.42135
G1 X77.309 Y42.131 E2.43195
G1 X77.443 Y42.217 E2.43497
G1 X77.529 Y42.305 E2.43731
G1 X77.731 Y42.568 E2.44363
G1 X77.805 Y42.636 E2.44554
G1 X78.016 Y43.076 E2.45481
G1 X78.129 Y43.568 E2.46442
G1 X78.188 Y44.271 E2.47784
G1 X78.165 Y47.046 E2.53064
G1 X78.163 Y60.023 E2.77753
G1 X78.166 Y63.341 E2.84065
G1 X78.189 Y65.777 E2.88699
G1 X78.155 Y66.322 E2.89738
G1 X78.052 Y66.875 E2.90808
G1 X77.819 Y67.404 E2.91909
G1 X77.408 Y67.808 E2.93005
G1 X76.958 Y67.996 E2.93933
G1 X76.723 Y68.579 F7800.000
G1 X78.866 Y68.467
G1 X78.795 Y68.813 F634.116 E2.94605
G1 X78.464 Y68.877 E2.95247
G1 X78.057 Y68.912 E2.96022
G1 X77.146 Y68.951 E2.97758
G1 X78.942 Y67.185 E3.02550
G1 X78.875 Y68.373 E3.04814
G1 X51.930 Y68.912 F7800.000
G1 X51.540 Y68.879 F634.116 E3.05560
G1 X51.211 Y68.815 E3.06198
G1 X51.131 Y68.425 E3.06955
G1 X51.060 Y67.209 E3.09272
G1 X51.359 Y67.134 E3.09858
G1 X51.668 Y67.780 E3.11221
G1 X52.221 Y68.324 E3.12697
G1 X52.912 Y68.643 E3.14145
G1 X52.838 Y68.951 E3.14748
G1 X52.025 Y68.916 E3.16296
G1 F1800.000 E2.16296
G92 E0
G1 X52.769 Y41.089 F7800.000
G1 F1800.000 E1.00000
G1 X52.840 Y41.379 F634.116 E1.00569
G1 X52.160 Y41.706 E1.02005
G1 X51.817 Y42.133 E1.03047
G1 X51.057 Y42.839 E1.05021
G1 X51.094 Y41.941 E1.06731
G1 X51.131 Y41.542 E1.07493
G1 X51.196 Y41.226 E1.08107
G1 X51.540 Y41.151 E1.08778
G1 X51.919 Y41.116 E1.09501
G1 X52.675 Y41.092 E1.10940
G1 X77.185 Y41.305 F7800.000
G1 X77.252 Y41.091 F634.116 E1.11367
G1 X78.083 Y41.118 E1.12949
G1 X78.468 Y41.153 E1.13684
G1 X78.803 Y41.223 E1.14335
