; generated by Slic3r 1.0.0RC2 on 2014-02-23 at 21:44:28

; layer_height = 0.2937
; perimeters = 3
; top_solid_layers = 3
; bottom_solid_layers = 3
; fill_density = 0.3
; perimeter_speed = 45
; infill_speed = 70
; travel_speed = 130
; nozzle_diameter = 0.4
; filament_diameter = 2.88
; extrusion_multiplier = 1
; perimeters extrusion width = 0.40mm
; infill extrusion width = 0.44mm
; solid infill extrusion width = 0.44mm
; top infill extrusion width = 0.44mm
; first layer extrusion width = 0.59mm

G21 ; set units to millimeters
M107
M104 S205 ; set temperature
G28 ; home all axes
M92 X79.7957; calibrate X
M92 Y79.6685 ; calibrate Y
M92 Z2210.2522 ; calibrate Z
M92 E496.1314 ; calibrate E
M109 S205 ; wait for temperature to be reached
G90 ; use absolute coordinates
G92 E0
M82 ; use absolute distances for extrusion
G1 F1800.000 E-1.00000
G92 E0
G1 Z0.294 F7800.000
G1 X30.030 Y34.140 F7800.000
G1 E1.00000 F1800.000
G1 X31.100 Y33.280 E1.03387 F810.000
G1 X32.310 Y32.630 E1.06775
G1 X33.630 Y32.240 E1.10171
G1 X35.000 Y32.110 E1.13565
G1 X95.000 Y32.110 E2.61583
G1 X96.370 Y32.240 E2.64978
G1 X97.690 Y32.630 E2.68374
G1 X98.900 Y33.280 E2.71762
G1 X99.970 Y34.140 E2.75149
G1 X100.860 Y35.200 E2.78563
G1 X101.520 Y36.400 E2.81942
G1 X101.940 Y37.710 E2.85335
G1 X102.090 Y39.080 E2.88735
G1 X102.340 Y54.080 E3.25745
G1 X102.340 Y66.320 E3.55940
G1 X102.210 Y67.700 E3.59360
G1 X101.800 Y69.030 E3.62793
G1 X101.150 Y70.260 E3.66225
G1 X100.270 Y71.340 E3.69662
G1 X99.190 Y72.220 E3.73099
G1 X97.960 Y72.870 E3.76531
G1 X96.630 Y73.280 E3.79964
G1 X95.250 Y73.410 E3.83384
G1 X34.750 Y73.410 E5.32635
G1 X33.370 Y73.280 E5.36054
G1 X32.040 Y72.870 E5.39488
G1 X30.810 Y72.220 E5.42920
G1 X29.730 Y71.340 E5.46357
G1 X28.850 Y70.260 E5.49793
G1 X28.200 Y69.030 E5.53225
G1 X27.790 Y67.700 E5.56659
G1 X27.660 Y66.320 E5.60078
G1 X27.660 Y54.080 E5.90274
G1 X27.910 Y39.080 E6.27283
G1 X28.060 Y37.710 E6.30683
G1 X28.480 Y36.400 E6.34077
G1 X29.140 Y35.200 E6.37456
G1 X29.977 Y34.203 E6.40668
G1 X30.410 Y34.530 F7800.000
G1 X31.400 Y33.730 E6.43808 F810.000
G1 X32.520 Y33.140 E6.46931
G1 X33.740 Y32.780 E6.50069
G1 X35.000 Y32.650 E6.53194
G1 X95.000 Y32.650 E8.01211
G1 X96.260 Y32.780 E8.04336
G1 X97.480 Y33.140 E8.07474
G1 X98.600 Y33.730 E8.10597
G1 X99.590 Y34.530 E8.13737
G1 X100.410 Y35.510 E8.16889
G1 X101.020 Y36.620 E8.20014
G1 X101.400 Y37.830 E8.23143
G1 X101.550 Y39.090 E8.26273
G1 X101.800 Y54.090 E8.63282
G1 X101.800 Y66.320 E8.93453
G1 X101.670 Y67.600 E8.96627
G1 X101.300 Y68.830 E8.99796
G1 X100.690 Y69.960 E9.02964
G1 X99.880 Y70.950 E9.06120
G1 X98.890 Y71.760 E9.09275
G1 X97.760 Y72.370 E9.12443
G1 X96.530 Y72.740 E9.15612
G1 X95.250 Y72.870 E9.18786
G1 X34.750 Y72.870 E10.68037
G1 X33.470 Y72.740 E10.71211
G1 X32.240 Y72.370 E10.74379
G1 X31.110 Y71.760 E10.77547
G1 X30.120 Y70.950 E10.80703
G1 X29.310 Y69.960 E10.83858
G1 X28.700 Y68.830 E10.87026
G1 X28.330 Y67.600 E10.90195
G1 X28.200 Y66.320 E10.93369
G1 X28.200 Y54.090 E11.23540
G1 X28.450 Y39.090 E11.60549
G1 X28.600 Y37.830 E11.63680
G1 X28.980 Y36.620 E11.66809
G1 X29.590 Y35.510 E11.69933
G1 X30.357 Y34.593 E11.72883
G1 F1800.000 E10.72883
G92 E0
G1 X82.771 Y45.651 F7800.000
G1 E1.00000 F1800.000
G1 X82.997 Y45.089 E1.01494 F810.000
G1 X83.282 Y44.678 E1.02727
G1 X83.696 Y44.311 E1.04093
G1 X84.186 Y44.053 E1.05458
G1 X84.723 Y43.921 E1.06823
G1 X85.329 Y43.934 E1.08317
G1 X85.814 Y44.053 E1.09551
G1 X86.304 Y44.311 E1.10916
G1 X86.718 Y44.678 E1.12281
G1 X87.033 Y45.133 E1.13647
G1 X87.229 Y45.651 E1.15012
G1 X87.296 Y46.200 E1.16378
G1 X87.229 Y46.749 E1.17743
G1 X87.033 Y47.267 E1.19108
G1 X86.718 Y47.722 E1.20474
G1 X86.304 Y48.089 E1.21839
G1 X85.814 Y48.347 E1.23205
G1 X85.277 Y48.479 E1.24570
G1 X84.723 Y48.479 E1.25935
G1 X84.186 Y48.347 E1.27301
G1 X83.696 Y48.089 E1.28666
G1 X83.282 Y47.722 E1.30032
G1 X82.967 Y47.267 E1.31397
G1 X82.771 Y46.749 E1.32762
G1 X82.704 Y46.200 E1.34128
G1 X82.761 Y45.732 E1.35291
G1 X82.397 Y45.251 F7800.000
G1 F1800.000 E0.35291
G92 E0
G1 X47.296 Y46.200 F7800.000
G1 E1.00000 F1800.000
G1 X47.229 Y46.749 E1.01365 F810.000
G1 X47.033 Y47.267 E1.02731
G1 X46.718 Y47.722 E1.04096
G1 X46.304 Y48.089 E1.05462
G1 X45.814 Y48.347 E1.06827
G1 X45.277 Y48.479 E1.08192
G1 X44.723 Y48.479 E1.09558
G1 X44.186 Y48.347 E1.10923
G1 X43.696 Y48.089 E1.12288
G1 X43.282 Y47.722 E1.13654
G1 X42.967 Y47.267 E1.15019
G1 X42.771 Y46.749 E1.16385
G1 X42.704 Y46.200 E1.17750
G1 X42.771 Y45.651 E1.19115
G1 X42.967 Y45.133 E1.20481
G1 X43.282 Y44.678 E1.21846
G1 X43.743 Y44.286 E1.23340
G1 X44.186 Y44.053 E1.24573
G1 X44.723 Y43.921 E1.25939
G1 X45.329 Y43.934 E1.27432
G1 X45.814 Y44.053 E1.28666
G1 X46.304 Y44.311 E1.30031
G1 X46.718 Y44.678 E1.31397
G1 X47.033 Y45.133 E1.32762
G1 X47.229 Y45.651 E1.34128
G1 X47.286 Y46.119 E1.35291
G1 X47.758 Y46.492 F7800.000
G1 X48.355 Y46.555 F7800.000
G1 X51.802 Y49.059 E1.45802 F810.000
G1 X56.843 Y51.304 E1.59415
G1 X62.241 Y52.451 E1.73028
G1 X67.759 Y52.451 E1.86641
G1 X73.157 Y51.304 E2.00254
G1 X78.198 Y49.059 E2.13868
G1 X81.645 Y46.555 E2.24379
G1 X81.700 Y47.013 E2.25517
G1 X81.991 Y47.779 E2.27539
G1 X82.456 Y48.453 E2.29559
G1 X83.070 Y48.997 E2.31580
G1 X83.795 Y49.377 E2.33601
G1 X84.590 Y49.573 E2.35622
G1 X85.410 Y49.573 E2.37644
G1 X86.205 Y49.377 E2.39665
G1 X86.930 Y48.997 E2.41685
G1 X87.544 Y48.453 E2.43706
G1 X88.009 Y47.779 E2.45727
G1 X88.300 Y47.013 E2.47749
G1 X88.398 Y46.200 E2.49769
G1 X88.300 Y45.387 E2.51791
G1 X88.009 Y44.621 E2.53812
G1 X87.544 Y43.947 E2.55833
G1 X86.930 Y43.403 E2.57853
G1 X86.205 Y43.023 E2.59874
G1 X85.364 Y42.815 E2.62012
G1 X86.355 Y41.715 E2.65664
G1 X87.005 Y40.588 E2.68874
G1 X93.612 Y40.588 E2.85173
G1 X93.612 Y55.588 E3.22177
G1 X93.862 Y55.588 E3.22794
G1 X93.862 Y56.812 E3.25813
G1 X36.138 Y56.812 E4.68216
G1 X36.138 Y55.588 E4.71235
G1 X36.388 Y55.588 E4.71852
G1 X36.388 Y40.588 E5.08856
G1 X42.995 Y40.588 E5.25154
G1 X43.645 Y41.715 E5.28365
G1 X44.636 Y42.815 E5.32017
G1 X43.795 Y43.023 E5.34154
G1 X43.070 Y43.403 E5.36175
G1 X42.456 Y43.947 E5.38196
G1 X41.991 Y44.621 E5.40217
G1 X41.767 Y45.213 E5.41779
G1 X41.700 Y45.387 E5.42238
G1 X41.602 Y46.200 E5.44259
G1 X41.700 Y47.013 E5.46280
G1 X41.991 Y47.779 E5.48301
G1 X42.097 Y47.933 E5.48761
G1 X42.456 Y48.453 E5.50322
G1 X43.070 Y48.997 E5.52343
G1 X43.795 Y49.377 E5.54364
G1 X44.590 Y49.573 E5.56385
G1 X45.410 Y49.573 E5.58406
G1 X46.205 Y49.377 E5.60427
G1 X46.930 Y48.997 E5.62448
G1 X47.544 Y48.453 E5.64469
G1 X48.009 Y47.779 E5.66490
G1 X48.300 Y47.013 E5.68511
G1 X48.345 Y46.636 E5.69448
G1 X47.779 Y46.762 F7800.000
G1 X47.847 Y46.200 E5.70845 F810.000
G1 X47.755 Y45.443 E5.72727
G1 X52.077 Y48.583 E5.85907
G1 X57.013 Y50.781 E5.99236
G1 X62.298 Y51.904 E6.12565
G1 X67.702 Y51.904 E6.25895
G1 X72.987 Y50.781 E6.39224
G1 X77.923 Y48.583 E6.52554
G1 X82.245 Y45.443 E6.65733
G1 X82.153 Y46.200 E6.67615
G1 X82.236 Y46.881 E6.69308
G1 X82.479 Y47.523 E6.71002
G1 X82.869 Y48.088 E6.72695
G1 X83.383 Y48.543 E6.74388
G1 X83.990 Y48.862 E6.76081
G1 X84.657 Y49.026 E6.77774
G1 X85.343 Y49.026 E6.79468
G1 X86.010 Y48.862 E6.81161
G1 X86.617 Y48.543 E6.82854
G1 X87.131 Y48.088 E6.84547
G1 X87.521 Y47.523 E6.86240
G1 X87.764 Y46.881 E6.87934
G1 X87.847 Y46.200 E6.89627
G1 X87.764 Y45.519 E6.91320
G1 X87.521 Y44.877 E6.93013
G1 X87.131 Y44.312 E6.94706
G1 X86.617 Y43.857 E6.96400
G1 X86.010 Y43.538 E6.98093
G1 X85.343 Y43.374 E6.99786
G1 X84.125 Y43.374 E7.02792
G1 X85.909 Y41.392 E7.09371
G1 X86.689 Y40.041 E7.13219
G1 X94.159 Y40.041 E7.31647
G1 X94.159 Y55.041 E7.68651
G1 X94.409 Y55.041 E7.69268
G1 X94.409 Y57.359 E7.74987
G1 X35.591 Y57.359 E9.20089
G1 X35.591 Y55.041 E9.25808
G1 X35.841 Y55.041 E9.26425
G1 X35.841 Y40.041 E9.63429
G1 X43.311 Y40.041 E9.81857
G1 X44.091 Y41.392 E9.85705
G1 X45.875 Y43.374 E9.92285
G1 X44.657 Y43.374 E9.95290
G1 X43.990 Y43.538 E9.96984
G1 X43.383 Y43.857 E9.98677
G1 X42.869 Y44.312 E10.00370
G1 X42.479 Y44.877 E10.02063
G1 X42.236 Y45.519 E10.03756
G1 X42.167 Y46.081 E10.05154
G1 X42.153 Y46.200 E10.05450
G1 X42.236 Y46.881 E10.07143
G1 X42.479 Y47.523 E10.08836
G1 X42.869 Y48.088 E10.10529
G1 X43.383 Y48.543 E10.12222
G1 X43.489 Y48.599 E10.12518
G1 X43.990 Y48.862 E10.13915
G1 X44.657 Y49.026 E10.15609
G1 X45.343 Y49.026 E10.17302
G1 X46.010 Y48.862 E10.18995
G1 X46.617 Y48.543 E10.20688
G1 X47.131 Y48.088 E10.22381
G1 X47.521 Y47.523 E10.24075
G1 X47.769 Y46.844 E10.25859
G1 X48.334 Y45.187 F7800.000
G1 X52.352 Y48.106 E10.38113 F567.000
G1 X57.183 Y50.257 E10.51159
G1 X62.356 Y51.357 E10.64205
G1 X67.644 Y51.357 E10.77250
G1 X72.817 Y50.257 E10.90296
G1 X77.648 Y48.106 E11.03342
G1 X81.926 Y44.998 E11.16387
G1 X85.464 Y41.068 E11.29433
G1 X86.373 Y39.494 E11.33918
G1 X94.706 Y39.494 E11.54475
G1 X94.706 Y54.494 E11.91480
G1 X94.956 Y54.494 E11.92096
G1 X94.956 Y66.029 E12.20554
G1 X93.544 Y66.029 E12.24039
G1 X93.544 Y57.906 E12.44077
G1 X36.456 Y57.906 E13.84910
G1 X36.456 Y66.029 E14.04948
G1 X35.044 Y66.029 E14.08433
G1 X35.044 Y54.494 E14.36890
G1 X35.294 Y54.494 E14.37507
G1 X35.294 Y39.494 E14.74512
G1 X43.627 Y39.494 E14.95069
G1 X44.536 Y41.068 E14.99554
G1 X48.074 Y44.998 E15.12599
G1 X48.267 Y45.138 E15.13188
G1 X48.276 Y45.731 F7800.000
G1 X50.135 Y48.304 F7800.000
G1 X58.273 Y56.443 E15.41638 F1260.000
G1 X57.498 Y56.443 E15.43555
G1 X48.522 Y47.467 E15.74931
G1 X48.295 Y48.015 E15.76397
G1 X56.722 Y56.443 E16.05858
G1 X55.947 Y56.443 E16.07775
G1 X47.978 Y48.474 E16.35632
G1 X47.614 Y48.885 E16.36990
G1 X55.171 Y56.443 E16.63410
G1 X54.396 Y56.443 E16.65327
G1 X47.202 Y49.249 E16.90475
G1 X46.708 Y49.530 E16.91880
G1 X53.621 Y56.443 E17.16044
G1 X52.845 Y56.443 E17.17961
G1 X46.169 Y49.767 E17.41299
G1 X45.547 Y49.920 E17.42883
G1 X52.070 Y56.443 E17.65685
G1 X51.295 Y56.443 E17.67602
G1 X44.795 Y49.943 E17.90324
G1 X43.847 Y49.771 E17.92705
G1 X50.519 Y56.443 E18.16029
G1 X49.744 Y56.443 E18.17946
G1 X36.757 Y43.456 E18.63344
G1 X36.757 Y44.232 E18.65261
G1 X48.968 Y56.443 E19.07948
G1 X48.193 Y56.443 E19.09865
G1 X36.757 Y45.007 E19.49842
G1 X36.757 Y45.782 E19.51758
G1 X47.418 Y56.443 E19.89025
G1 X46.642 Y56.443 E19.90941
G1 X36.757 Y46.558 E20.25497
G1 X36.757 Y47.333 E20.27414
G1 X45.867 Y56.443 E20.59259
G1 X45.091 Y56.443 E20.61175
G1 X36.757 Y48.109 E20.90310
G1 X36.757 Y48.884 E20.92227
G1 X44.316 Y56.443 E21.18650
G1 X43.541 Y56.443 E21.20567
G1 X36.757 Y49.659 E21.44280
G1 X36.757 Y50.435 E21.46197
G1 X42.765 Y56.443 E21.67200
G1 X41.990 Y56.443 E21.69116
G1 X36.757 Y51.210 E21.87408
G1 X36.757 Y51.986 E21.89325
G1 X41.214 Y56.443 E22.04906
G1 X40.439 Y56.443 E22.06823
G1 X36.757 Y52.761 E22.19694
G1 X36.757 Y53.536 E22.21610
G1 X39.664 Y56.443 E22.31771
G1 X38.888 Y56.443 E22.33687
G1 X36.757 Y54.312 E22.41137
G1 X36.757 Y55.087 E22.43054
G1 X38.113 Y56.443 E22.47792
G1 X37.338 Y56.443 E22.49709
G1 X36.757 Y55.862 E22.51737
G1 X36.507 Y56.388 E22.53176
G1 X36.562 Y56.443 E22.53367
G1 X41.437 Y47.361 F7800.000
G1 X36.757 Y42.681 E22.69728 F1260.000
G1 X36.757 Y41.905 E22.71645
G1 X41.254 Y46.402 E22.87365
G1 X41.294 Y45.667 E22.89186
G1 X36.757 Y41.130 E23.05046
G1 X37.360 Y40.957 E23.06596
G1 X41.439 Y45.036 E23.20854
G1 X41.652 Y44.474 E23.22340
G1 X38.135 Y40.957 E23.34633
G1 X38.911 Y40.957 E23.36550
G1 X41.964 Y44.010 E23.47222
G1 X42.311 Y43.582 E23.48585
G1 X39.686 Y40.957 E23.57760
G1 X40.462 Y40.957 E23.59677
G1 X42.722 Y43.218 E23.67579
G1 X43.198 Y42.919 E23.68970
G1 X41.237 Y40.957 E23.75826
G1 X42.012 Y40.957 E23.77743
G1 X43.717 Y42.662 E23.83700
G1 F1800.000 E22.83700
G92 E0
G1 X52.284 Y49.678 F7800.000
G1 E1.00000 F1800.000
G1 X59.048 Y56.443 E1.23648 F1260.000
G1 X59.824 Y56.443 E1.25565
G1 X53.681 Y50.300 E1.47037
G1 X55.079 Y50.923 F7800.000
G1 X60.599 Y56.443 E1.66335 F1260.000
G1 X61.375 Y56.443 E1.68251
G1 X56.477 Y51.545 E1.85373
G1 X57.536 Y51.829 E1.88083
G1 X62.150 Y56.443 E2.04213
G1 X62.925 Y56.443 E2.06130
G1 X58.521 Y52.038 E2.21529
G1 X59.505 Y52.247 E2.24017
G1 X63.701 Y56.443 E2.38684
G1 X64.476 Y56.443 E2.40600
G1 X60.490 Y52.456 E2.54535
G1 X61.475 Y52.666 E2.57024
G1 X65.252 Y56.443 E2.70227
G1 X66.027 Y56.443 E2.72144
G1 X62.405 Y52.820 E2.84807
G1 X63.180 Y52.820 E2.86723
G1 X66.802 Y56.443 E2.99386
G1 X67.578 Y56.443 E3.01303
G1 X63.955 Y52.820 E3.13966
G1 X64.731 Y52.820 E3.15882
G1 X68.353 Y56.443 E3.28545
G1 X69.128 Y56.443 E3.30462
G1 X65.506 Y52.820 E3.43124
G1 X66.282 Y52.820 E3.45041
G1 X69.904 Y56.443 E3.57704
G1 X70.679 Y56.443 E3.59621
G1 X67.057 Y52.820 E3.72283
G1 X67.826 Y52.814 E3.74185
G1 X71.455 Y56.443 E3.86869
G1 X72.230 Y56.443 E3.88786
G1 X68.466 Y52.678 E4.01945
G1 X69.105 Y52.543 E4.03561
G1 X73.005 Y56.443 E4.17195
G1 X73.781 Y56.443 E4.19112
G1 X69.745 Y52.407 E4.33221
G1 X70.384 Y52.271 E4.34837
G1 X74.556 Y56.443 E4.49422
G1 X75.332 Y56.443 E4.51338
G1 X71.024 Y52.135 E4.66398
G1 X71.663 Y51.999 E4.68014
G1 X76.107 Y56.443 E4.83549
G1 X76.882 Y56.443 E4.85466
G1 X72.303 Y51.863 E5.01476
G1 X72.942 Y51.727 E5.03092
G1 X77.658 Y56.443 E5.19577
G1 X78.433 Y56.443 E5.21494
G1 X73.532 Y51.541 E5.38628
G1 X74.068 Y51.302 E5.40080
G1 X79.208 Y56.443 E5.58050
G1 X79.984 Y56.443 E5.59967
G1 X74.605 Y51.063 E5.78772
G1 X75.141 Y50.825 E5.80223
G1 X80.759 Y56.443 E5.99863
G1 X81.535 Y56.443 E6.01780
G1 X75.678 Y50.586 E6.22255
G1 X76.214 Y50.347 E6.23707
G1 X82.310 Y56.443 E6.45017
G1 X83.085 Y56.443 E6.46934
G1 X76.751 Y50.108 E6.69079
G1 X77.287 Y49.869 E6.70530
G1 X83.861 Y56.443 E6.93511
G1 X84.636 Y56.443 E6.95427
G1 X77.824 Y49.630 E7.19243
G1 X78.360 Y49.391 E7.20694
G1 X85.412 Y56.443 E7.45345
G1 X86.187 Y56.443 E7.47261
G1 X78.813 Y49.069 E7.73039
G1 X79.262 Y48.742 E7.74411
G1 X86.962 Y56.443 E8.01329
G1 X87.738 Y56.443 E8.03246
G1 X79.711 Y48.416 E8.31305
G1 X80.160 Y48.090 E8.32677
G1 X88.513 Y56.443 E8.61877
G1 X89.289 Y56.443 E8.63794
G1 X80.610 Y47.764 E8.94134
G1 X81.059 Y47.437 E8.95506
G1 X81.858 Y48.237 E8.98301
G1 X82.997 Y49.376 F7800.000
G1 X90.064 Y56.443 E9.23006 F1260.000
G1 X90.839 Y56.443 E9.24923
G1 X84.272 Y49.875 E9.47881
G1 X85.115 Y49.943 E9.49971
G1 X91.615 Y56.443 E9.72694
G1 X92.390 Y56.443 E9.74610
G1 X85.804 Y49.857 E9.97634
G1 X86.410 Y49.687 E9.99189
G1 X93.165 Y56.443 E10.22805
G1 X93.493 Y55.994 E10.24177
G1 X86.918 Y49.420 E10.47160
G1 X87.372 Y49.099 E10.48535
G1 X93.243 Y54.969 E10.69057
G1 X93.243 Y54.194 E10.70973
G1 X87.783 Y48.734 E10.90058
G1 X88.109 Y48.285 E10.91431
G1 X93.243 Y53.418 E11.09377
G1 X93.243 Y52.643 E11.11294
G1 X88.397 Y47.797 E11.28233
G1 X88.610 Y47.235 E11.29719
G1 X93.243 Y51.868 E11.45913
G1 X93.243 Y51.092 E11.47830
G1 X88.725 Y46.574 E11.63623
G1 X88.721 Y45.795 E11.65549
G1 X93.243 Y50.317 E11.81356
G1 X93.243 Y49.541 E11.83272
G1 X88.454 Y44.753 E12.00013
G1 X86.419 Y42.718 F7800.000
G1 X86.171 Y42.470 E12.00879 F1260.000
G1 X86.539 Y42.062 E12.02236
G1 X93.243 Y48.766 E12.25671
G1 X93.243 Y47.991 E12.27588
G1 X86.849 Y41.597 E12.49939
G1 X87.133 Y41.105 E12.51342
G1 X93.243 Y47.215 E12.72700
G1 X93.243 Y46.440 E12.74617
G1 X87.760 Y40.957 E12.93783
G1 X88.536 Y40.957 E12.95700
G1 X93.243 Y45.664 E13.12155
G1 X93.243 Y44.889 E13.14071
G1 X89.311 Y40.957 E13.27816
G1 X90.086 Y40.957 E13.29732
G1 X93.243 Y44.114 E13.40766
G1 X93.243 Y43.338 E13.42683
G1 X90.862 Y40.957 E13.51006
G1 X91.637 Y40.957 E13.52923
G1 X93.243 Y42.563 E13.58535
G1 X93.243 Y41.787 E13.60452
G1 X92.413 Y40.957 E13.63354
G1 X93.188 Y40.957 E13.65271
G1 X93.243 Y41.012 E13.65462
G1 X83.894 Y43.765 F7800.000
G1 X83.878 Y43.749 E13.65494 F360.000
G1 X83.614 Y43.929 E13.65947 F360.000
G1 X83.506 Y43.821 E13.66164 F360.000
G1 X83.287 Y44.047 E13.66609 F360.000
G1 X83.353 Y44.113 E13.66741 F360.000
G1 X83.117 Y44.321 E13.67187 F360.000
G1 X83.077 Y44.281 E13.67268 F360.000
G1 X82.866 Y44.515 E13.67714 F360.000
G1 X82.909 Y44.557 E13.67799 F360.000
G1 X82.702 Y44.795 E13.68246 F360.000
G1 X82.727 Y44.820 E13.68297 F360.000
G1 F1800.000 E12.68297
G92 E0
G1 X94.361 Y57.899 F7800.000
G1 E1.00000 F1800.000
G1 X94.417 Y57.954 E1.00195 F360.000
G1 X94.083 Y58.402 E1.01586 F360.000
G1 X94.417 Y58.735 E1.02760 F360.000
