; generated by Slic3r 1.0.0RC2 on 2014-02-21 at 21:28:22

; layer_height = 0.2937
; perimeters = 3
; top_solid_layers = 3
; bottom_solid_layers = 3
; fill_density = 0.3
; perimeter_speed = 45
; infill_speed = 70
; travel_speed = 130
; nozzle_diameter = 0.4
; filament_diameter = 2.88
; extrusion_multiplier = 1
; perimeters extrusion width = 0.40mm
; infill extrusion width = 0.44mm
; solid infill extrusion width = 0.44mm
; top infill extrusion width = 0.44mm
; first layer extrusion width = 0.59mm

G21 ; set units to millimeters
M107
M104 S205 ; set temperature
G28 ; home all axes
M92 X79.7957; calibrate X
M92 Y79.6685 ; calibrate Y
M92 Z2210.2522 ; calibrate Z
M92 E496.1314 ; calibrate E
M109 S205 ; wait for temperature to be reached
G90 ; use absolute coordinates
G92 E0
M82 ; use absolute distances for extrusion
G1 F1800.000 E-1.00000
G92 E0
G1 Z0.294 F7800.000
G1 X26.800 Y21.806 F7800.000
G1 E1.00000 F1800.000
G1 X29.380 Y19.076 E1.09266 F810.000
G1 X31.800 Y16.806 E1.17452
G1 X34.000 Y14.996 E1.24480
G1 X37.070 Y12.806 E1.33783
G1 X39.490 Y11.296 E1.40820
G1 X39.910 Y11.056 E1.42013
G1 X42.840 Y9.506 E1.50191
G1 X45.430 Y8.336 E1.57202
G1 X48.490 Y7.166 E1.65284
G1 X48.970 Y7.006 E1.66532
G1 X52.120 Y6.066 E1.74641
G1 X54.890 Y5.416 E1.81660
G1 X55.360 Y5.326 E1.82841
G1 X58.620 Y4.806 E1.90985
G1 X61.450 Y4.526 E1.98001
G1 X61.930 Y4.496 E1.99187
G1 X65.210 Y4.406 E2.07282
G1 X68.060 Y4.496 E2.14316
G1 X68.540 Y4.526 E2.15502
G1 X71.370 Y4.806 E2.22518
G1 X71.820 Y4.866 E2.23638
G1 X75.100 Y5.416 E2.31843
G1 X77.870 Y6.066 E2.38862
G1 X81.020 Y7.006 E2.46971
G1 X81.500 Y7.166 E2.48219
G1 X84.560 Y8.336 E2.56301
G1 X87.150 Y9.506 E2.63312
G1 X90.080 Y11.056 E2.71490
G1 X90.500 Y11.296 E2.72683
G1 X92.920 Y12.806 E2.79720
G1 X95.590 Y14.696 E2.87790
G1 X95.990 Y14.996 E2.89023
G1 X98.190 Y16.806 E2.96052
G1 X100.910 Y19.376 E3.05283
G1 X103.190 Y21.806 E3.13503
G1 X105.000 Y24.016 E3.20551
G1 X107.180 Y27.066 E3.29799
G1 X108.690 Y29.486 E3.36836
G1 X108.930 Y29.906 E3.38029
G1 X110.480 Y32.836 E3.46207
G1 X111.650 Y35.426 E3.53218
G1 X112.820 Y38.486 E3.61300
G1 X112.980 Y38.966 E3.62548
G1 X113.920 Y42.116 E3.70658
G1 X114.570 Y44.886 E3.77677
G1 X114.660 Y45.356 E3.78857
G1 X115.180 Y48.616 E3.87001
G1 X115.460 Y51.446 E3.94017
G1 X115.590 Y54.746 E4.02164
G1 X115.590 Y55.246 E4.03397
G1 X115.460 Y58.536 E4.11520
G1 X115.180 Y61.376 E4.18560
G1 X115.120 Y61.826 E4.19680
G1 X114.570 Y65.106 E4.27885
G1 X113.920 Y67.876 E4.34904
G1 X112.830 Y71.486 E4.44207
G1 X111.820 Y74.156 E4.51249
G1 X110.480 Y77.156 E4.59355
G1 X108.930 Y80.086 E4.67532
G1 X108.690 Y80.506 E4.68725
G1 X107.180 Y82.926 E4.75762
G1 X105.280 Y85.596 E4.83846
G1 X104.990 Y85.986 E4.85045
G1 X103.180 Y88.186 E4.92073
G1 X100.930 Y90.606 E5.00225
G1 X98.540 Y92.866 E5.08340
G1 X98.170 Y93.196 E5.09563
G1 X95.610 Y95.276 E5.17700
G1 X93.290 Y96.936 E5.24738
G1 X90.500 Y98.686 E5.32862
G1 X90.100 Y98.916 E5.34001
G1 X87.150 Y100.486 E5.42245
G1 X84.560 Y101.656 E5.49256
G1 X81.480 Y102.826 E5.57384
G1 X81.040 Y102.976 E5.58531
G1 X77.870 Y103.926 E5.66695
G1 X75.100 Y104.576 E5.73714
G1 X74.630 Y104.666 E5.74894
G1 X71.370 Y105.186 E5.83038
G1 X68.540 Y105.466 E5.90054
G1 X68.060 Y105.496 E5.91240
G1 X64.770 Y105.586 E5.99360
G1 X61.930 Y105.496 E6.06369
G1 X61.450 Y105.466 E6.07556
G1 X58.620 Y105.186 E6.14571
G1 X58.170 Y105.126 E6.15691
G1 X54.890 Y104.576 E6.23896
G1 X52.120 Y103.926 E6.30915
G1 X48.950 Y102.976 E6.39079
G1 X48.510 Y102.826 E6.40226
G1 X45.430 Y101.656 E6.48354
G1 X42.840 Y100.486 E6.55365
G1 X39.890 Y98.916 E6.63609
G1 X39.490 Y98.686 E6.64747
G1 X36.700 Y96.936 E6.72872
G1 X34.380 Y95.276 E6.79909
G1 X31.820 Y93.196 E6.88046
G1 X31.450 Y92.866 E6.89270
G1 X29.060 Y90.606 E6.97384
G1 X26.810 Y88.186 E7.05536
G1 X25.000 Y85.986 E7.12564
G1 X22.810 Y82.926 E7.21847
G1 X21.300 Y80.506 E7.28884
G1 X21.060 Y80.086 E7.30077
G1 X19.510 Y77.156 E7.38255
G1 X18.170 Y74.156 E7.46360
G1 X17.160 Y71.486 E7.53402
G1 X16.070 Y67.876 E7.62705
G1 X15.420 Y65.106 E7.69724
G1 X15.330 Y64.636 E7.70905
G1 X14.810 Y61.376 E7.79049
G1 X14.530 Y58.536 E7.86089
G1 X14.500 Y58.056 E7.87276
G1 X14.410 Y54.776 E7.95370
G1 X14.500 Y51.926 E8.02405
G1 X14.530 Y51.446 E8.03591
G1 X14.810 Y48.616 E8.10607
G1 X14.870 Y48.166 E8.11727
G1 X15.420 Y44.886 E8.19931
G1 X16.070 Y42.116 E8.26950
G1 X17.010 Y38.966 E8.35060
G1 X17.170 Y38.486 E8.36308
G1 X18.340 Y35.426 E8.44390
G1 X19.510 Y32.836 E8.51401
G1 X21.060 Y29.906 E8.59578
G1 X21.300 Y29.486 E8.60772
G1 X22.810 Y27.066 E8.67809
G1 X23.060 Y26.706 E8.68890
G1 X24.990 Y24.016 E8.77057
G1 X26.748 Y21.870 E8.83902
G1 X27.220 Y22.156 F7800.000
G1 X27.520 Y21.816 E8.85020 F810.000
G1 X29.750 Y19.466 E8.93013
G1 X31.820 Y17.516 E9.00028
G1 X34.350 Y15.416 E9.08140
G1 X37.040 Y13.486 E9.16307
G1 X39.780 Y11.766 E9.24288
G1 X40.170 Y11.536 E9.25405
G1 X43.060 Y10.006 E9.33472
G1 X45.650 Y8.836 E9.40483
G1 X48.690 Y7.676 E9.48510
G1 X49.130 Y7.526 E9.49657
G1 X51.860 Y6.706 E9.56689
G1 X55.010 Y5.956 E9.64677
G1 X55.450 Y5.866 E9.65785
G1 X58.680 Y5.346 E9.73856
G1 X61.510 Y5.066 E9.80871
G1 X64.780 Y4.956 E9.88943
G1 X65.200 Y4.956 E9.89979
G1 X68.480 Y5.066 E9.98075
G1 X71.310 Y5.346 E10.05091
G1 X74.540 Y5.866 E10.13162
G1 X74.980 Y5.956 E10.14270
G1 X78.130 Y6.706 E10.22258
G1 X80.860 Y7.526 E10.29290
G1 X81.300 Y7.676 E10.30437
G1 X84.340 Y8.836 E10.38464
G1 X86.930 Y10.006 E10.45475
G1 X89.820 Y11.536 E10.53542
G1 X92.950 Y13.486 E10.62639
G1 X95.640 Y15.416 E10.70807
G1 X97.840 Y17.226 E10.77835
G1 X98.170 Y17.516 E10.78919
G1 X100.520 Y19.746 E10.86911
G1 X102.470 Y21.816 E10.93926
G1 X102.770 Y22.156 E10.95045
G1 X104.580 Y24.366 E11.02092
G1 X106.490 Y27.016 E11.10151
G1 X108.220 Y29.776 E11.18186
G1 X108.450 Y30.166 E11.19303
G1 X109.980 Y33.056 E11.27370
G1 X111.150 Y35.646 E11.34381
G1 X112.310 Y38.686 E11.42408
G1 X112.460 Y39.126 E11.43555
G1 X113.280 Y41.856 E11.50587
G1 X114.030 Y45.006 E11.58575
G1 X114.120 Y45.446 E11.59683
G1 X114.640 Y48.676 E11.67754
G1 X114.920 Y51.506 E11.74770
G1 X115.040 Y54.766 E11.82818
G1 X115.040 Y55.226 E11.83952
G1 X114.920 Y58.476 E11.91976
G1 X114.640 Y61.316 E11.99016
G1 X114.120 Y64.546 E12.07087
G1 X114.030 Y64.986 E12.08194
G1 X113.280 Y68.146 E12.16207
G1 X112.460 Y70.866 E12.23215
G1 X111.150 Y74.346 E12.32388
G1 X109.980 Y76.936 E12.39399
G1 X108.450 Y79.826 E12.47466
G1 X106.490 Y82.976 E12.56619
G1 X104.840 Y85.286 E12.63622
G1 X102.760 Y87.836 E12.71740
G1 X102.480 Y88.156 E12.72789
G1 X100.240 Y90.526 E12.80834
G1 X98.170 Y92.476 E12.87849
G1 X97.830 Y92.776 E12.88968
G1 X95.630 Y94.576 E12.95980
G1 X92.620 Y96.726 E13.05106
G1 X90.210 Y98.226 E13.12109
G1 X86.930 Y99.986 E13.21292
G1 X84.340 Y101.156 E13.28303
G1 X81.280 Y102.316 E13.36376
G1 X77.750 Y103.386 E13.45475
G1 X74.540 Y104.126 E13.53602
G1 X71.310 Y104.646 E13.61673
G1 X68.480 Y104.926 E13.68689
G1 X64.780 Y105.036 E13.77820
G1 X61.510 Y104.926 E13.85892
G1 X58.680 Y104.646 E13.92907
G1 X55.450 Y104.126 E14.00978
G1 X55.010 Y104.036 E14.02086
G1 X52.240 Y103.386 E14.09105
G1 X48.710 Y102.316 E14.18205
G1 X45.650 Y101.156 E14.26278
G1 X43.060 Y99.986 E14.33289
G1 X39.780 Y98.226 E14.42472
G1 X37.370 Y96.726 E14.49475
G1 X37.020 Y96.486 E14.50522
G1 X34.360 Y94.576 E14.58601
G1 X32.160 Y92.776 E14.65613
G1 X31.820 Y92.476 E14.66732
G1 X29.750 Y90.526 E14.73747
G1 X27.510 Y88.156 E14.81792
G1 X25.420 Y85.636 E14.89869
G1 X25.150 Y85.286 E14.90959
G1 X23.500 Y82.976 E14.97962
G1 X21.770 Y80.216 E15.05998
G1 X21.540 Y79.826 E15.07115
G1 X20.010 Y76.936 E15.15182
G1 X18.840 Y74.346 E15.22193
G1 X17.680 Y71.296 E15.30243
G1 X17.530 Y70.866 E15.31367
G1 X16.710 Y68.146 E15.38375
G1 X15.870 Y64.546 E15.47495
G1 X15.350 Y61.316 E15.55566
G1 X15.070 Y58.476 E15.62606
G1 X14.960 Y55.206 E15.70677
G1 X14.960 Y54.786 E15.71714
G1 X15.070 Y51.506 E15.79810
G1 X15.350 Y48.676 E15.86825
G1 X15.870 Y45.446 E15.94896
G1 X15.960 Y45.006 E15.96004
G1 X16.710 Y41.856 E16.03992
G1 X17.530 Y39.126 E16.11024
G1 X17.680 Y38.686 E16.12171
G1 X18.840 Y35.646 E16.20198
G1 X20.010 Y33.056 E16.27209
G1 X21.540 Y30.166 E16.35276
G1 X23.500 Y27.016 E16.44429
G1 X25.410 Y24.366 E16.52487
G1 X27.168 Y22.220 E16.59332
G1 F1800.000 E15.59332
G92 E0
G1 X33.339 Y27.232 F7800.000
G1 E1.00000 F1800.000
G1 X35.223 Y25.220 E1.06799 F810.000
G1 X37.234 Y23.336 E1.13597
G1 X39.364 Y21.588 E1.20396
G1 X41.604 Y19.983 E1.27194
G1 X43.944 Y18.527 E1.33992
G1 X46.375 Y17.228 E1.40791
G1 X48.885 Y16.091 E1.47589
G1 X51.464 Y15.120 E1.54387
G1 X54.101 Y14.320 E1.61185
G1 X56.785 Y13.694 E1.67983
G1 X59.503 Y13.245 E1.74781
G1 X62.246 Y12.975 E1.81580
G1 X65.000 Y12.885 E1.88378
G1 X67.754 Y12.975 E1.95176
G1 X70.497 Y13.245 E2.01974
G1 X73.215 Y13.694 E2.08772
G1 X75.899 Y14.320 E2.15570
G1 X78.536 Y15.120 E2.22368
G1 X81.115 Y16.091 E2.29167
G1 X83.625 Y17.228 E2.35965
G1 X86.056 Y18.527 E2.42763
G1 X88.396 Y19.983 E2.49562
G1 X90.636 Y21.588 E2.56360
G1 X92.766 Y23.336 E2.63158
G1 X94.777 Y25.220 E2.69957
G1 X96.661 Y27.232 E2.76755
G1 X98.409 Y29.362 E2.83554
G1 X100.014 Y31.602 E2.90352
G1 X101.469 Y33.942 E2.97151
G1 X102.768 Y36.373 E3.03950
G1 X103.906 Y38.883 E3.10748
G1 X104.876 Y41.462 E3.17547
G1 X105.676 Y44.100 E3.24346
G1 X106.302 Y46.784 E3.31145
G1 X106.751 Y49.503 E3.37943
G1 X107.021 Y52.246 E3.44742
G1 X107.111 Y55.000 E3.51541
G1 X107.021 Y57.754 E3.58340
G1 X106.751 Y60.497 E3.65139
G1 X106.302 Y63.216 E3.71937
G1 X105.676 Y65.900 E3.78736
G1 X104.876 Y68.538 E3.85535
G1 X103.906 Y71.117 E3.92334
G1 X102.768 Y73.627 E3.99132
G1 X101.469 Y76.058 E4.05931
G1 X100.014 Y78.398 E4.12729
G1 X98.409 Y80.638 E4.19528
G1 X96.661 Y82.768 E4.26326
G1 X94.777 Y84.780 E4.33125
G1 X92.766 Y86.664 E4.39924
G1 X90.636 Y88.412 E4.46722
G1 X88.396 Y90.017 E4.53520
G1 X86.056 Y91.473 E4.60319
G1 X83.625 Y92.772 E4.67117
G1 X81.115 Y93.909 E4.73915
G1 X78.536 Y94.880 E4.80713
G1 X75.899 Y95.680 E4.87512
G1 X73.215 Y96.306 E4.94310
G1 X70.497 Y96.755 E5.01108
G1 X67.754 Y97.025 E5.07906
G1 X65.000 Y97.115 E5.14704
G1 X62.246 Y97.025 E5.21502
G1 X59.503 Y96.755 E5.28300
G1 X56.785 Y96.306 E5.35099
G1 X54.101 Y95.680 E5.41897
G1 X51.464 Y94.880 E5.48695
G1 X48.885 Y93.909 E5.55493
G1 X46.375 Y92.772 E5.62291
G1 X43.944 Y91.473 E5.69090
G1 X41.604 Y90.017 E5.75888
G1 X39.364 Y88.412 E5.82686
G1 X37.234 Y86.664 E5.89485
G1 X35.223 Y84.780 E5.96283
G1 X33.339 Y82.768 E6.03082
G1 X31.591 Y80.638 E6.09880
G1 X29.986 Y78.398 E6.16679
G1 X28.531 Y76.058 E6.23477
G1 X27.232 Y73.627 E6.30276
G1 X26.094 Y71.117 E6.37075
G1 X25.124 Y68.538 E6.43873
G1 X24.324 Y65.900 E6.50672
G1 X23.698 Y63.216 E6.57471
G1 X23.249 Y60.497 E6.64270
G1 X22.979 Y57.754 E6.71069
G1 X22.889 Y55.000 E6.77867
G1 X22.979 Y52.246 E6.84666
G1 X23.249 Y49.503 E6.91465
G1 X23.698 Y46.784 E6.98264
G1 X24.324 Y44.100 E7.05063
G1 X25.124 Y41.462 E7.11861
G1 X26.094 Y38.883 E7.18660
G1 X27.232 Y36.373 E7.25459
G1 X28.531 Y33.942 E7.32258
G1 X29.986 Y31.602 E7.39056
G1 X31.591 Y29.362 E7.45855
G1 X33.287 Y27.295 E7.52450
G1 X32.927 Y26.871 F7800.000
G1 X34.836 Y24.833 E7.59338 F810.000
G1 X36.873 Y22.925 E7.66224
G1 X39.031 Y21.153 E7.73111
G1 X41.300 Y19.527 E7.79998
G1 X43.671 Y18.053 E7.86885
G1 X46.133 Y16.737 E7.93771
G1 X48.675 Y15.585 E8.00658
G1 X51.288 Y14.601 E8.07545
G1 X53.959 Y13.791 E8.14431
G1 X56.678 Y13.157 E8.21318
G1 X59.432 Y12.702 E8.28204
G1 X62.210 Y12.429 E8.35091
G1 X65.000 Y12.337 E8.41977
G1 X67.790 Y12.429 E8.48864
G1 X70.568 Y12.702 E8.55750
G1 X73.322 Y13.157 E8.62637
G1 X76.041 Y13.791 E8.69523
G1 X78.712 Y14.601 E8.76410
G1 X81.325 Y15.585 E8.83296
G1 X83.867 Y16.737 E8.90183
G1 X86.329 Y18.053 E8.97070
G1 X88.700 Y19.527 E9.03957
G1 X90.969 Y21.153 E9.10843
G1 X93.127 Y22.925 E9.17730
G1 X95.164 Y24.833 E9.24617
G1 X97.073 Y26.871 E9.31504
G1 X98.843 Y29.029 E9.38391
G1 X100.469 Y31.298 E9.45278
G1 X101.943 Y33.669 E9.52165
G1 X103.259 Y36.131 E9.59052
G1 X104.411 Y38.674 E9.65939
G1 X105.395 Y41.287 E9.72826
G1 X106.205 Y43.958 E9.79713
G1 X106.839 Y46.677 E9.86600
G1 X107.294 Y49.431 E9.93487
G1 X107.567 Y52.210 E10.00374
G1 X107.659 Y55.000 E10.07262
G1 X107.567 Y57.790 E10.14149
G1 X107.294 Y60.569 E10.21036
G1 X106.839 Y63.323 E10.27923
G1 X106.205 Y66.042 E10.34810
G1 X105.395 Y68.713 E10.41697
G1 X104.411 Y71.326 E10.48585
G1 X103.259 Y73.869 E10.55472
G1 X101.943 Y76.331 E10.62359
G1 X100.469 Y78.702 E10.69245
G1 X98.843 Y80.971 E10.76133
G1 X97.073 Y83.129 E10.83019
G1 X95.164 Y85.167 E10.89906
G1 X93.127 Y87.075 E10.96793
G1 X90.969 Y88.847 E11.03680
G1 X88.700 Y90.473 E11.10567
G1 X86.329 Y91.947 E11.17453
G1 X83.867 Y93.263 E11.24340
G1 X81.325 Y94.415 E11.31227
G1 X78.712 Y95.399 E11.38113
G1 X76.041 Y96.209 E11.45000
G1 X73.322 Y96.843 E11.51886
G1 X70.568 Y97.298 E11.58773
G1 X67.790 Y97.571 E11.65659
G1 X65.000 Y97.663 E11.72546
G1 X62.210 Y97.571 E11.79433
G1 X59.432 Y97.298 E11.86319
G1 X56.678 Y96.843 E11.93206
G1 X53.959 Y96.209 E12.00092
G1 X51.288 Y95.399 E12.06979
G1 X48.675 Y94.415 E12.13865
G1 X46.133 Y93.263 E12.20752
G1 X43.671 Y91.947 E12.27639
G1 X41.300 Y90.473 E12.34525
G1 X39.031 Y88.847 E12.41412
G1 X36.873 Y87.075 E12.48299
G1 X34.836 Y85.167 E12.55186
G1 X32.927 Y83.129 E12.62073
G1 X31.157 Y80.971 E12.68959
G1 X29.531 Y78.702 E12.75846
G1 X28.057 Y76.331 E12.82733
G1 X26.741 Y73.869 E12.89620
G1 X25.589 Y71.326 E12.96507
G1 X24.605 Y68.713 E13.03395
G1 X23.795 Y66.042 E13.10282
G1 X23.161 Y63.323 E13.17169
G1 X22.706 Y60.569 E13.24056
G1 X22.433 Y57.790 E13.30943
G1 X22.341 Y55.000 E13.37830
G1 X22.433 Y52.210 E13.44717
G1 X22.706 Y49.431 E13.51605
G1 X23.161 Y46.677 E13.58492
G1 X23.795 Y43.958 E13.65379
G1 X24.605 Y41.287 E13.72266
G1 X25.589 Y38.674 E13.79153
G1 X26.741 Y36.131 E13.86040
G1 X28.057 Y33.669 E13.92927
G1 X29.531 Y31.298 E13.99814
G1 X31.157 Y29.029 E14.06701
G1 X32.875 Y26.934 E14.13386
G1 X32.516 Y26.510 F7800.000
G1 X34.449 Y24.446 E14.20361 F567.000
G1 X36.512 Y22.513 E14.27336
G1 X38.698 Y20.719 E14.34311
G1 X40.996 Y19.072 E14.41286
G1 X43.397 Y17.579 E14.48262
G1 X45.890 Y16.246 E14.55237
G1 X48.466 Y15.079 E14.62212
G1 X51.112 Y14.083 E14.69187
G1 X53.817 Y13.262 E14.76162
G1 X56.571 Y12.620 E14.83136
G1 X59.360 Y12.160 E14.90111
G1 X62.174 Y11.882 E14.97086
G1 X65.000 Y11.790 E15.04061
G1 X67.826 Y11.882 E15.11036
G1 X70.640 Y12.160 E15.18011
G1 X73.429 Y12.620 E15.24986
G1 X76.183 Y13.262 E15.31961
G1 X78.888 Y14.083 E15.38936
G1 X81.534 Y15.079 E15.45911
G1 X84.110 Y16.246 E15.52886
G1 X86.603 Y17.579 E15.59861
G1 X89.004 Y19.072 E15.66836
G1 X91.302 Y20.719 E15.73811
G1 X93.488 Y22.513 E15.80786
G1 X95.551 Y24.446 E15.87762
G1 X97.484 Y26.510 E15.94737
G1 X99.278 Y28.695 E16.01712
G1 X100.925 Y30.994 E16.08688
G1 X102.418 Y33.395 E16.15663
G1 X103.750 Y35.889 E16.22638
G1 X104.917 Y38.464 E16.29613
G1 X105.913 Y41.111 E16.36589
G1 X106.734 Y43.816 E16.43564
G1 X107.376 Y46.570 E16.50540
G1 X107.836 Y49.360 E16.57516
G1 X108.114 Y52.174 E16.64491
G1 X108.206 Y55.000 E16.71467
G1 X108.114 Y57.826 E16.78442
G1 X107.836 Y60.640 E16.85418
G1 X107.376 Y63.430 E16.92393
G1 X106.734 Y66.184 E16.99369
G1 X105.913 Y68.889 E17.06344
G1 X104.917 Y71.536 E17.13320
G1 X103.750 Y74.111 E17.20295
G1 X102.418 Y76.605 E17.27271
G1 X100.925 Y79.006 E17.34246
G1 X99.278 Y81.305 E17.41222
G1 X97.484 Y83.490 E17.48197
G1 X95.551 Y85.554 E17.55172
G1 X93.488 Y87.487 E17.62147
G1 X91.302 Y89.281 E17.69122
G1 X89.004 Y90.928 E17.76098
G1 X86.603 Y92.421 E17.83073
G1 X84.110 Y93.754 E17.90048
G1 X81.534 Y94.921 E17.97023
G1 X78.888 Y95.917 E18.03998
G1 X76.183 Y96.738 E18.10973
G1 X73.429 Y97.380 E18.17948
G1 X70.640 Y97.840 E18.24922
G1 X67.826 Y98.118 E18.31897
G1 X65.000 Y98.210 E18.38872
G1 X62.174 Y98.118 E18.45847
G1 X59.360 Y97.840 E18.52822
G1 X56.571 Y97.380 E18.59797
G1 X53.817 Y96.738 E18.66772
G1 X51.112 Y95.917 E18.73747
G1 X48.466 Y94.921 E18.80722
G1 X45.890 Y93.754 E18.87697
G1 X43.397 Y92.421 E18.94672
G1 X40.996 Y90.928 E19.01647
G1 X38.698 Y89.281 E19.08622
G1 X36.512 Y87.487 E19.15598
G1 X34.449 Y85.554 E19.22573
G1 X32.516 Y83.490 E19.29548
G1 X30.722 Y81.305 E19.36523
