; generated by Slic3r 1.0.0RC2 on 2014-03-01 at 15:47:20

; layer_height = 0.2937
; perimeters = 3
; top_solid_layers = 3
; bottom_solid_layers = 3
; fill_density = 0.3
; perimeter_speed = 30
; infill_speed = 60
; travel_speed = 130
; nozzle_diameter = 0.4
; filament_diameter = 2.93
; extrusion_multiplier = 1
; perimeters extrusion width = 0.40mm
; infill extrusion width = 0.44mm
; solid infill extrusion width = 0.44mm
; top infill extrusion width = 0.44mm
; first layer extrusion width = 0.59mm

G21 ; set units to millimeters
M107
M104 S210 ; set temperature
G28 ; home all axes
M92 X79.7957; calibrate X
M92 Y79.6685 ; calibrate Y
M92 Z2210.2522 ; calibrate Z
M92 E496.1314 ; calibrate E
M109 S210 ; wait for temperature to be reached
G90 ; use absolute coordinates
G92 E0
M82 ; use absolute distances for extrusion
G1 F1800.000 E-1.00000
G92 E0
G1 Z0.294 F7800.000
G1 X24.359 Y20.049 F7800.000
G1 E1.00000 F1800.000
G1 X25.219 Y19.079 E1.03090 F540.000
G1 X27.239 Y16.959 E1.10069
G1 X29.079 Y15.219 E1.16105
G1 X30.049 Y14.359 E1.19195
G1 X31.139 Y13.449 E1.22579
G1 X32.939 Y12.049 E1.28015
G1 X34.189 Y11.139 E1.31700
G1 X35.309 Y10.369 E1.34939
G1 X36.269 Y9.749 E1.37663
G1 X37.549 Y8.959 E1.41248
G1 X39.659 Y7.769 E1.47022
G1 X40.789 Y7.179 E1.50061
G1 X41.989 Y6.589 E1.53248
G1 X44.319 Y5.549 E1.59329
G1 X45.829 Y4.939 E1.63211
G1 X48.299 Y4.069 E1.69453
G1 X49.499 Y3.689 E1.72453
G1 X50.589 Y3.369 E1.75161
G1 X52.079 Y2.979 E1.78832
G1 X53.189 Y2.719 E1.81549
G1 X54.609 Y2.419 E1.85008
G1 X55.919 Y2.169 E1.88187
G1 X57.049 Y1.989 E1.90914
G1 X58.559 Y1.779 E1.94548
G1 X60.939 Y1.549 E2.00247
G1 X62.459 Y1.459 E2.03876
G1 X63.609 Y1.419 E2.06619
G1 X66.389 Y1.419 E2.13245
G1 X67.529 Y1.459 E2.15964
G1 X69.049 Y1.549 E2.19593
G1 X71.429 Y1.779 E2.25292
G1 X72.939 Y1.989 E2.28926
G1 X74.069 Y2.169 E2.31653
G1 X75.379 Y2.419 E2.34832
G1 X76.779 Y2.719 E2.38244
G1 X78.109 Y3.029 E2.41499
G1 X79.399 Y3.369 E2.44679
G1 X80.489 Y3.689 E2.47387
G1 X81.689 Y4.069 E2.50387
G1 X84.159 Y4.939 E2.56629
G1 X85.399 Y5.429 E2.59807
G1 X87.999 Y6.589 E2.66592
G1 X89.169 Y7.159 E2.69694
G1 X90.339 Y7.769 E2.72839
G1 X91.339 Y8.319 E2.75560
G1 X92.469 Y8.979 E2.78679
G1 X93.719 Y9.749 E2.82178
G1 X94.859 Y10.489 E2.85417
G1 X95.919 Y11.219 E2.88485
G1 X96.849 Y11.889 E2.91217
G1 X98.859 Y13.449 E2.97281
G1 X100.029 Y14.439 E3.00934
G1 X101.119 Y15.399 E3.04396
G1 X102.769 Y16.969 E3.09825
G1 X104.739 Y19.039 E3.16636
G1 X105.499 Y19.889 E3.19354
G1 X106.399 Y20.969 E3.22704
G1 X108.079 Y23.119 E3.29208
G1 X108.749 Y24.039 E3.31921
G1 X109.619 Y25.309 E3.35590
G1 X110.239 Y26.269 E3.38314
G1 X110.999 Y27.499 E3.41760
G1 X111.579 Y28.489 E3.44495
G1 X112.809 Y30.789 E3.50711
G1 X113.509 Y32.229 E3.54527
G1 X114.559 Y34.589 E3.60684
G1 X114.979 Y35.649 E3.63402
G1 X115.429 Y36.849 E3.66456
G1 X115.859 Y38.109 E3.69630
G1 X116.299 Y39.499 E3.73105
G1 X116.619 Y40.589 E3.75812
G1 X117.319 Y43.369 E3.82645
G1 X117.819 Y45.919 E3.88839
G1 X117.999 Y47.049 E3.91566
G1 X118.209 Y48.559 E3.95200
G1 X118.439 Y50.939 E4.00899
G1 X118.529 Y52.459 E4.04528
G1 X118.569 Y53.609 E4.07271
G1 X118.589 Y54.879 E4.10298
G1 X118.569 Y56.389 E4.13898
G1 X118.529 Y57.529 E4.16616
G1 X118.439 Y59.049 E4.20246
G1 X118.209 Y61.429 E4.25945
G1 X117.999 Y62.939 E4.29578
G1 X117.819 Y64.069 E4.32306
G1 X117.319 Y66.619 E4.38499
G1 X116.999 Y67.959 E4.41783
G1 X116.619 Y69.399 E4.45333
G1 X116.299 Y70.489 E4.48040
G1 X115.859 Y71.879 E4.51515
G1 X115.429 Y73.139 E4.54689
G1 X115.029 Y74.209 E4.57411
G1 X114.439 Y75.669 E4.61165
G1 X113.399 Y77.999 E4.67246
G1 X112.829 Y79.169 E4.70348
G1 X112.299 Y80.189 E4.73088
G1 X111.569 Y81.529 E4.76725
G1 X110.989 Y82.509 E4.79439
G1 X110.239 Y83.719 E4.82832
G1 X109.619 Y84.679 E4.85556
G1 X108.749 Y85.959 E4.89245
G1 X108.069 Y86.889 E4.91991
G1 X106.539 Y88.859 E4.97936
G1 X105.529 Y90.069 E5.01693
G1 X104.769 Y90.929 E5.04429
G1 X102.769 Y93.019 E5.11323
G1 X100.929 Y94.769 E5.17376
G1 X100.069 Y95.529 E5.20111
G1 X98.859 Y96.539 E5.23868
G1 X96.889 Y98.069 E5.29813
G1 X95.959 Y98.749 E5.32559
G1 X94.679 Y99.619 E5.36248
G1 X92.509 Y100.989 E5.42365
G1 X91.529 Y101.569 E5.45079
G1 X90.189 Y102.299 E5.48716
G1 X89.169 Y102.829 E5.51456
G1 X87.759 Y103.509 E5.55187
G1 X85.399 Y104.559 E5.61344
G1 X84.339 Y104.979 E5.64061
G1 X83.139 Y105.429 E5.67116
G1 X81.879 Y105.859 E5.70289
G1 X80.489 Y106.299 E5.73764
G1 X79.399 Y106.619 E5.76472
G1 X77.959 Y106.999 E5.80022
G1 X76.619 Y107.319 E5.83305
G1 X74.069 Y107.819 E5.89499
G1 X72.939 Y107.999 E5.92226
G1 X71.429 Y108.209 E5.95860
G1 X69.049 Y108.439 E6.01559
G1 X67.529 Y108.529 E6.05188
G1 X66.389 Y108.569 E6.07907
G1 X65.119 Y108.589 E6.10934
G1 X63.609 Y108.569 E6.14534
G1 X62.459 Y108.529 E6.17276
G1 X60.939 Y108.439 E6.20906
G1 X58.559 Y108.209 E6.26605
G1 X57.049 Y107.999 E6.30239
G1 X55.919 Y107.819 E6.32966
G1 X53.369 Y107.319 E6.39159
G1 X50.589 Y106.619 E6.45992
G1 X49.499 Y106.299 E6.48700
G1 X48.109 Y105.859 E6.52175
G1 X46.849 Y105.429 E6.55348
G1 X45.779 Y105.029 E6.58071
G1 X44.319 Y104.439 E6.61824
G1 X41.989 Y103.399 E6.67906
G1 X40.969 Y102.899 E6.70613
G1 X38.489 Y101.579 E6.77310
G1 X37.499 Y100.999 E6.80044
G1 X36.269 Y100.239 E6.83491
G1 X35.309 Y99.619 E6.86214
G1 X33.999 Y98.729 E6.89989
G1 X33.079 Y98.049 E6.92716
G1 X31.139 Y96.539 E6.98576
G1 X29.889 Y95.499 E7.02451
G1 X29.039 Y94.739 E7.05169
G1 X26.969 Y92.769 E7.11980
G1 X25.189 Y90.889 E7.18151
G1 X23.449 Y88.859 E7.24523
G1 X21.889 Y86.849 E7.30588
G1 X21.219 Y85.919 E7.33320
G1 X20.369 Y84.679 E7.36903
G1 X19.749 Y83.719 E7.39627
G1 X18.979 Y82.469 E7.43126
G1 X18.319 Y81.339 E7.46245
G1 X17.769 Y80.339 E7.48965
G1 X17.159 Y79.169 E7.52110
G1 X16.589 Y77.999 E7.55212
G1 X15.429 Y75.399 E7.61998
G1 X14.939 Y74.159 E7.65176
G1 X14.069 Y71.689 E7.71418
G1 X13.689 Y70.489 E7.74418
G1 X13.369 Y69.399 E7.77126
G1 X13.029 Y68.109 E7.80305
G1 X12.719 Y66.779 E7.83560
G1 X12.419 Y65.379 E7.86973
G1 X12.169 Y64.069 E7.90152
G1 X11.989 Y62.939 E7.92879
G1 X11.779 Y61.429 E7.96513
G1 X11.549 Y59.049 E8.02212
G1 X11.459 Y57.529 E8.05841
G1 X11.419 Y56.389 E8.08560
G1 X11.419 Y53.609 E8.15186
G1 X11.459 Y52.459 E8.17929
G1 X11.549 Y50.939 E8.21558
G1 X11.779 Y48.559 E8.27257
G1 X11.989 Y47.049 E8.30891
G1 X12.169 Y45.919 E8.33618
G1 X12.419 Y44.609 E8.36797
G1 X12.719 Y43.189 E8.40256
G1 X12.979 Y42.079 E8.42973
G1 X13.369 Y40.589 E8.46644
G1 X13.689 Y39.499 E8.49352
G1 X14.069 Y38.299 E8.52352
G1 X14.939 Y35.829 E8.58594
G1 X15.429 Y34.589 E8.61772
G1 X16.589 Y31.989 E8.68557
G1 X17.179 Y30.789 E8.71745
G1 X17.769 Y29.659 E8.74783
G1 X18.319 Y28.659 E8.77503
G1 X18.959 Y27.549 E8.80557
G1 X19.749 Y26.269 E8.84142
G1 X20.489 Y25.129 E8.87382
G1 X21.139 Y24.189 E8.90106
G1 X22.049 Y22.939 E8.93791
G1 X23.449 Y21.139 E8.99226
G1 X24.306 Y20.112 E9.02415
G1 X24.779 Y20.409 F7800.000
G1 X25.779 Y19.269 E9.06029 F540.000
G1 X27.609 Y17.349 E9.12351
G1 X29.269 Y15.779 E9.17797
G1 X30.289 Y14.879 E9.21039
G1 X31.479 Y13.879 E9.24744
G1 X33.279 Y12.479 E9.30179
G1 X34.499 Y11.589 E9.33779
G1 X35.439 Y10.939 E9.36503
G1 X36.679 Y10.139 E9.40020
G1 X37.819 Y9.439 E9.43208
G1 X38.919 Y8.799 E9.46242
G1 X39.919 Y8.249 E9.48962
G1 X41.049 Y7.659 E9.52000
G1 X42.449 Y6.979 E9.55710
G1 X44.789 Y5.939 E9.61813
G1 X45.849 Y5.519 E9.64531
G1 X48.239 Y4.659 E9.70585
G1 X49.549 Y4.249 E9.73857
G1 X50.749 Y3.899 E9.76836
G1 X52.049 Y3.559 E9.80039
G1 X53.429 Y3.229 E9.83421
G1 X54.709 Y2.949 E9.86544
G1 X55.829 Y2.739 E9.89260
G1 X57.139 Y2.529 E9.92422
G1 X58.609 Y2.329 E9.95958
G1 X60.989 Y2.099 E10.01657
G1 X62.479 Y2.009 E10.05215
G1 X63.799 Y1.959 E10.08363
G1 X66.199 Y1.959 E10.14084
G1 X67.509 Y2.009 E10.17208
G1 X68.999 Y2.099 E10.20766
G1 X71.379 Y2.329 E10.26465
G1 X72.849 Y2.529 E10.30001
G1 X74.159 Y2.739 E10.33164
G1 X75.279 Y2.949 E10.35880
G1 X76.659 Y3.249 E10.39246
G1 X77.779 Y3.509 E10.41986
G1 X79.069 Y3.849 E10.45166
G1 X80.439 Y4.249 E10.48568
G1 X81.749 Y4.659 E10.51839
G1 X84.139 Y5.519 E10.57893
G1 X85.449 Y6.049 E10.61262
G1 X87.759 Y7.079 E10.67290
G1 X88.919 Y7.649 E10.70371
G1 X90.079 Y8.249 E10.73483
G1 X91.079 Y8.799 E10.76204
G1 X92.339 Y9.539 E10.79686
G1 X93.309 Y10.139 E10.82405
G1 X94.549 Y10.939 E10.85922
G1 X95.489 Y11.589 E10.88646
G1 X96.719 Y12.479 E10.92265
G1 X98.519 Y13.879 E10.97700
G1 X99.609 Y14.799 E11.01100
G1 X100.739 Y15.799 E11.04696
G1 X102.639 Y17.609 E11.10951
G1 X104.209 Y19.269 E11.16397
G1 X105.249 Y20.439 E11.20128
G1 X105.979 Y21.319 E11.22853
G1 X107.499 Y23.259 E11.28727
G1 X108.429 Y24.539 E11.32498
G1 X109.159 Y25.609 E11.35586
G1 X109.849 Y26.679 E11.38620
G1 X110.529 Y27.779 E11.41703
G1 X111.109 Y28.769 E11.44437
G1 X112.329 Y31.049 E11.50601
G1 X113.009 Y32.449 E11.54310
G1 X114.049 Y34.789 E11.60414
G1 X114.469 Y35.849 E11.63131
G1 X114.909 Y37.039 E11.66155
G1 X115.399 Y38.459 E11.69736
G1 X116.089 Y40.749 E11.75436
G1 X116.459 Y42.149 E11.78888
G1 X116.729 Y43.259 E11.81611
G1 X117.039 Y44.709 E11.85145
G1 X117.249 Y45.829 E11.87861
G1 X117.459 Y47.139 E11.91023
G1 X117.659 Y48.609 E11.94559
G1 X117.889 Y50.989 E12.00258
G1 X117.979 Y52.479 E12.03816
G1 X118.029 Y53.749 E12.06845
G1 X118.049 Y54.889 E12.09563
G1 X118.029 Y56.249 E12.12805
G1 X117.979 Y57.509 E12.15810
G1 X117.889 Y58.999 E12.19368
G1 X117.659 Y61.379 E12.25067
G1 X117.459 Y62.849 E12.28603
G1 X117.249 Y64.159 E12.31766
G1 X117.039 Y65.279 E12.34482
G1 X116.779 Y66.509 E12.37478
G1 X116.429 Y67.969 E12.41057
G1 X116.139 Y69.069 E12.43768
G1 X115.399 Y71.529 E12.49891
G1 X114.909 Y72.949 E12.53471
G1 X114.469 Y74.139 E12.56495
G1 X114.049 Y75.199 E12.59213
G1 X112.909 Y77.759 E12.65892
G1 X112.339 Y78.919 E12.68973
G1 X111.219 Y81.029 E12.74667
G1 X110.449 Y82.339 E12.78288
G1 X109.849 Y83.309 E12.81007
G1 X109.159 Y84.379 E12.84041
G1 X108.309 Y85.629 E12.87644
G1 X107.509 Y86.719 E12.90867
G1 X106.109 Y88.519 E12.96302
G1 X105.119 Y89.709 E12.99992
G1 X104.359 Y90.569 E13.02727
G1 X102.389 Y92.619 E13.09504
G1 X100.569 Y94.359 E13.15505
G1 X99.709 Y95.119 E13.18241
G1 X98.519 Y96.109 E13.21930
G1 X96.559 Y97.629 E13.27842
G1 X95.629 Y98.309 E13.30588
G1 X94.379 Y99.159 E13.34191
G1 X92.339 Y100.449 E13.39944
G1 X91.029 Y101.219 E13.43566
G1 X88.919 Y102.339 E13.49259
G1 X87.539 Y103.009 E13.52916
G1 X85.199 Y104.049 E13.59019
G1 X84.139 Y104.469 E13.61737
G1 X82.949 Y104.909 E13.64761
G1 X81.529 Y105.399 E13.68341
G1 X79.069 Y106.139 E13.74464
G1 X77.969 Y106.429 E13.77176
G1 X76.509 Y106.779 E13.80754
G1 X75.279 Y107.039 E13.83750
G1 X74.159 Y107.249 E13.86466
G1 X72.849 Y107.459 E13.89629
G1 X71.379 Y107.659 E13.93165
G1 X68.999 Y107.889 E13.98864
G1 X67.509 Y107.979 E14.02422
G1 X66.249 Y108.029 E14.05427
G1 X65.109 Y108.049 E14.08145
G1 X63.749 Y108.029 E14.11387
G1 X62.479 Y107.979 E14.14416
G1 X60.989 Y107.889 E14.17974
G1 X58.609 Y107.659 E14.23673
G1 X57.139 Y107.459 E14.27209
G1 X55.829 Y107.249 E14.30371
G1 X54.709 Y107.039 E14.33087
G1 X53.479 Y106.779 E14.36084
G1 X52.149 Y106.459 E14.39344
G1 X50.749 Y106.089 E14.42796
G1 X48.459 Y105.399 E14.48496
G1 X47.039 Y104.909 E14.52077
G1 X45.849 Y104.469 E14.55101
G1 X44.539 Y103.939 E14.58469
G1 X42.229 Y102.909 E14.64497
G1 X41.209 Y102.409 E14.67205
G1 X38.769 Y101.109 E14.73794
G1 X37.779 Y100.529 E14.76529
G1 X36.679 Y99.849 E14.79612
G1 X35.609 Y99.159 E14.82646
G1 X34.329 Y98.289 E14.86335
G1 X33.409 Y97.609 E14.89062
G1 X31.479 Y96.109 E14.94888
G1 X30.439 Y95.249 E14.98104
G1 X29.269 Y94.209 E15.01836
G1 X27.609 Y92.639 E15.07281
G1 X25.799 Y90.739 E15.13536
G1 X24.799 Y89.609 E15.17133
G1 X23.879 Y88.519 E15.20532
G1 X22.479 Y86.719 E15.25967
G1 X21.589 Y85.489 E15.29586
G1 X20.939 Y84.549 E15.32310
G1 X19.539 Y82.339 E15.38546
G1 X18.799 Y81.079 E15.42028
G1 X18.249 Y80.079 E15.44749
G1 X17.649 Y78.919 E15.47861
G1 X16.979 Y77.539 E15.51518
G1 X15.939 Y75.199 E15.57621
G1 X15.519 Y74.139 E15.60339
G1 X14.659 Y71.749 E15.66393
G1 X14.249 Y70.439 E15.69665
G1 X13.849 Y69.069 E15.73066
G1 X13.509 Y67.779 E15.76246
G1 X13.249 Y66.659 E15.78986
G1 X12.949 Y65.279 E15.82352
G1 X12.739 Y64.159 E15.85068
G1 X12.529 Y62.849 E15.88231
G1 X12.329 Y61.379 E15.91767
G1 X12.099 Y58.999 E15.97466
G1 X12.009 Y57.509 E16.01024
G1 X11.959 Y56.199 E16.04148
G1 X11.959 Y53.799 E16.09869
G1 X12.009 Y52.479 E16.13017
G1 X12.099 Y50.989 E16.16575
G1 X12.329 Y48.609 E16.22274
G1 X12.529 Y47.139 E16.25810
G1 X12.739 Y45.829 E16.28972
G1 X12.949 Y44.709 E16.31688
G1 X13.229 Y43.429 E16.34811
G1 X13.559 Y42.049 E16.38193
G1 X13.899 Y40.749 E16.41396
G1 X14.249 Y39.549 E16.44375
G1 X14.659 Y38.239 E16.47647
G1 X15.519 Y35.849 E16.53701
G1 X16.049 Y34.539 E16.57069
G1 X17.079 Y32.229 E16.63098
G1 X17.659 Y31.049 E16.66232
G1 X18.249 Y29.919 E16.69270
G1 X18.799 Y28.919 E16.71990
G1 X19.539 Y27.649 E16.75494
G1 X20.139 Y26.679 E16.78212
G1 X20.939 Y25.439 E16.81729
G1 X21.589 Y24.499 E16.84453
G1 X22.479 Y23.279 E16.88053
G1 X23.879 Y21.479 E16.93488
G1 X24.726 Y20.472 E16.96625
G1 F1800.000 E15.96625
G92 E0
G1 X30.843 Y25.531 F7800.000
G1 E1.00000 F1800.000
G1 X31.570 Y24.704 E1.02625 F540.000
G1 X32.328 Y23.896 E1.05264
G1 X33.101 Y23.101 E1.07908
G1 X33.896 Y22.328 E1.10551
G1 X34.704 Y21.570 E1.13190
G1 X35.531 Y20.842 E1.15817
G1 X36.379 Y20.129 E1.18458
G1 X37.247 Y19.439 E1.21101
G1 X38.129 Y18.765 E1.23747
G1 X39.026 Y18.115 E1.26386
G1 X39.936 Y17.489 E1.29020
G1 X40.863 Y16.886 E1.31655
G1 X42.765 Y15.748 E1.36938
G1 X43.733 Y15.216 E1.39573
G1 X44.718 Y14.705 E1.42216
G1 X45.710 Y14.219 E1.44849
G1 X46.721 Y13.758 E1.47497
G1 X47.736 Y13.320 E1.50132
G1 X48.762 Y12.911 E1.52764
G1 X50.849 Y12.166 E1.58045
G1 X52.968 Y11.521 E1.63327
G1 X55.118 Y10.983 E1.68608
G1 X56.200 Y10.753 E1.71244
G1 X57.285 Y10.551 E1.73876
G1 X58.382 Y10.375 E1.76522
G1 X59.478 Y10.226 E1.79159
G1 X60.579 Y10.105 E1.81799
G1 X61.680 Y10.009 E1.84435
G1 X62.785 Y9.942 E1.87073
G1 X63.895 Y9.901 E1.89720
G1 X65.000 Y9.887 E1.92354
G1 X66.105 Y9.901 E1.94988
G1 X67.215 Y9.942 E1.97636
G1 X68.320 Y10.009 E2.00274
G1 X69.421 Y10.105 E2.02909
G1 X70.522 Y10.226 E2.05549
G1 X71.618 Y10.375 E2.08186
G1 X72.715 Y10.551 E2.10833
G1 X73.800 Y10.753 E2.13465
G1 X74.882 Y10.983 E2.16101
G1 X77.031 Y11.521 E2.21381
G1 X79.152 Y12.166 E2.26663
G1 X81.238 Y12.911 E2.31944
G1 X82.264 Y13.320 E2.34576
G1 X83.279 Y13.758 E2.37212
G1 X84.290 Y14.219 E2.39860
G1 X85.282 Y14.705 E2.42493
G1 X86.267 Y15.216 E2.45136
G1 X87.235 Y15.748 E2.47770
G1 X89.137 Y16.886 E2.53053
G1 X90.064 Y17.489 E2.55689
G1 X90.974 Y18.115 E2.58322
G1 X91.871 Y18.765 E2.60962
G1 X92.753 Y19.439 E2.63607
G1 X93.621 Y20.129 E2.66251
G1 X94.469 Y20.842 E2.68891
G1 X95.296 Y21.570 E2.71518
G1 X96.104 Y22.328 E2.74157
G1 X96.899 Y23.101 E2.76801
G1 X97.672 Y23.897 E2.79444
G1 X98.430 Y24.704 E2.82083
G1 X99.158 Y25.531 E2.84710
G1 X99.871 Y26.379 E2.87351
G1 X100.561 Y27.247 E2.89994
G1 X101.235 Y28.129 E2.92639
G1 X101.885 Y29.026 E2.95279
G1 X102.511 Y29.936 E2.97913
G1 X103.114 Y30.863 E3.00548
G1 X104.252 Y32.765 E3.05831
G1 X104.784 Y33.733 E3.08465
G1 X105.295 Y34.718 E3.11109
G1 X105.781 Y35.710 E3.13741
G1 X106.242 Y36.721 E3.16390
G1 X106.680 Y37.736 E3.19025
G1 X107.089 Y38.762 E3.21657
G1 X107.834 Y40.849 E3.26938
G1 X108.479 Y42.968 E3.32220
G1 X109.017 Y45.118 E3.37501
G1 X109.247 Y46.200 E3.40137
G1 X109.449 Y47.285 E3.42769
G1 X109.625 Y48.381 E3.45415
G1 X109.774 Y49.478 E3.48052
G1 X109.895 Y50.579 E3.50692
G1 X109.991 Y51.680 E3.53328
G1 X110.058 Y52.785 E3.55966
G1 X110.099 Y53.895 E3.58613
G1 X110.113 Y55.000 E3.61247
G1 X110.099 Y56.105 E3.63881
G1 X110.058 Y57.215 E3.66528
G1 X109.991 Y58.320 E3.69166
G1 X109.895 Y59.421 E3.71802
G1 X109.774 Y60.522 E3.74442
G1 X109.625 Y61.618 E3.77079
G1 X109.449 Y62.715 E3.79725
G1 X109.247 Y63.800 E3.82357
G1 X109.017 Y64.882 E3.84994
G1 X108.479 Y67.032 E3.90274
G1 X107.834 Y69.152 E3.95556
G1 X107.089 Y71.238 E4.00837
G1 X106.680 Y72.264 E4.03469
G1 X106.242 Y73.279 E4.06105
G1 X105.781 Y74.290 E4.08753
G1 X105.295 Y75.282 E4.11385
G1 X104.784 Y76.267 E4.14029
G1 X104.252 Y77.235 E4.16663
G1 X103.114 Y79.137 E4.21946
