; generated by Slic3r 1.0.0RC2 on 2014-03-08 at 10:24:55

; layer_height = 0.2937
; perimeters = 3
; top_solid_layers = 3
; bottom_solid_layers = 3
; fill_density = 0.3
; perimeter_speed = 20
; infill_speed = 20
; travel_speed = 60
; nozzle_diameter = 0.4
; filament_diameter = 2.88
; extrusion_multiplier = 1
; perimeters extrusion width = 0.40mm
; infill extrusion width = 0.44mm
; solid infill extrusion width = 0.44mm
; top infill extrusion width = 0.44mm
; first layer extrusion width = 0.59mm

G21 ; set units to millimeters
M107
M104 S235 ; set temperature
G28 ; home all axes
M92 X79.7957; calibrate X
M92 Y79.6685 ; calibrate Y
M92 Z2210.2522 ; calibrate Z
M92 E496.1314 ; calibrate E
M109 S235 ; wait for temperature to be reached
G90 ; use absolute coordinates
G92 E0
M82 ; use absolute distances for extrusion
G1 F1800.000 E-1.00000
G92 E0
G1 Z0.294 F3600.000
G1 X57.713 Y32.282 F3600.000
G1 E1.00000 F1800.000
G1 X58.573 Y31.002 E1.03804 F600.000
G1 X59.683 Y29.932 E1.07608
G1 X61.003 Y29.132 E1.11415
G1 X62.473 Y28.632 E1.15246
G1 X64.003 Y28.472 E1.19041
G1 X66.003 Y28.472 E1.23975
G1 X67.533 Y28.632 E1.27770
G1 X69.003 Y29.132 E1.31600
G1 X70.323 Y29.932 E1.35408
G1 X71.433 Y31.002 E1.39212
G1 X72.293 Y32.282 E1.43016
G1 X93.803 Y73.552 E2.57826
G1 X94.303 Y74.772 E2.61079
G1 X94.563 Y76.072 E2.64349
G1 X94.583 Y77.392 E2.67606
G1 X94.363 Y78.692 E2.70859
G1 X93.893 Y79.932 E2.74130
G1 X93.213 Y81.062 E2.77384
G1 X92.323 Y82.042 E2.80649
G1 X91.283 Y82.842 E2.83886
G1 X90.093 Y83.442 E2.87174
G1 X88.833 Y83.802 E2.90407
G1 X87.513 Y83.922 E2.93677
G1 X42.483 Y83.922 E4.04764
G1 X41.163 Y83.802 E4.08034
G1 X39.893 Y83.442 E4.11290
G1 X38.713 Y82.842 E4.14556
G1 X37.673 Y82.042 E4.17793
G1 X36.783 Y81.062 E4.21059
G1 X36.103 Y79.932 E4.24312
G1 X35.633 Y78.692 E4.27583
G1 X35.413 Y77.392 E4.30836
G1 X35.433 Y76.072 E4.34093
G1 X35.693 Y74.772 E4.37363
G1 X36.193 Y73.552 E4.40616
G1 X57.675 Y32.354 E5.55235
G1 X58.193 Y32.532 F3600.000
G1 X58.993 Y31.352 E5.58752 F600.000
G1 X60.023 Y30.362 E5.62277
G1 X61.233 Y29.632 E5.65763
G1 X62.583 Y29.172 E5.69281
G1 X64.003 Y29.012 E5.72806
G1 X66.003 Y29.012 E5.77740
G1 X67.423 Y29.172 E5.81266
G1 X68.773 Y29.632 E5.84784
G1 X69.983 Y30.362 E5.88270
G1 X71.013 Y31.352 E5.91795
G1 X71.813 Y32.532 E5.95312
G1 X93.323 Y73.802 E7.10122
G1 X93.813 Y75.052 E7.13434
G1 X94.043 Y76.372 E7.16739
G1 X94.003 Y77.712 E7.20047
G1 X93.683 Y79.012 E7.23349
G1 X93.113 Y80.232 E7.26671
G1 X92.303 Y81.292 E7.29962
G1 X91.293 Y82.182 E7.33283
G1 X90.123 Y82.832 E7.36585
G1 X88.843 Y83.242 E7.39901
G1 X87.513 Y83.382 E7.43200
G1 X42.483 Y83.382 E8.54287
G1 X41.153 Y83.242 E8.57587
G1 X39.873 Y82.832 E8.60902
G1 X38.703 Y82.182 E8.64204
G1 X37.693 Y81.292 E8.67525
G1 X36.883 Y80.222 E8.70836
G1 X36.313 Y79.012 E8.74136
G1 X35.993 Y77.712 E8.77438
G1 X35.953 Y76.372 E8.80745
G1 X36.183 Y75.052 E8.84051
G1 X36.673 Y73.802 E8.87363
G1 X58.155 Y32.604 E10.01982
G1 F1800.000 E9.01982
G92 E0
G1 X54.883 Y57.997 F3600.000
G1 E1.00000 F1800.000
G1 X75.117 Y57.997 E1.49915 F600.000
G1 X65.000 Y75.520 E1.99830
G1 X54.924 Y58.068 E2.49542
G1 X55.831 Y58.545 F3600.000
G1 X74.169 Y58.545 E2.94781 F420.000
G1 X65.000 Y74.426 E3.40020
G1 X55.872 Y58.616 E3.85056
G1 X55.736 Y58.006 F3600.000
G1 F1800.000 E2.85056
G92 E0
G1 X70.625 Y66.872 F3600.000
G1 E1.00000 F1800.000
G1 X75.392 Y58.614 E1.23523 F600.000
G1 X85.112 Y75.450 E1.71481
G1 X65.672 Y75.450 E2.19440
G1 X70.584 Y66.943 E2.43673
G1 X74.720 Y57.450 F3600.000
G1 X55.280 Y57.450 E2.91632 F600.000
G1 X65.000 Y40.614 E3.39590
G1 X74.679 Y57.379 E3.87346
G1 F1800.000 E2.87346
G92 E0
G1 X59.640 Y67.331 F3600.000
G1 E1.00000 F1800.000
G1 X64.328 Y75.450 E1.23130 F600.000
G1 X44.888 Y75.450 E1.71088
G1 X54.608 Y58.614 E2.19047
G1 X59.599 Y67.259 E2.43673
G1 X52.901 Y60.476 F3600.000
G1 X65.000 Y39.520 E3.03368 F600.000
G1 X86.060 Y75.997 E4.07278
G1 X43.940 Y75.997 E5.11187
G1 X52.860 Y60.547 E5.55199
G1 X52.427 Y60.203 F3600.000
G1 X65.000 Y38.440 E6.17202 F420.000
G1 X87.008 Y76.545 E7.25757
G1 X42.992 Y76.545 E8.34342
G1 X52.386 Y60.274 E8.80692
G1 X52.974 Y60.203 F3600.000
G1 F1800.000 E7.80692
G92 E0
G1 X64.301 Y37.043 F3600.000
G1 E1.00000 F1800.000
G1 X64.301 Y35.862 E1.02914 F600.000
G1 X65.714 Y35.862 E1.06399
G1 X65.714 Y37.043 E1.09313
G1 X64.383 Y37.043 E1.12595
G1 X64.575 Y36.569 F3600.000
G1 F1800.000 E0.12595
G92 E0
G1 X75.392 Y59.654 F3600.000
G1 E1.00000 F1800.000
G1 X84.212 Y74.930 E1.43538 F600.000
G1 X66.572 Y74.930 E1.87077
G1 X75.351 Y59.725 E2.30413
G1 X75.392 Y60.749 F3600.000
G1 X83.264 Y74.383 E2.69271 F600.000
G1 X67.521 Y74.383 E3.08128
G1 X75.351 Y60.820 E3.46783
G1 X75.392 Y61.844 F3600.000
G1 X82.316 Y73.835 E3.80960 F600.000
G1 X68.469 Y73.835 E4.15137
G1 X75.351 Y61.915 E4.49111
G1 X75.392 Y62.939 F3600.000
G1 X81.367 Y73.288 E4.78607 F600.000
G1 X69.417 Y73.288 E5.08103
G1 X75.351 Y63.010 E5.37396
G1 X75.392 Y64.034 F3600.000
G1 X80.419 Y72.741 E5.62211 F600.000
G1 X70.365 Y72.741 E5.87026
G1 X75.351 Y64.105 E6.11639
G1 X75.392 Y65.129 F3600.000
G1 X79.471 Y72.193 E6.31773 F600.000
G1 X71.314 Y72.193 E6.51907
G1 X75.351 Y65.200 E6.71838
G1 X75.392 Y66.224 F3600.000
G1 X78.523 Y71.646 E6.87292 F600.000
G1 X72.262 Y71.646 E7.02745
G1 X75.351 Y66.295 E7.17996
G1 X75.392 Y67.318 F3600.000
G1 X77.575 Y71.098 E7.28768 F600.000
G1 X73.210 Y71.098 E7.39540
G1 X75.351 Y67.390 E7.50110
G1 X75.392 Y68.413 F3600.000
G1 X76.626 Y70.551 E7.56202 F600.000
G1 X74.158 Y70.551 E7.62293
G1 X75.351 Y68.485 E7.68182
G1 F1800.000 E6.68182
G92 E0
G1 X63.594 Y44.090 F3600.000
G1 E1.00000 F1800.000
G1 X65.000 Y41.654 E1.06942 F600.000
G1 X73.820 Y56.930 E1.50480
G1 X56.180 Y56.930 E1.94019
G1 X63.553 Y44.161 E2.30412
G1 X64.068 Y44.364 F3600.000
G1 X65.000 Y42.749 E2.35014 F600.000
G1 X72.872 Y56.383 E2.73871
G1 X57.128 Y56.383 E3.12729
G1 X64.027 Y44.435 E3.46782
G1 X64.542 Y44.637 F3600.000
G1 X65.000 Y43.844 E3.49043 F600.000
G1 X71.923 Y55.835 E3.83220
G1 X58.077 Y55.835 E4.17396
G1 X64.501 Y44.708 E4.49109
G1 X65.000 Y44.939 F3600.000
G1 X70.975 Y55.288 E4.78605 F600.000
G1 X59.025 Y55.288 E5.08100
G1 X64.959 Y45.010 E5.37394
G1 X65.000 Y46.034 F3600.000
G1 X70.027 Y54.741 E5.62208 F600.000
G1 X59.973 Y54.741 E5.87023
G1 X64.959 Y46.105 E6.11636
G1 X65.000 Y47.129 F3600.000
G1 X69.079 Y54.193 E6.31770 F600.000
G1 X60.921 Y54.193 E6.51904
G1 X64.959 Y47.200 E6.71835
G1 X65.000 Y48.224 F3600.000
G1 X68.130 Y53.646 E6.87288 F600.000
G1 X61.870 Y53.646 E7.02742
G1 X64.959 Y48.295 E7.17992
G1 X65.000 Y49.318 F3600.000
G1 X67.182 Y53.098 E7.28765 F600.000
G1 X62.818 Y53.098 E7.39537
G1 X64.959 Y49.390 E7.50107
G1 X65.000 Y50.413 F3600.000
G1 X66.234 Y52.551 E7.56198 F600.000
G1 X63.766 Y52.551 E7.62290
G1 X64.959 Y50.484 E7.68179
G1 F1800.000 E6.68179
G92 E0
G1 X64.895 Y36.503 F3600.000
G1 E1.00000 F1800.000
G1 X64.844 Y36.452 E1.00177 F600.000
G1 F1800.000 E0.00177
G92 E0
G1 X54.608 Y59.654 F3600.000
G1 E1.00000 F1800.000
G1 X63.427 Y74.930 E1.43538 F600.000
G1 X45.788 Y74.930 E1.87076
G1 X54.567 Y59.725 E2.30412
G1 X54.608 Y60.749 F3600.000
G1 X62.479 Y74.383 E2.69269 F600.000
G1 X46.736 Y74.383 E3.08127
G1 X54.567 Y60.820 E3.46781
G1 X54.608 Y61.844 F3600.000
G1 X61.531 Y73.835 E3.80958 F600.000
G1 X47.684 Y73.835 E4.15134
G1 X54.567 Y61.915 E4.49108
G1 X54.608 Y62.939 F3600.000
G1 X60.583 Y73.288 E4.78604 F600.000
G1 X48.633 Y73.288 E5.08100
G1 X54.567 Y63.010 E5.37393
G1 X54.608 Y64.034 F3600.000
G1 X59.635 Y72.741 E5.62208 F600.000
G1 X49.581 Y72.741 E5.87023
G1 X54.567 Y64.105 E6.11635
G1 X54.608 Y65.129 F3600.000
G1 X58.686 Y72.193 E6.31769 F600.000
G1 X50.529 Y72.193 E6.51903
G1 X54.567 Y65.200 E6.71834
G1 X54.608 Y66.224 F3600.000
G1 X57.738 Y71.646 E6.87288 F600.000
G1 X51.477 Y71.646 E7.02741
G1 X54.567 Y66.295 E7.17991
G1 X54.608 Y67.318 F3600.000
G1 X56.790 Y71.098 E7.28764 F600.000
G1 X52.425 Y71.098 E7.39536
G1 X54.567 Y67.390 E7.50106
G1 X54.608 Y68.413 F3600.000
G1 X55.842 Y70.551 E7.56197 F600.000
G1 X53.374 Y70.551 E7.62289
G1 X54.567 Y68.484 E7.68178
M106 S89
M104 S230 ; set temperature
G1 F1800.000 E6.68178
G92 E0
G1 Z0.587 F3600.000
G1 X60.301 Y66.899 F3600.000
G1 E1.00000 F1800.000
G1 X55.301 Y58.238 E1.18034 F1200
G1 X74.699 Y58.238 E1.53018
G1 X65.000 Y75.038 E1.88002
G1 X60.331 Y66.951 E2.04843
G1 X60.647 Y66.699 F3600.000
G1 X55.993 Y58.638 E2.21627 F840
G1 X74.007 Y58.638 E2.54112
G1 X65.000 Y74.238 E2.86597
G1 X60.677 Y66.751 E3.02189
G1 X60.247 Y66.699 F3600.000
G1 X59.954 Y67.099 F3600.000
G1 X65.000 Y75.838 E3.20388 F1200
G1 X75.392 Y57.838 E3.57871
G1 X54.608 Y57.838 E3.95353
G1 X65.000 Y39.838 E4.32836
G1 X85.785 Y75.838 E5.07802
G1 X44.215 Y75.838 E5.82767
G1 X54.608 Y57.838 E6.20250
G1 X59.924 Y67.047 E6.39425
G1 X51.878 Y61.765 F3600.000
G1 X65.000 Y39.038 E6.86751 F1200
G1 X86.477 Y76.238 E7.64216
G1 X43.523 Y76.238 E8.41680
G1 X51.848 Y61.817 E8.71710
G1 X51.532 Y61.565 F3600.000
G1 X65.000 Y38.248 E9.20271 F840
G1 X87.170 Y76.638 E10.00219
G1 X42.830 Y76.638 E10.80182
G1 X51.502 Y61.617 E11.11461
G1 X51.932 Y61.565 F3600.000
G1 F1800.000 E10.11461
G92 E0
G1 X64.607 Y37.404 F3600.000
G1 E1.00000 F1800.000
M106 S255
G1 X64.607 Y37.337 E1.00131 F1200
M106 S89
G1 X64.607 Y35.568 E1.03320 F1200
M106 S255
G1 X64.607 Y35.500 E1.03451 F1200
G1 X65.407 Y35.500 E1.04995
G1 X65.407 Y35.568 E1.05125
M106 S89
G1 X65.407 Y37.337 E1.08315 F1200
M106 S255
G1 X65.407 Y37.404 E1.08445 F1200
G1 X64.667 Y37.404 E1.09874
M106 S89
G1 X64.207 Y37.380 F3600.000
M106 S255
G1 X64.207 Y37.337 E1.09959 F1200
M106 S89
G1 X64.207 Y35.568 E1.13148 F1200
M106 S255
G1 X64.207 Y35.100 E1.14051 F1200
G1 X65.807 Y35.100 E1.17137
G1 X65.807 Y35.568 E1.18040
M106 S89
G1 X65.807 Y37.337 E1.21229 F1200
M106 S255
G1 X65.807 Y37.804 E1.22131 F1200
G1 X64.207 Y37.804 E1.25218
G1 X64.207 Y37.440 E1.25920
M106 S89
G1 X64.530 Y37.194 F3600.000
G1 X75.392 Y58.431 F3600.000
G1 X75.333 Y58.490 E1.26084 F1200
G1 X74.495 Y59.941 F3600.000
G1 X75.633 Y58.804 E1.29230 F1200
G1 X75.857 Y59.193 E1.30108
G1 X73.657 Y61.393 E1.36193
G1 X72.819 Y62.844 F3600.000
G1 X76.082 Y59.582 E1.45216 F1200
G1 X76.306 Y59.970 E1.46094
G1 X71.981 Y64.296 E1.58055
G1 X71.143 Y65.747 F3600.000
G1 X76.531 Y60.359 E1.72956 F1200
G1 X76.755 Y60.748 E1.73834
G1 X70.305 Y67.198 E1.91672
G1 X69.467 Y68.650 F3600.000
G1 X76.980 Y61.137 E2.12450 F1200
G1 X77.204 Y61.526 E2.13328
G1 X68.629 Y70.101 E2.37043
G1 X67.791 Y71.553 F3600.000
G1 X77.429 Y61.915 E2.63698 F1200
G1 X77.653 Y62.304 E2.64576
G1 X66.953 Y73.004 E2.94169
G1 X66.115 Y74.456 F3600.000
G1 X77.878 Y62.693 E3.26700 F1200
G1 X78.103 Y63.082 E3.27578
G1 X65.620 Y75.564 E3.62099
G1 X66.234 Y75.564 E3.63298
G1 X78.327 Y63.470 E3.96743
G1 X78.552 Y63.859 E3.97621
G1 X66.847 Y75.564 E4.29991
G1 X67.461 Y75.564 E4.31190
G1 X78.776 Y64.248 E4.62484
G1 X79.001 Y64.637 E4.63362
G1 X68.074 Y75.564 E4.93581
G1 X68.687 Y75.564 E4.94780
G1 X79.225 Y65.026 E5.23923
G1 X79.450 Y65.415 E5.24801
G1 X69.301 Y75.564 E5.52869
G1 X69.914 Y75.564 E5.54068
G1 X79.674 Y65.804 E5.81060
G1 X79.899 Y66.193 E5.81938
G1 X70.528 Y75.564 E6.07854
G1 X71.141 Y75.564 E6.09054
G1 X80.123 Y66.582 E6.33895
G1 X80.348 Y66.971 E6.34773
G1 X71.755 Y75.564 E6.58538
G1 X72.368 Y75.564 E6.59738
G1 X80.572 Y67.359 E6.82428
G1 X80.797 Y67.748 E6.83306
G1 X72.981 Y75.564 E7.04920
G1 X73.595 Y75.564 E7.06120
G1 X81.021 Y68.137 E7.26658
G1 X81.246 Y68.526 E7.27536
G1 X74.208 Y75.564 E7.47000
G1 X74.822 Y75.564 E7.48199
G1 X81.470 Y68.915 E7.66587
G1 X81.695 Y69.304 E7.67465
G1 X75.435 Y75.564 E7.84777
G1 X76.049 Y75.564 E7.85977
G1 X81.920 Y69.693 E8.02213
G1 X82.144 Y70.082 E8.03092
G1 X76.662 Y75.564 E8.18253
G1 X77.275 Y75.564 E8.19452
G1 X82.369 Y70.471 E8.33538
G1 X82.593 Y70.859 E8.34416
G1 X77.889 Y75.564 E8.47426
G1 X78.502 Y75.564 E8.48626
G1 X82.818 Y71.248 E8.60560
G1 X83.042 Y71.637 E8.61438
G1 X79.116 Y75.564 E8.72298
G1 X79.729 Y75.564 E8.73497
G1 X83.267 Y72.026 E8.83281
G1 X83.491 Y72.415 E8.84159
G1 X80.342 Y75.564 E8.92867
G1 X80.956 Y75.564 E8.94066
G1 X83.716 Y72.804 E9.01699
G1 X83.940 Y73.193 E9.02577
G1 X81.569 Y75.564 E9.09134
G1 X82.183 Y75.564 E9.10334
G1 X84.165 Y73.582 E9.15815
G1 X84.389 Y73.971 E9.16693
G1 X82.796 Y75.564 E9.21099
G1 X83.410 Y75.564 E9.22299
G1 X84.614 Y74.359 E9.25629
G1 X84.838 Y74.748 E9.26507
G1 X84.023 Y75.564 E9.28762
G1 X84.636 Y75.564 E9.29962
G1 X85.063 Y75.137 E9.31141
G1 X85.250 Y75.564 E9.32052
G1 X85.287 Y75.526 E9.32156
G1 X74.895 Y57.526 F3600.000
G1 X74.858 Y57.564 E9.32260 F1200
G1 X74.671 Y57.137 E9.33170
G1 X74.244 Y57.564 E9.34350
G1 X73.631 Y57.564 E9.35549
G1 X74.446 Y56.748 E9.37804
G1 X74.222 Y56.359 E9.38682
G1 X73.017 Y57.564 E9.42013
G1 X72.404 Y57.564 E9.43212
G1 X73.997 Y55.971 E9.47618
G1 X73.772 Y55.582 E9.48496
G1 X71.790 Y57.564 E9.53978
G1 X71.177 Y57.564 E9.55178
G1 X73.548 Y55.193 E9.61734
G1 X73.323 Y54.804 E9.62613
G1 X70.564 Y57.564 E9.70245
G1 X69.950 Y57.564 E9.71445
G1 X73.099 Y54.415 E9.80153
G1 X72.874 Y54.026 E9.81031
G1 X69.337 Y57.564 E9.90814
G1 X68.723 Y57.564 E9.92014
G1 X72.650 Y53.637 E10.02873
G1 X72.425 Y53.248 E10.03751
G1 X68.110 Y57.564 E10.15686
G1 X67.496 Y57.564 E10.16885
G1 X72.201 Y52.859 E10.29895
G1 X71.976 Y52.471 E10.30773
G1 X66.883 Y57.564 E10.44859
G1 X66.270 Y57.564 E10.46059
G1 X71.752 Y52.082 E10.61220
G1 X71.527 Y51.693 E10.62098
G1 X65.656 Y57.564 E10.78334
G1 X65.043 Y57.564 E10.79534
G1 X71.303 Y51.304 E10.96846
G1 X71.078 Y50.915 E10.97724
G1 X64.429 Y57.564 E11.16112
G1 X63.816 Y57.564 E11.17312
G1 X70.854 Y50.526 E11.36775
G1 X70.629 Y50.137 E11.37653
G1 X63.203 Y57.564 E11.58191
G1 X62.589 Y57.564 E11.59391
G1 X70.405 Y49.748 E11.81005
G1 X70.180 Y49.359 E11.81883
G1 X61.976 Y57.564 E12.04573
G1 X61.362 Y57.564 E12.05773
G1 X69.955 Y48.971 E12.29538
G1 X69.731 Y48.582 E12.30416
G1 X60.749 Y57.564 E12.55257
G1 X60.135 Y57.564 E12.56456
G1 X69.506 Y48.193 E12.82373
G1 X69.282 Y47.804 E12.83251
G1 X59.522 Y57.564 E13.10242
G1 X58.909 Y57.564 E13.11442
G1 X69.057 Y47.415 E13.39509
G1 X68.833 Y47.026 E13.40387
G1 X58.295 Y57.564 E13.69530
G1 X57.682 Y57.564 E13.70730
G1 X68.608 Y46.637 E14.00948
G1 X68.384 Y46.248 E14.01826
G1 X57.068 Y57.564 E14.33120
G1 X56.455 Y57.564 E14.34320
G1 X68.159 Y45.859 E14.66689
G1 X67.935 Y45.471 E14.67567
G1 X55.842 Y57.564 E15.01012
G1 X55.228 Y57.564 E15.02211
G1 X67.710 Y45.082 E15.36732
G1 X67.486 Y44.693 E15.37610
G1 X55.723 Y56.455 E15.70140
G1 X56.561 Y55.004 F3600.000
G1 X67.261 Y44.304 E15.99731 F1200
G1 X67.037 Y43.915 E16.00609
G1 X57.399 Y53.552 E16.27262
G1 X58.237 Y52.101 F3600.000
G1 X66.812 Y43.526 E16.50977 F1200
G1 X66.588 Y43.137 E16.51855
G1 X59.075 Y50.650 E16.72631
G1 X59.913 Y49.198 F3600.000
G1 X66.363 Y42.748 E16.90469 F1200
G1 X66.139 Y42.359 E16.91347
G1 X60.751 Y47.747 E17.06247
G1 X61.589 Y46.295 F3600.000
G1 X65.914 Y41.970 E17.18208 F1200
G1 X65.689 Y41.582 E17.19086
G1 X62.427 Y44.844 E17.28109
G1 X63.265 Y43.393 F3600.000
G1 X65.465 Y41.193 E17.34194 F1200
G1 X65.240 Y40.804 E17.35072
G1 X64.103 Y41.941 E17.38218
G1 X64.941 Y40.490 F3600.000
G1 X65.000 Y40.431 E17.38382 F1200
G1 X54.608 Y58.431 F3600.000
G1 X54.548 Y58.490 E17.38546 F1200
G1 X53.711 Y59.941 F3600.000
G1 X54.848 Y58.804 E17.41692 F1200
G1 X55.073 Y59.193 E17.42570
G1 X52.873 Y61.393 E17.48654
G1 X52.035 Y62.844 F3600.000
G1 X55.297 Y59.582 E17.57677 F1200
G1 X55.522 Y59.970 E17.58555
G1 X51.197 Y64.295 E17.70516
G1 X50.359 Y65.747 F3600.000
G1 X55.746 Y60.359 E17.85416 F1200
G1 X55.971 Y60.748 E17.86294
G1 X49.521 Y67.198 E18.04132
G1 X48.683 Y68.650 F3600.000
G1 X56.195 Y61.137 E18.24908 F1200
G1 X56.420 Y61.526 E18.25786
G1 X47.845 Y70.101 E18.49500
G1 X47.007 Y71.552 F3600.000
G1 X56.644 Y61.915 E18.76153 F1200
G1 X56.869 Y62.304 E18.77031
G1 X46.169 Y73.004 E19.06622
G1 X45.331 Y74.455 F3600.000
G1 X57.093 Y62.693 E19.39152 F1200
G1 X57.318 Y63.082 E19.40030
G1 X44.836 Y75.564 E19.74550
G1 X45.449 Y75.564 E19.75750
G1 X57.542 Y63.471 E20.09195
G1 X57.767 Y63.859 E20.10073
G1 X46.063 Y75.564 E20.42442
G1 X46.676 Y75.564 E20.43642
G1 X57.991 Y64.248 E20.74935
G1 X58.216 Y64.637 E20.75813
