; generated by Slic3r 0.9.8 on 2013-03-15 at 19:05:52

; layer_height = 0.2
; perimeters = 3
; top_solid_layers = 3
; bottom_solid_layers = 3
; fill_density = 0.3
; perimeter_speed = 15
; infill_speed = 30
; travel_speed = 65
; scale = 1
; nozzle_diameter = 0.5
; filament_diameter = 3
; extrusion_multiplier = 1
; perimeters extrusion width = 0.80mm
; infill extrusion width = 0.80mm
; first layer extrusion width = 0.40mm

M107
M190 S70 ; wait for bed temperature to be reached
M104 S230 ; set temperature
G28 ; home all axes
M92 X63.0159 ; calibrate X
M92 Y62.8937 ; calibrate Y
M92 Z2387.0719 ; calibrate Z
M92 E569 ; calibrate E
M109 S230 ; wait for temperature to be reached
G90 ; use absolute coordinates
G21 ; set units to millimeters
G92 E0
M82 ; use absolute distances for extrusion
G1 F1800.000 E-1.00000
G92 E0
G1 Z0.200 F3900.000
G1 X42.420 Y10.972
G1 F1800.000 E1.00000
G1 X87.570 Y10.972 F360.000 E1.53841
G1 X88.100 Y11.022 E1.54476
G1 X88.630 Y11.112 E1.55117
G1 X92.170 Y11.862 E1.59432
G1 X92.690 Y11.992 E1.60071
G1 X93.450 Y12.272 E1.61037
G1 X96.750 Y13.742 E1.65345
G1 X97.230 Y13.982 E1.65985
G1 X97.690 Y14.262 E1.66627
G1 X101.050 Y16.692 E1.71572
G1 X101.260 Y16.862 E1.71894
G1 X101.660 Y17.242 E1.72552
G1 X104.440 Y20.332 E1.77508
G1 X104.760 Y20.752 E1.78138
G1 X105.050 Y21.212 E1.78787
G1 X106.990 Y24.572 E1.83413
G1 X107.220 Y25.062 E1.84059
G1 X107.410 Y25.562 E1.84697
G1 X108.530 Y29.002 E1.89011
G1 X108.730 Y29.792 E1.89982
G1 X108.810 Y30.332 E1.90633
G1 X109.180 Y33.932 E1.94949
G1 X109.210 Y34.592 E1.95737
G1 X109.210 Y75.402 E2.44402
G1 X109.180 Y76.062 E2.45190
G1 X108.810 Y79.652 E2.49494
G1 X108.730 Y80.192 E2.50145
G1 X108.670 Y80.452 E2.50463
G1 X108.530 Y80.982 E2.51117
G1 X107.410 Y84.422 E2.55431
G1 X107.220 Y84.922 E2.56069
G1 X106.860 Y85.642 E2.57029
G1 X105.050 Y88.782 E2.61351
G1 X104.760 Y89.242 E2.61999
G1 X104.260 Y89.872 E2.62958
G1 X101.840 Y92.552 E2.67264
G1 X101.260 Y93.112 E2.68226
G1 X100.850 Y93.442 E2.68853
G1 X97.920 Y95.572 E2.73173
G1 X97.470 Y95.872 E2.73818
G1 X96.750 Y96.252 E2.74789
G1 X93.450 Y97.722 E2.79097
G1 X92.690 Y98.002 E2.80062
G1 X92.170 Y98.132 E2.80702
G1 X88.630 Y98.882 E2.85017
G1 X87.840 Y99.002 E2.85970
G1 X87.570 Y99.022 E2.86292
G1 X42.420 Y99.022 E3.40133
G1 X41.890 Y98.972 E3.40768
G1 X41.360 Y98.882 E3.41409
G1 X37.560 Y98.072 E3.46042
G1 X37.300 Y98.002 E3.46364
G1 X36.540 Y97.722 E3.47329
G1 X33.240 Y96.252 E3.51637
G1 X32.760 Y96.012 E3.52277
G1 X32.070 Y95.572 E3.53253
G1 X29.140 Y93.442 E3.57573
G1 X28.730 Y93.112 E3.58201
G1 X28.150 Y92.552 E3.59162
G1 X25.730 Y89.872 E3.63468
G1 X25.390 Y89.462 E3.64103
G1 X24.940 Y88.782 E3.65075
G1 X23.000 Y85.402 E3.69723
G1 X22.770 Y84.922 E3.70358
G1 X22.580 Y84.422 E3.70995
G1 X21.460 Y80.982 E3.75309
G1 X21.260 Y80.192 E3.76281
G1 X21.180 Y79.652 E3.76932
G1 X20.810 Y76.062 E3.81236
G1 X20.780 Y75.402 E3.82024
G1 X20.780 Y34.592 E4.30689
G1 X20.810 Y33.932 E4.31477
G1 X21.180 Y30.332 E4.35793
G1 X21.260 Y29.792 E4.36444
G1 X21.390 Y29.262 E4.37094
G1 X21.460 Y29.002 E4.37415
G1 X22.580 Y25.562 E4.41730
G1 X22.880 Y24.812 E4.42693
G1 X23.130 Y24.342 E4.43328
G1 X24.940 Y21.212 E4.47639
G1 X25.230 Y20.752 E4.48288
G1 X25.550 Y20.332 E4.48917
G1 X28.330 Y17.242 E4.53874
G1 X28.730 Y16.862 E4.54532
G1 X29.160 Y16.532 E4.55178
G1 X32.090 Y14.412 E4.59491
G1 X32.530 Y14.112 E4.60126
G1 X33.240 Y13.742 E4.61081
G1 X36.540 Y12.272 E4.65389
G1 X37.300 Y11.992 E4.66355
G1 X37.820 Y11.862 E4.66994
G1 X41.360 Y11.112 E4.71309
G1 X41.890 Y11.022 E4.71950
G1 X42.357 Y10.976 E4.72509
G1 X42.420 Y10.972 E4.72585
G1 F1800.000 E3.72585
G92 E0
G1 X33.492 Y87.630 F3900.000
G1 F1800.000 E1.00000
G1 X31.191 Y85.074 F360.000 E1.04101
G1 X29.471 Y82.095 E1.08202
G1 X28.408 Y78.825 E1.12304
G1 X28.049 Y75.404 E1.16405
G1 X28.408 Y71.984 E1.20506
G1 X29.471 Y68.713 E1.24608
G1 X31.191 Y65.734 E1.28709
G1 X33.492 Y63.178 E1.32810
G1 X36.274 Y61.157 E1.36911
G1 X39.416 Y59.758 E1.41013
G1 X42.780 Y59.043 E1.45114
G1 X46.220 Y59.043 E1.49215
G1 X49.584 Y59.758 E1.53317
G1 X52.726 Y61.157 E1.57418
G1 X55.508 Y63.178 E1.61519
G1 X57.809 Y65.734 E1.65620
G1 X59.529 Y68.713 E1.69722
G1 X60.592 Y71.984 E1.73823
G1 X60.951 Y75.404 E1.77924
G1 X60.592 Y78.825 E1.82026
G1 X59.529 Y82.095 E1.86127
G1 X57.809 Y85.074 E1.90228
G1 X55.508 Y87.630 E1.94329
G1 X52.726 Y89.651 E1.98431
G1 X49.584 Y91.050 E2.02532
G1 X46.220 Y91.765 E2.06633
G1 X42.780 Y91.765 E2.10735
G1 X39.416 Y91.050 E2.14836
G1 X36.274 Y89.651 E2.18937
G1 X33.543 Y87.667 E2.22963
G1 X33.492 Y87.630 E2.23038
G1 X33.170 Y87.903 F3900.000
G1 X30.848 Y85.323 F360.000 E2.27178
G1 X29.084 Y82.268 E2.31385
G1 X27.994 Y78.913 E2.35592
G1 X27.625 Y75.404 E2.39799
G1 X27.994 Y71.896 E2.44005
G1 X29.084 Y68.540 E2.48212
G1 X30.848 Y65.485 E2.52419
G1 X33.208 Y62.863 E2.56626
G1 X36.062 Y60.790 E2.60833
G1 X39.234 Y59.378 E2.64973
G1 X42.736 Y58.621 E2.69246
G1 X46.264 Y58.621 E2.73453
G1 X49.715 Y59.355 E2.77659
G1 X52.938 Y60.790 E2.81866
G1 X55.792 Y62.863 E2.86073
G1 X58.152 Y65.485 E2.90280
G1 X59.916 Y68.540 E2.94487
G1 X61.006 Y71.896 E2.98694
G1 X61.375 Y75.404 E3.02901
G1 X61.006 Y78.913 E3.07108
G1 X59.916 Y82.268 E3.11315
G1 X58.152 Y85.323 E3.15522
G1 X55.792 Y87.945 E3.19729
G1 X52.938 Y90.018 E3.23936
G1 X49.715 Y91.453 E3.28143
G1 X46.264 Y92.187 E3.32349
G1 X42.736 Y92.187 E3.36556
G1 X39.285 Y91.453 E3.40763
G1 X36.062 Y90.018 E3.44970
G1 X33.214 Y87.949 E3.49169
G1 X33.170 Y87.903 E3.49245
G1 X32.857 Y88.185 F3900.000
G1 X30.505 Y85.572 F360.000 E3.53437
G1 X28.697 Y82.440 E3.57749
G1 X27.579 Y79.001 E3.62062
G1 X27.201 Y75.404 E3.66375
G1 X27.579 Y71.807 E3.70687
G1 X28.697 Y68.368 E3.75000
G1 X30.505 Y65.236 E3.79312
G1 X32.925 Y62.549 E3.83625
G1 X35.851 Y60.423 E3.87937
G1 X39.154 Y58.952 E3.92250
G1 X42.692 Y58.200 E3.96563
G1 X46.308 Y58.200 E4.00875
G1 X49.846 Y58.952 E4.05188
G1 X53.149 Y60.423 E4.09500
G1 X56.075 Y62.549 E4.13813
G1 X58.428 Y65.161 E4.18005
G1 X58.495 Y65.236 E4.18125
G1 X60.303 Y68.368 E4.22438
G1 X61.421 Y71.807 E4.26751
G1 X61.799 Y75.404 E4.31063
G1 X61.421 Y79.001 E4.35376
G1 X60.303 Y82.440 E4.39688
G1 X58.495 Y85.572 E4.44001
G1 X56.075 Y88.260 E4.48313
G1 X53.149 Y90.385 E4.52626
G1 X49.846 Y91.856 E4.56939
G1 X46.308 Y92.608 E4.61251
G1 X42.692 Y92.608 E4.65564
G1 X39.154 Y91.856 E4.69876
G1 X35.851 Y90.385 E4.74189
G1 X32.900 Y88.232 E4.78546
G1 X32.857 Y88.185 E4.78621
G1 X32.960 Y87.776 F3900.000
G1 X33.456 Y87.048
G1 X39.938 Y90.790 F720.000 E4.87554
G1 X41.273 Y91.074 E4.89182
G1 X32.543 Y86.033 E5.01213
G1 X31.629 Y85.019 E5.02842
G1 X42.608 Y91.358 E5.17971
G1 X43.592 Y91.439 E5.19149
G1 X31.068 Y84.208 E5.36408
G1 X30.646 Y83.477 E5.37414
G1 X44.436 Y91.439 E5.56417
G1 X45.279 Y91.439 E5.57423
G1 X30.224 Y82.747 E5.78169
G1 X29.802 Y82.016 E5.79176
G1 X46.123 Y91.439 E6.01665
G1 X46.798 Y91.341 E6.02479
G1 X29.549 Y81.383 E6.26248
G1 X29.354 Y80.783 E6.27000
G1 X47.414 Y91.210 E6.51886
G1 X48.031 Y91.079 E6.52639
G1 X29.159 Y80.184 E6.78643
G1 X28.965 Y79.585 E6.79396
G1 X48.647 Y90.948 E7.06518
G1 X49.264 Y90.817 E7.07271
G1 X28.770 Y78.985 E7.35512
G1 X28.635 Y78.420 E7.36205
G1 X49.821 Y90.652 E7.65398
G1 X50.297 Y90.440 E7.66020
G1 X28.581 Y77.902 E7.95945
G1 X28.526 Y77.383 E7.96568
G1 X50.773 Y90.227 E8.27224
G1 X51.249 Y90.015 E8.27846
G1 X28.472 Y76.865 E8.59234
G1 X28.417 Y76.346 E8.59856
G1 X51.726 Y89.803 E8.91975
G1 X52.202 Y89.591 E8.92598
G1 X28.363 Y75.828 E9.25448
G1 X28.308 Y75.309 E9.26070
G1 X52.678 Y89.379 E9.59652
G1 X53.052 Y89.108 E9.60203
G1 X28.356 Y74.850 E9.94233
G1 X28.405 Y74.391 E9.94784
G1 X53.425 Y88.836 E10.29263
G1 X53.799 Y88.565 E10.29814
G1 X28.453 Y73.932 E10.64740
G1 X28.501 Y73.473 E10.65291
G1 X54.172 Y88.294 E11.00666
G1 X54.546 Y88.022 E11.01217
G1 X28.549 Y73.013 E11.37040
G1 X28.598 Y72.554 E11.37591
G1 X54.919 Y87.751 E11.73862
G1 X55.293 Y87.480 E11.74413
G1 X28.646 Y72.095 E12.11132
G1 X28.757 Y71.672 E12.11654
G1 X55.603 Y87.172 E12.48648
G1 X55.892 Y86.851 E12.49162
G1 X28.890 Y71.262 E12.86370
G1 X29.024 Y70.852 E12.86884
G1 X56.180 Y86.531 E13.24306
G1 X56.469 Y86.210 E13.24821
G1 X29.157 Y70.442 E13.62456
G1 X29.290 Y70.032 E13.62971
G1 X56.757 Y85.890 E14.00820
G1 X57.046 Y85.570 E14.01335
G1 X29.424 Y69.622 E14.39398
G1 X29.557 Y69.212 E14.39913
G1 X57.334 Y85.249 E14.78190
G1 X57.623 Y84.929 E14.78705
G1 X29.690 Y68.802 E15.17196
G1 X29.899 Y68.435 E15.17700
G1 X57.836 Y84.565 E15.56197
G1 X58.047 Y84.199 E15.56700
G1 X30.110 Y68.070 E15.95197
G1 X30.321 Y67.705 E15.95700
G1 X58.258 Y83.834 E16.34197
G1 X58.468 Y83.469 E16.34701
G1 X30.532 Y67.339 E16.73198
G1 X30.742 Y66.974 E16.73701
G1 X58.679 Y83.103 E17.12198
G1 X58.890 Y82.738 E17.12702
G1 X30.953 Y66.609 E17.51199
G1 X31.164 Y66.244 E17.51702
G1 X59.101 Y82.373 E17.90199
G1 X59.310 Y82.007 E17.90703
G1 X31.377 Y65.880 E18.29194
G1 X31.666 Y65.559 E18.29708
G1 X59.443 Y81.596 E18.67986
G1 X59.576 Y81.186 E18.68501
G1 X31.954 Y65.239 E19.06564
G1 X32.243 Y64.918 E19.07078
G1 X59.710 Y80.776 E19.44928
G1 X59.843 Y80.366 E19.45443
G1 X32.531 Y64.598 E19.83078
G1 X32.820 Y64.277 E19.83593
G1 X59.976 Y79.956 E20.21014
G1 X60.109 Y79.546 E20.21529
G1 X33.108 Y63.957 E20.58736
G1 X33.397 Y63.636 E20.59251
G1 X60.243 Y79.136 E20.96245
G1 X60.354 Y78.713 E20.96766
G1 X33.707 Y63.329 E21.33486
G1 X34.081 Y63.057 E21.34037
G1 X60.402 Y78.254 E21.70308
G1 X60.451 Y77.795 E21.70859
G1 X34.454 Y62.786 E22.06682
G1 X34.828 Y62.514 E22.07233
G1 X60.499 Y77.336 E22.42607
G1 X60.547 Y76.877 E22.43158
G1 X35.201 Y62.243 E22.78085
G1 X35.575 Y61.972 E22.78636
G1 X60.595 Y76.417 E23.13114
G1 X60.644 Y75.958 E23.13665
G1 X35.948 Y61.700 E23.47695
G1 X36.322 Y61.429 E23.48246
G1 X60.692 Y75.499 E23.81828
G1 X60.637 Y74.981 E23.82450
G1 X36.798 Y61.217 E24.15301
G1 X37.274 Y61.005 E24.15923
G1 X60.583 Y74.462 E24.48042
G1 X60.528 Y73.944 E24.48664
G1 X37.751 Y60.793 E24.80052
G1 X38.227 Y60.581 E24.80675
G1 X60.474 Y73.425 E25.11331
G1 X60.419 Y72.907 E25.11953
G1 X38.703 Y60.369 E25.41878
G1 X39.179 Y60.157 E25.42500
G1 X60.365 Y72.388 E25.71694
G1 X60.230 Y71.823 E25.72387
G1 X39.736 Y59.991 E26.00628
G1 X40.353 Y59.860 E26.01380
G1 X60.035 Y71.224 E26.28503
G1 X59.840 Y70.624 E26.29255
G1 X40.969 Y59.729 E26.55260
G1 X41.586 Y59.598 E26.56012
G1 X59.646 Y70.025 E26.80898
G1 X59.451 Y69.425 E26.81650
G1 X42.202 Y59.467 E27.05419
G1 X42.877 Y59.369 E27.06233
G1 X59.198 Y68.792 E27.28722
G1 X58.776 Y68.061 E27.29729
G1 X43.721 Y59.369 E27.50475
G1 X44.564 Y59.370 E27.51482
G1 X58.354 Y67.331 E27.70484
G1 X57.932 Y66.600 E27.71491
G1 X45.408 Y59.369 E27.88749
G1 X46.392 Y59.450 E27.89927
G1 X57.371 Y65.789 E28.05056
G1 X56.457 Y64.775 E28.06685
G1 X47.727 Y59.734 E28.18715
G1 X49.062 Y60.018 E28.20344
G1 X55.544 Y63.760 E28.29277
G1 F1800.000 E27.29277
G92 E0
G1 X52.679 Y61.619 F3900.000
G1 F1800.000 E1.00000
G1 X52.349 Y61.429 F720.000 E1.00455
G1 F1800.000 E0.00455
G92 E0
G1 X36.321 Y89.189 F3900.000
G1 F1800.000 E1.00000
G1 X36.651 Y89.380 F720.000 E1.00455
G1 F1800.000 E0.00455
G92 E0
G1 X46.220 Y18.235 F3900.000
G1 F1800.000 E1.00000
G1 X49.584 Y18.950 F360.000 E1.04101
G1 X52.726 Y20.349 E1.08203
G1 X55.508 Y22.370 E1.12304
G1 X57.809 Y24.926 E1.16405
G1 X59.529 Y27.905 E1.20506
G1 X60.592 Y31.175 E1.24608
G1 X60.951 Y34.596 E1.28709
G1 X60.592 Y38.016 E1.32810
G1 X59.529 Y41.287 E1.36912
G1 X57.809 Y44.266 E1.41013
G1 X55.508 Y46.822 E1.45114
G1 X52.726 Y48.843 E1.49215
G1 X49.584 Y50.242 E1.53317
G1 X46.220 Y50.957 E1.57418
G1 X42.780 Y50.957 E1.61519
G1 X39.416 Y50.242 E1.65620
G1 X36.274 Y48.843 E1.69722
G1 X33.492 Y46.822 E1.73823
G1 X31.191 Y44.266 E1.77924
G1 X29.471 Y41.287 E1.82026
G1 X28.408 Y38.016 E1.86127
G1 X28.049 Y34.596 E1.90228
G1 X28.408 Y31.175 E1.94329
G1 X29.471 Y27.905 E1.98431
G1 X31.191 Y24.926 E2.02532
G1 X33.492 Y22.370 E2.06633
G1 X36.274 Y20.349 E2.10735
G1 X39.416 Y18.950 E2.14836
G1 X42.780 Y18.235 E2.18937
G1 X46.156 Y18.235 E2.22963
G1 X46.220 Y18.235 E2.23038
G1 X46.264 Y17.813 F3900.000
G1 X49.715 Y18.547 F360.000 E2.27245
G1 X52.938 Y19.982 E2.31452
G1 X55.792 Y22.055 E2.35659
G1 X58.152 Y24.677 E2.39866
G1 X59.916 Y27.732 E2.44073
G1 X61.006 Y31.087 E2.48280
G1 X61.375 Y34.596 E2.52487
G1 X61.006 Y38.104 E2.56694
G1 X59.916 Y41.460 E2.60901
G1 X58.152 Y44.515 E2.65108
G1 X55.792 Y47.137 E2.69315
G1 X52.938 Y49.210 E2.73522
G1 X49.715 Y50.645 E2.77728
G1 X46.264 Y51.379 E2.81935
G1 X42.736 Y51.379 E2.86142
G1 X39.285 Y50.645 E2.90349
G1 X36.062 Y49.210 E2.94556
G1 X33.208 Y47.137 E2.98763
G1 X30.848 Y44.515 E3.02970
G1 X29.084 Y41.460 E3.07177
G1 X27.994 Y38.104 E3.11384
G1 X27.625 Y34.596 E3.15591
G1 X27.994 Y31.087 E3.19798
G1 X29.084 Y27.732 E3.24005
G1 X30.848 Y24.677 E3.28212
G1 X33.208 Y22.055 E3.32418
G1 X36.062 Y19.982 E3.36625
G1 X39.285 Y18.547 E3.40832
G1 X42.736 Y17.813 E3.45039
G1 X46.201 Y17.813 E3.49171
G1 X46.264 Y17.813 E3.49246
G1 X46.308 Y17.392 F3900.000
G1 X49.846 Y18.144 F360.000 E3.53559
G1 X53.149 Y19.615 E3.57871
G1 X56.075 Y21.740 E3.62184
G1 X58.495 Y24.428 E3.66497
G1 X60.303 Y27.560 E3.70809
G1 X61.421 Y30.999 E3.75122
G1 X61.799 Y34.596 E3.79434
G1 X61.421 Y38.193 E3.83747
G1 X60.303 Y41.632 E3.88059
G1 X58.495 Y44.764 E3.92372
G1 X56.075 Y47.451 E3.96685
G1 X53.149 Y49.577 E4.00997
G1 X49.846 Y51.048 E4.05310
G1 X46.308 Y51.800 E4.09622
G1 X42.692 Y51.800 E4.13935
G1 X39.154 Y51.048 E4.18247
G1 X35.851 Y49.577 E4.22560
G1 X32.925 Y47.451 E4.26873
G1 X30.505 Y44.764 E4.31185
G1 X28.697 Y41.632 E4.35498
G1 X27.579 Y38.193 E4.39810
G1 X27.201 Y34.596 E4.44123
G1 X27.579 Y30.999 E4.48435
G1 X28.697 Y27.560 E4.52748
G1 X30.505 Y24.428 E4.57061
G1 X32.925 Y21.740 E4.61373
G1 X35.851 Y19.615 E4.65686
G1 X39.154 Y18.144 E4.69998
G1 X42.692 Y17.392 E4.74311
G1 X46.245 Y17.392 E4.78548
G1 X46.308 Y17.392 E4.78624
G1 X46.466 Y17.783 F3900.000
G1 F1800.000 E3.78624
G92 E0
G1 X52.349 Y20.620 F3900.000
G1 F1800.000 E1.00000
G1 X52.679 Y20.811 F720.000 E1.00455
G1 F1800.000 E0.00455
G92 E0
G1 X55.544 Y22.952 F3900.000
G1 F1800.000 E1.00000
G1 X49.062 Y19.210 F720.000 E1.08933
G1 X47.727 Y18.926 E1.10561
G1 X56.457 Y23.966 E1.22592
G1 X57.371 Y24.981 E1.24221
G1 X46.392 Y18.642 E1.39350
G1 X45.408 Y18.561 E1.40528
G1 X57.932 Y25.792 E1.57786
G1 X58.354 Y26.523 E1.58793
G1 X44.564 Y18.561 E1.77795
G1 X43.721 Y18.561 E1.78802
G1 X58.776 Y27.253 E1.99548
G1 X59.198 Y27.984 E2.00554
G1 X42.877 Y18.561 E2.23044
G1 X42.202 Y18.659 E2.23858
G1 X59.451 Y28.617 E2.47626
G1 X59.646 Y29.217 E2.48378
G1 X41.586 Y18.790 E2.73265
G1 X40.969 Y18.921 E2.74017
G1 X59.840 Y29.816 E3.00022
G1 X60.035 Y30.415 E3.00774
G1 X40.353 Y19.052 E3.27897
G1 X39.736 Y19.183 E3.28649
G1 X60.230 Y31.015 E3.56890
G1 X60.365 Y31.580 E3.57583
G1 X39.179 Y19.348 E3.86776
G1 X38.703 Y19.560 E3.87399
G1 X60.419 Y32.098 E4.17324
G1 X60.474 Y32.617 E4.17946
G1 X38.227 Y19.773 E4.48602
G1 X37.751 Y19.985 E4.49224
G1 X60.528 Y33.135 E4.80612
G1 X60.583 Y33.654 E4.81234
G1 X37.274 Y20.197 E5.13354
G1 X36.798 Y20.409 E5.13976
G1 X60.637 Y34.172 E5.46826
G1 X60.692 Y34.691 E5.47448
G1 X36.322 Y20.621 E5.81030
G1 X35.948 Y20.892 E5.81581
G1 X60.644 Y35.150 E6.15611
G1 X60.595 Y35.609 E6.16162
G1 X35.575 Y21.164 E6.50641
G1 X35.201 Y21.435 E6.51192
G1 X60.547 Y36.068 E6.86118
G1 X60.499 Y36.527 E6.86669
G1 X34.828 Y21.706 E7.22044
G1 X34.454 Y21.978 E7.22595
G1 X60.451 Y36.987 E7.58418
G1 X60.402 Y37.446 E7.58969
G1 X34.081 Y22.249 E7.95240
G1 X33.707 Y22.520 E7.95791
G1 X60.354 Y37.905 E8.32510
G1 X60.243 Y38.328 E8.33032
G1 X33.397 Y22.828 E8.70026
G1 X33.108 Y23.149 E8.70540
G1 X60.109 Y38.738 E9.07748
G1 X59.976 Y39.148 E9.08262
G1 X32.820 Y23.469 E9.45684
G1 X32.531 Y23.790 E9.46199
G1 X59.843 Y39.558 E9.83834
G1 X59.710 Y39.968 E9.84349
G1 X32.243 Y24.110 E10.22198
G1 X31.954 Y24.430 E10.22713
G1 X59.576 Y40.378 E10.60776
G1 X59.443 Y40.788 E10.61291
G1 X31.666 Y24.751 E10.99568
G1 X31.377 Y25.071 E11.00083
G1 X59.310 Y41.198 E11.38574
G1 X59.101 Y41.565 E11.39078
G1 X31.164 Y25.435 E11.77575
G1 X30.953 Y25.801 E11.78078
G1 X58.890 Y41.930 E12.16575
G1 X58.679 Y42.295 E12.17078
