; generated by Slic3r 0.9.9 on 2013-05-29 at 19:04:46

; layer_height = 0.35
; perimeters = 2
; top_solid_layers = 2
; bottom_solid_layers = 2
; fill_density = 0
; perimeter_speed = 40
; infill_speed = 55
; travel_speed = 130
; nozzle_diameter = 0.4
; filament_diameter = 3.1
; extrusion_multiplier = 1
; perimeters extrusion width = 0.42mm
; infill extrusion width = 0.42mm
; solid infill extrusion width = 0.42mm
; top infill extrusion width = 0.42mm
; first layer extrusion width = 0.70mm

G21 ; set units to millimeters
M107
M104 S185 ; set temperature
G28 ; home all axes
M92 X83.0055 ; calibrate X
M92 Y82.8824 ; calibrate Y
M92 Z1543.1410 ; calibrate Z
M92 E569 ; calibrate E
M109 S185 ; wait for temperature to be reached
G90 ; use absolute coordinates
G92 E0
M82 ; use absolute distances for extrusion
G1 F1800.000 E-1.00000
G92 E0
G1 Z0.350 F7800.000
G1 X29.958 Y19.898
G1 F1800.000 E1.00000
G1 X40.078 Y2.788 F1200.000 E1.58592
G1 X40.407 Y2.268 E1.60408
G1 X40.778 Y1.778 E1.62218
G1 X41.178 Y1.318 E1.64014
G1 X41.617 Y0.888 E1.65828
G1 X42.328 Y0.308 E1.68530
G1 X42.838 Y-0.032 E1.70337
G1 X43.638 Y-0.472 E1.73028
G1 X44.488 Y-0.822 E1.75737
G1 X45.078 Y-1.002 E1.77555
G1 X45.978 Y-1.182 E1.80261
G1 X46.888 Y-1.272 E1.82956
G1 X83.148 Y-1.242 E2.89832
G1 X83.447 Y-1.222 E2.90718
G1 X84.058 Y-1.152 E2.92528
G1 X84.657 Y-1.042 E2.94326
G1 X85.248 Y-0.882 E2.96128
G1 X85.828 Y-0.682 E2.97936
G1 X86.667 Y-0.302 E3.00653
G1 X87.458 Y0.168 E3.03363
G1 X87.947 Y0.528 E3.05155
G1 X88.188 Y0.728 E3.06076
G1 X88.417 Y0.928 E3.06974
G1 X88.847 Y1.358 E3.08766
G1 X89.257 Y1.818 E3.10583
G1 X89.438 Y2.058 E3.11467
G1 X89.947 Y2.828 E3.14189
G1 X100.188 Y20.188 E3.73596
G1 X100.468 Y20.708 E3.75337
G1 X100.867 Y21.558 E3.78106
G1 X101.108 Y22.158 E3.80010
G1 X101.338 Y22.818 E3.82071
G1 X101.517 Y23.408 E3.83889
G1 X101.778 Y24.518 E3.87249
G1 X101.877 Y25.148 E3.89129
G1 X101.968 Y25.928 E3.91443
G1 X102.007 Y26.568 E3.93333
G1 X102.007 Y27.448 E3.95927
G1 X100.647 Y58.867 E4.88624
G1 X100.528 Y59.968 E4.91886
G1 X100.457 Y60.358 E4.93053
G1 X100.257 Y61.208 E4.95627
G1 X89.227 Y99.218 E6.12283
G1 X89.037 Y99.808 E6.14110
G1 X88.797 Y100.377 E6.15933
G1 X88.657 Y100.657 E6.16856
G1 X88.358 Y101.207 E6.18702
G1 X88.188 Y101.468 E6.19618
G1 X87.627 Y102.218 E6.22377
G1 X86.987 Y102.907 E6.25151
G1 X85.248 Y104.447 E6.31999
G1 X84.558 Y104.987 E6.34582
G1 X82.877 Y106.177 E6.40650
G1 X82.058 Y106.688 E6.43496
G1 X80.208 Y107.697 E6.49709
G1 X79.537 Y108.028 E6.51910
G1 X77.507 Y108.907 E6.58432
G1 X76.888 Y109.147 E6.60391
G1 X74.748 Y109.877 E6.67056
G1 X73.828 Y110.138 E6.69874
G1 X71.558 Y110.627 E6.76719
G1 X68.618 Y111.078 E6.85485
G1 X67.748 Y111.157 E6.88060
G1 X65.358 Y111.257 E6.95111
G1 X64.638 Y111.257 E6.97233
G1 X62.157 Y111.147 E7.04550
G1 X61.308 Y111.067 E7.07067
G1 X58.428 Y110.627 E7.15654
G1 X56.157 Y110.138 E7.22499
G1 X55.267 Y109.888 E7.25223
G1 X53.097 Y109.157 E7.31972
G1 X52.407 Y108.888 E7.34156
G1 X50.407 Y108.007 E7.40596
G1 X49.657 Y107.627 E7.43074
G1 X47.808 Y106.578 E7.49344
G1 X47.108 Y106.138 E7.51781
G1 X45.428 Y104.947 E7.57849
G1 X44.738 Y104.407 E7.60432
G1 X42.998 Y102.867 E7.67281
G1 X42.358 Y102.177 E7.70055
G1 X41.977 Y101.688 E7.71882
G1 X41.628 Y101.168 E7.73730
G1 X41.188 Y100.337 E7.76499
G1 X40.948 Y99.767 E7.78322
G1 X40.758 Y99.177 E7.80149
G1 X29.738 Y61.208 E8.96683
G1 X29.538 Y60.358 E8.99257
G1 X29.468 Y59.968 E9.00425
G1 X29.348 Y58.867 E9.03686
G1 X27.988 Y27.438 E9.96412
G1 X27.988 Y26.678 E9.98652
G1 X28.018 Y26.058 E10.00482
G1 X28.108 Y25.178 E10.03089
G1 X28.208 Y24.538 E10.04999
G1 X28.468 Y23.408 E10.08416
G1 X28.648 Y22.818 E10.10234
G1 X28.878 Y22.158 E10.12294
G1 X29.118 Y21.558 E10.14199
G1 X29.518 Y20.708 E10.16968
G1 X29.911 Y19.981 E10.19404
G1 X30.508 Y20.218 F7800.000
G1 X40.778 Y2.858 F1200.000 E10.78856
G1 X41.297 Y2.148 E10.81450
G1 X41.688 Y1.708 E10.83183
G1 X42.108 Y1.308 E10.84892
G1 X42.558 Y0.928 E10.86628
G1 X43.288 Y0.438 E10.89220
G1 X43.808 Y0.158 E10.90961
G1 X44.338 Y-0.082 E10.92675
G1 X44.888 Y-0.282 E10.94400
G1 X45.738 Y-0.502 E10.96988
G1 X46.028 Y-0.552 E10.97856
G1 X46.318 Y-0.592 E10.98719
G1 X47.198 Y-0.642 E11.01317
G1 X82.838 Y-0.612 E12.06365
G1 X83.428 Y-0.582 E12.08106
G1 X84.297 Y-0.462 E12.10695
G1 X85.148 Y-0.252 E12.13276
G1 X85.697 Y-0.052 E12.15001
G1 X86.227 Y0.188 E12.16715
G1 X86.998 Y0.628 E12.19329
G1 X87.468 Y0.968 E12.21039
G1 X87.928 Y1.338 E12.22779
G1 X88.347 Y1.748 E12.24509
G1 X88.917 Y2.418 E12.27102
G1 X89.407 Y3.148 E12.29693
G1 X99.487 Y20.227 E12.88150
G1 X99.907 Y21.008 E12.90761
G1 X100.278 Y21.788 E12.93306
G1 X100.517 Y22.388 E12.95210
G1 X100.907 Y23.588 E12.98929
G1 X101.147 Y24.617 E13.02047
G1 X101.248 Y25.248 E13.03927
G1 X101.328 Y25.968 E13.06062
G1 X101.367 Y26.608 E13.07952
G1 X101.377 Y27.418 E13.10340
G1 X100.017 Y58.837 E14.03037
G1 X99.907 Y59.858 E14.06060
G1 X99.838 Y60.248 E14.07228
G1 X99.648 Y61.027 E14.09595
G1 X88.618 Y99.037 E15.26250
G1 X88.428 Y99.617 E15.28049
G1 X88.047 Y100.468 E15.30794
G1 X87.567 Y101.257 E15.33518
G1 X86.987 Y101.987 E15.36266
G1 X86.558 Y102.427 E15.38080
G1 X84.828 Y103.968 E15.44907
G1 X84.188 Y104.468 E15.47300
G1 X82.507 Y105.657 E15.53369
G1 X81.757 Y106.127 E15.55977
G1 X79.907 Y107.138 E15.62190
G1 X79.287 Y107.447 E15.64233
G1 X77.257 Y108.328 E15.70754
G1 X76.688 Y108.547 E15.72555
G1 X74.547 Y109.278 E15.79220
G1 X73.688 Y109.507 E15.81844
G1 X71.418 Y109.998 E15.88689
G1 X70.938 Y110.087 E15.90128
G1 X68.528 Y110.447 E15.97310
G1 X67.718 Y110.528 E15.99709
G1 X65.328 Y110.627 E16.06760
G1 X64.668 Y110.627 E16.08705
G1 X62.188 Y110.517 E16.16022
G1 X61.407 Y110.438 E16.18334
G1 X59.058 Y110.087 E16.25337
G1 X58.568 Y109.998 E16.26805
G1 X56.297 Y109.507 E16.33650
G1 X55.478 Y109.287 E16.36152
G1 X53.308 Y108.558 E16.42901
G1 X52.657 Y108.308 E16.44953
G1 X50.657 Y107.427 E16.51394
G1 X49.968 Y107.078 E16.53674
G1 X48.117 Y106.028 E16.59944
G1 X47.477 Y105.617 E16.62184
G1 X45.797 Y104.427 E16.68252
G1 X45.157 Y103.927 E16.70646
G1 X43.648 Y102.597 E16.76577
G1 X42.998 Y101.947 E16.79287
G1 X42.418 Y101.218 E16.82035
G1 X42.088 Y100.698 E16.83850
G1 X41.938 Y100.427 E16.84760
G1 X41.678 Y99.867 E16.86580
G1 X41.558 Y99.578 E16.87505
G1 X41.367 Y98.998 E16.89304
G1 X30.348 Y61.027 E18.05839
G1 X30.158 Y60.248 E18.08205
G1 X30.088 Y59.858 E18.09373
G1 X29.978 Y58.837 E18.12397
G1 X28.618 Y27.408 E19.05123
G1 X28.618 Y26.708 E19.07186
G1 X28.648 Y26.088 E19.09016
G1 X28.738 Y25.277 E19.11418
G1 X28.838 Y24.638 E19.13327
G1 X29.078 Y23.588 E19.16502
G1 X29.468 Y22.388 E19.20221
G1 X29.708 Y21.788 E19.22126
G1 X30.078 Y21.008 E19.24670
G1 X30.461 Y20.301 E19.27040
G1 F1800.000 E18.27040
G92 E0
G1 X81.879 Y7.986 F7800.000
G1 F1800.000 E1.00000
G1 X81.879 Y9.530 F1200.000 E1.04551
G1 X80.918 Y10.074 E1.07807
G1 X80.199 Y10.433 E1.10175
G1 X80.199 Y49.496 E2.25312
G1 X84.591 Y49.496 E2.38257
G1 X84.591 Y30.086 E2.95468
G1 X86.269 Y31.239 E3.01469
G1 X88.050 Y31.595 E3.06823
G1 X89.793 Y31.238 E3.12069
G1 X91.434 Y30.110 E3.17938
G1 X91.434 Y58.432 E4.01416
G1 X91.389 Y58.680 E4.02159
G1 X91.340 Y58.842 E4.02659
G1 X91.244 Y58.987 E4.03171
G1 X91.082 Y59.172 E4.03897
G1 X90.926 Y59.308 E4.04507
G1 X90.800 Y59.378 E4.04931
G1 X90.608 Y59.431 E4.05519
G1 X90.349 Y59.454 E4.06284
G1 X78.624 Y59.454 E4.40844
G1 X78.624 Y81.182 E5.04885
G1 X78.513 Y81.675 E5.06377
G1 X78.443 Y81.801 E5.06801
G1 X78.307 Y81.957 E5.07411
G1 X78.151 Y82.093 E5.08022
G1 X78.025 Y82.163 E5.08445
G1 X77.833 Y82.216 E5.09034
G1 X77.574 Y82.239 E5.09799
G1 X69.780 Y82.239 E5.32773
G1 X72.078 Y85.456 E5.44426
G1 X73.456 Y87.443 E5.51553
G1 X73.478 Y87.426 E5.51634
G1 X75.683 Y90.601 E5.63027
G1 X76.662 Y91.952 E5.67946
G1 X79.541 Y96.111 E5.82853
G1 X79.569 Y96.088 E5.82958
G1 X80.029 Y96.757 E5.85351
G1 X79.195 Y97.494 E5.88632
G1 X77.601 Y98.623 E5.94386
G1 X75.834 Y99.590 E6.00324
G1 X73.878 Y100.433 E6.06602
G1 X71.831 Y101.137 E6.12983
G1 X69.642 Y101.609 E6.19585
G1 X67.376 Y101.947 E6.26335
G1 X65.017 Y102.048 E6.33295
G1 X62.623 Y101.947 E6.40358
G1 X60.358 Y101.609 E6.47107
G1 X58.167 Y101.137 E6.53716
G1 X56.088 Y100.433 E6.60186
G1 X54.175 Y99.594 E6.66342
G1 X52.404 Y98.592 E6.72339
G1 X50.805 Y97.459 E6.78114
G1 X49.978 Y96.728 E6.81369
G1 X51.902 Y94.031 E6.91133
G1 X53.491 Y91.741 E6.99349
G1 X56.107 Y88.095 E7.12575
G1 X56.038 Y88.045 E7.12829
G1 X56.278 Y87.696 E7.14076
G1 X56.500 Y87.386 E7.15200
G1 X56.551 Y87.425 E7.15389
G1 X57.957 Y85.456 E7.22522
G1 X60.190 Y82.239 E7.34064
G1 X51.866 Y82.239 E7.58598
G1 X51.607 Y82.216 E7.59363
G1 X51.415 Y82.163 E7.59951
G1 X51.289 Y82.093 E7.60375
G1 X51.133 Y81.957 E7.60985
G1 X50.997 Y81.801 E7.61596
G1 X50.927 Y81.675 E7.62020
G1 X50.874 Y81.483 E7.62608
G1 X50.851 Y81.224 E7.63373
G1 X50.851 Y59.454 E8.27540
G1 X39.514 Y59.454 E8.60955
G1 X39.370 Y59.432 E8.61385
G1 X39.136 Y59.362 E8.62106
G1 X38.866 Y59.152 E8.63114
G1 X38.747 Y59.016 E8.63646
G1 X38.671 Y58.880 E8.64106
G1 X38.611 Y58.680 E8.64721
G1 X38.566 Y58.432 E8.65464
G1 X38.566 Y30.110 E9.48943
G1 X40.209 Y31.239 E9.54818
G1 X41.990 Y31.595 E9.60173
G1 X43.733 Y31.238 E9.65419
G1 X45.374 Y30.110 E9.71287
G1 X45.374 Y49.496 E10.28428
G1 X49.801 Y49.496 E10.41476
G1 X49.801 Y10.461 E11.56529
G1 X48.469 Y9.732 E11.61004
G1 X48.156 Y9.542 E11.62085
G1 X48.156 Y7.951 E11.66774
G1 X59.904 Y7.951 E12.01400
G1 X63.224 Y7.978 E12.11188
G1 X63.224 Y9.509 E12.15701
G1 X62.849 Y9.728 E12.16982
G1 X62.403 Y9.951 E12.18451
G1 X62.193 Y10.091 E12.19195
G1 X61.509 Y10.433 E12.21449
G1 X61.509 Y23.386 E12.59626
G1 X68.456 Y23.386 E12.80102
G1 X68.456 Y10.433 E13.18280
G1 X67.746 Y10.078 E13.20618
G1 X66.776 Y9.530 E13.23904
G1 X66.776 Y7.986 E13.28455
G1 X81.784 Y7.986 E13.72690
G1 X82.515 Y7.350 F7800.000
G1 X82.515 Y9.895 F960.000 E13.80190
G1 X81.214 Y10.636 E13.84603
G1 X80.835 Y10.826 E13.85853
G1 X80.835 Y48.860 E14.97959
G1 X83.955 Y48.860 E15.07157
G1 X83.955 Y30.701 E15.60680
G1 X83.387 Y29.832 E15.63743
G1 X83.152 Y29.395 E15.65203
G1 X82.955 Y28.969 E15.66588
G1 X82.826 Y28.549 E15.67881
G1 X82.726 Y28.049 E15.69386
G1 X82.659 Y27.579 E15.70784
G1 X82.626 Y27.085 E15.72243
G1 X82.659 Y26.457 E15.74097
G1 X82.758 Y25.864 E15.75870
G1 X82.922 Y25.306 E15.77583
G1 X83.155 Y24.772 E15.79301
G1 X83.421 Y24.242 E15.81049
G1 X83.745 Y23.788 E15.82691
G1 X84.355 Y23.144 E15.85307
G1 X85.456 Y24.246 E15.89897
G1 X85.075 Y24.605 E15.91441
G1 X84.578 Y25.331 E15.94036
G1 X84.272 Y26.173 E15.96675
G1 X84.156 Y27.100 E15.99430
G1 X84.459 Y28.579 E16.03881
G1 X85.299 Y29.801 E16.08250
G1 X86.521 Y30.641 E16.12622
G1 X88.048 Y30.947 E16.17212
G1 X89.539 Y30.641 E16.21699
G1 X90.764 Y29.799 E16.26079
G1 X91.567 Y28.576 E16.30391
G1 X91.869 Y27.100 E16.34832
G1 X91.753 Y26.173 E16.37587
G1 X91.449 Y25.337 E16.40208
G1 X90.992 Y24.613 E16.42732
G1 X90.632 Y24.252 E16.44234
G1 X91.731 Y23.153 E16.48816
G1 X91.948 Y23.353 E16.49684
G1 X92.308 Y23.779 E16.51329
G1 X92.639 Y24.276 E16.53090
G1 X92.905 Y24.773 E16.54751
G1 X93.137 Y25.338 E16.56552
G1 X93.302 Y25.899 E16.58274
G1 X93.401 Y26.493 E16.60048
G1 X93.434 Y27.086 E16.61800
G1 X93.401 Y27.581 E16.63262
G1 X93.334 Y28.083 E16.64756
G1 X93.237 Y28.537 E16.66123
G1 X92.903 Y29.405 E16.68864
G1 X92.676 Y29.826 E16.70274
G1 X92.070 Y30.698 E16.73405
G1 X92.070 Y58.489 E17.55319
G1 X92.008 Y58.828 E17.56335
G1 X91.922 Y59.116 E17.57220
G1 X91.750 Y59.374 E17.58135
G1 X91.532 Y59.622 E17.59107
G1 X91.294 Y59.831 E17.60042
G1 X91.042 Y59.971 E17.60891
G1 X90.721 Y60.059 E17.61872
G1 X90.378 Y60.090 E17.62886
G1 X79.260 Y60.090 E17.95657
G1 X79.260 Y81.239 E18.57994
G1 X79.197 Y81.582 E18.59023
G1 X79.106 Y81.917 E18.60045
G1 X78.966 Y82.169 E18.60894
G1 X78.757 Y82.407 E18.61829
G1 X78.519 Y82.616 E18.62764
G1 X78.267 Y82.756 E18.63613
G1 X77.946 Y82.844 E18.64593
G1 X77.603 Y82.875 E18.65608
G1 X71.015 Y82.875 E18.85026
G1 X72.598 Y85.090 E18.93052
G1 X73.600 Y86.535 E18.98236
G1 X73.624 Y86.517 E18.98325
G1 X76.203 Y90.235 E19.11662
G1 X76.711 Y90.948 E19.14241
G1 X76.720 Y90.937 E19.14281
G1 X76.904 Y91.183 E19.15185
G1 X79.672 Y95.184 E19.29524
G1 X79.686 Y95.172 E19.29579
G1 X80.263 Y95.977 E19.32498
G1 X80.871 Y96.861 E19.35661
G1 X79.590 Y97.993 E19.40701
G1 X77.939 Y99.163 E19.46664
G1 X76.113 Y100.162 E19.52799
G1 X74.108 Y101.026 E19.59235
G1 X72.002 Y101.751 E19.65799
G1 X69.756 Y102.235 E19.72573
G1 X67.437 Y102.581 E19.79482
G1 X65.017 Y102.684 E19.86620
G1 X62.563 Y102.581 E19.93862
G1 X60.244 Y102.235 E20.00771
G1 X57.997 Y101.751 E20.07546
G1 X55.858 Y101.026 E20.14205
G1 X53.890 Y100.163 E20.20538
G1 X52.063 Y99.129 E20.26725
G1 X50.410 Y97.958 E20.32696
G1 X49.131 Y96.828 E20.37727
G1 X50.313 Y95.138 E20.43804
G1 X50.324 Y95.147 E20.43846
G1 X51.382 Y93.665 E20.49214
G1 X52.257 Y92.404 E20.53739
G1 X52.225 Y92.378 E20.53860
G1 X52.466 Y92.058 E20.55040
G1 X53.398 Y90.701 E20.59893
G1 X53.436 Y90.742 E20.60055
G1 X55.225 Y88.237 E20.69126
G1 X55.164 Y88.193 E20.69347
G1 X55.757 Y87.330 E20.72433
G1 X56.368 Y86.480 E20.75518
G1 X56.418 Y86.518 E20.75701
G1 X57.437 Y85.090 E20.80874
G1 X58.975 Y82.875 E20.88823
G1 X51.837 Y82.875 E21.09862
G1 X51.494 Y82.844 E21.10876
G1 X51.173 Y82.756 E21.11857
G1 X50.921 Y82.616 E21.12706
G1 X50.683 Y82.407 E21.13641
G1 X50.474 Y82.169 E21.14575
G1 X50.334 Y81.917 E21.15424
G1 X50.246 Y81.596 E21.16405
G1 X50.215 Y81.253 E21.17419
G1 X50.215 Y60.090 E21.79798
G1 X39.436 Y60.090 E22.11569
G1 X39.248 Y60.059 E22.12131
G1 X38.842 Y59.941 E22.13378
G1 X38.427 Y59.616 E22.14932
G1 X38.224 Y59.384 E22.15841
G1 X38.082 Y59.128 E22.16702
G1 X37.992 Y58.828 E22.17625
G1 X37.930 Y58.489 E22.18642
G1 X37.930 Y30.684 E23.00596
G1 X37.559 Y30.231 E23.02323
G1 X37.330 Y29.837 E23.03666
G1 X37.092 Y29.395 E23.05144
G1 X36.895 Y28.969 E23.06530
G1 X36.765 Y28.547 E23.07829
G1 X36.666 Y28.083 E23.09228
G1 X36.599 Y27.581 E23.10722
G1 X36.566 Y27.086 E23.12185
G1 X36.599 Y26.493 E23.13936
G1 X36.698 Y25.899 E23.15710
G1 X36.863 Y25.338 E23.17432
G1 X37.095 Y24.773 E23.19233
G1 X37.361 Y24.276 E23.20895
G1 X37.692 Y23.779 E23.22655
G1 X38.052 Y23.353 E23.24300
G1 X38.269 Y23.153 E23.25168
G1 X38.638 Y23.522 E23.26705
G1 X38.822 Y23.743 E23.27554
G1 X39.039 Y23.924 E23.28388
G1 X39.368 Y24.273 E23.29801
G1 X39.012 Y24.607 E23.31239
G1 X38.518 Y25.368 E23.33913
G1 X38.210 Y26.176 E23.36463
G1 X38.132 Y27.103 E23.39203
G1 X38.397 Y28.576 E23.43615
G1 X39.239 Y29.801 E23.47997
G1 X40.461 Y30.641 E23.52369
G1 X41.988 Y30.947 E23.56959
G1 X43.479 Y30.641 E23.61446
G1 X44.704 Y29.799 E23.65826
G1 X45.507 Y28.576 E23.70137
G1 X45.809 Y27.100 E23.74578
G1 X45.693 Y26.173 E23.77333
G1 X45.389 Y25.337 E23.79955
G1 X44.930 Y24.609 E23.82493
G1 X44.544 Y24.246 E23.84054
G1 X45.636 Y23.153 E23.88608
G1 X45.858 Y23.357 E23.89496
G1 X46.255 Y23.788 E23.91225
G1 X46.579 Y24.242 E23.92867
G1 X46.845 Y24.772 E23.94615
G1 X47.078 Y25.306 E23.96334
G1 X47.242 Y25.864 E23.98046
G1 X47.341 Y26.457 E23.99819
G1 X47.374 Y27.085 E24.01673
G1 X47.341 Y27.581 E24.03137
G1 X47.274 Y28.083 E24.04630
G1 X47.177 Y28.537 E24.05997
G1 X46.843 Y29.405 E24.08739
G1 X46.615 Y29.829 E24.10158
G1 X46.010 Y30.694 E24.13271
G1 X46.010 Y48.860 E24.66815
G1 X49.165 Y48.860 E24.76116
G1 X49.165 Y10.835 E25.88194
G1 X48.161 Y10.289 E25.91563
G1 X47.520 Y9.899 E25.93775
G1 X47.520 Y7.315 E26.01390
G1 X59.906 Y7.315 E26.37897
G1 X63.860 Y7.348 E26.49551
G1 X63.860 Y9.888 E26.57037
G1 X63.151 Y10.288 E26.59435
G1 X62.723 Y10.502 E26.60848
G1 X62.513 Y10.642 E26.61592
G1 X62.145 Y10.826 E26.62804
G1 X62.145 Y22.750 E26.97951
G1 X67.820 Y22.750 E27.14680
G1 X67.820 Y10.826 E27.49826
G1 X67.444 Y10.638 E27.51067
G1 X66.140 Y9.895 E27.55489
G1 X66.140 Y7.350 E27.62989
G1 X82.419 Y7.350 E28.10972
G1 X82.197 Y7.901 F7800.000
G1 X81.418 Y8.447
G1 X80.516 Y8.447 F1650.000 E28.13638
G1 X81.367 Y9.297 E28.17195
G1 X80.787 Y9.619 E28.19156
G1 X79.615 Y8.447 E28.24060
G1 X78.713 Y8.447 E28.26727
G1 X80.189 Y9.923 E28.32901
G1 X79.738 Y10.374 E28.34786
G1 X77.811 Y8.447 E28.42845
G1 X76.909 Y8.447 E28.45512
G1 X79.738 Y11.276 E28.57342
