; generated by Slic3r 0.9.8 on 2013-03-16 at 16:33:08

; layer_height = 0.2
; perimeters = 3
; top_solid_layers = 3
; bottom_solid_layers = 3
; fill_density = 0.3
; perimeter_speed = 15
; infill_speed = 30
; travel_speed = 65
; scale = 1
; nozzle_diameter = 0.5
; filament_diameter = 3
; extrusion_multiplier = 1
; perimeters extrusion width = 0.80mm
; infill extrusion width = 0.80mm
; first layer extrusion width = 0.40mm

M107
M190 S70 ; wait for bed temperature to be reached
M104 S230 ; set temperature
G28 ; home all axes
M92 X63.0159 ; calibrate X
M92 Y62.8937 ; calibrate Y
M92 Z2387.0719 ; calibrate Z
M92 E569 ; calibrate E
M109 S230 ; wait for temperature to be reached
G90 ; use absolute coordinates
G21 ; set units to millimeters
G92 E0
M82 ; use absolute distances for extrusion
G1 F1800.000 E-1.00000
G92 E0
G1 Z0.200 F3900.000
G1 X36.466 Y13.958
G1 F1800.000 E1.00000
G1 X37.056 Y13.548 F360.000 E1.00857
G1 X41.316 Y10.978 E1.06790
G1 X41.966 Y10.638 E1.07664
G1 X46.486 Y8.568 E1.13593
G1 X47.176 Y8.298 E1.14476
G1 X51.906 Y6.768 E1.20405
G1 X52.606 Y6.588 E1.21266
G1 X57.486 Y5.598 E1.27204
G1 X58.226 Y5.488 E1.28096
G1 X63.176 Y5.068 E1.34021
G1 X63.896 Y5.048 E1.34879
G1 X68.866 Y5.188 E1.40808
G1 X69.586 Y5.248 E1.41670
G1 X74.506 Y5.948 E1.47596
G1 X75.246 Y6.098 E1.48497
G1 X80.056 Y7.368 E1.54429
G1 X80.746 Y7.588 E1.55293
G1 X85.376 Y9.388 E1.61216
G1 X86.046 Y9.698 E1.62097
G1 X90.446 Y12.018 E1.68028
G1 X91.066 Y12.398 E1.68896
G1 X95.176 Y15.208 E1.74833
G1 X95.766 Y15.658 E1.75718
G1 X99.516 Y18.918 E1.81643
G1 X100.026 Y19.418 E1.82495
G1 X103.396 Y23.078 E1.88427
G1 X103.876 Y23.658 E1.89325
G1 X106.796 Y27.678 E1.95250
G1 X107.186 Y28.288 E1.96114
G1 X109.636 Y32.618 E2.02046
G1 X109.966 Y33.288 E2.02937
G1 X111.896 Y37.868 E2.08864
G1 X112.136 Y38.548 E2.09724
G1 X113.536 Y43.318 E2.15652
G1 X113.706 Y44.038 E2.16534
G1 X114.546 Y48.898 E2.22415
G1 X114.626 Y49.618 E2.23279
G1 X114.916 Y54.628 E2.29264
G1 X114.916 Y55.368 E2.30146
G1 X114.626 Y60.368 E2.36118
G1 X114.546 Y61.088 E2.36982
G1 X113.706 Y65.948 E2.42864
G1 X113.536 Y66.668 E2.43746
G1 X112.136 Y71.438 E2.49674
G1 X111.896 Y72.118 E2.50534
G1 X109.966 Y76.698 E2.56461
G1 X109.636 Y77.368 E2.57351
G1 X107.186 Y81.698 E2.63284
G1 X106.796 Y82.308 E2.64147
G1 X103.876 Y86.328 E2.70072
G1 X103.406 Y86.898 E2.70953
G1 X100.036 Y90.568 E2.76895
G1 X99.516 Y91.078 E2.77764
G1 X95.766 Y94.328 E2.83681
G1 X95.176 Y94.778 E2.84566
G1 X91.066 Y97.588 E2.90503
G1 X90.446 Y97.968 E2.91370
G1 X86.046 Y100.288 E2.97302
G1 X85.386 Y100.588 E2.98166
G1 X80.756 Y102.398 E3.04095
G1 X80.046 Y102.628 E3.04985
G1 X75.236 Y103.888 E3.10914
G1 X74.516 Y104.038 E3.11791
G1 X69.556 Y104.748 E3.17766
G1 X68.826 Y104.808 E3.18639
G1 X63.896 Y104.948 E3.24521
G1 X63.156 Y104.928 E3.25404
G1 X58.206 Y104.498 E3.31329
G1 X57.506 Y104.398 E3.32172
G1 X52.626 Y103.418 E3.38107
G1 X51.886 Y103.218 E3.39021
G1 X47.116 Y101.658 E3.45006
G1 X46.446 Y101.398 E3.45863
G1 X41.966 Y99.348 E3.51738
G1 X41.326 Y99.008 E3.52602
G1 X37.066 Y96.448 E3.58529
G1 X36.456 Y96.028 E3.59412
G1 X32.516 Y92.988 E3.65347
G1 X31.956 Y92.508 E3.66226
G1 X28.396 Y89.038 E3.72154
G1 X27.916 Y88.508 E3.73007
G1 X24.766 Y84.668 E3.78930
G1 X24.326 Y84.068 E3.79817
G1 X21.636 Y79.878 E3.85755
G1 X21.276 Y79.238 E3.86630
G1 X19.086 Y74.778 E3.92555
G1 X18.796 Y74.108 E3.93426
G1 X17.126 Y69.428 E3.99352
G1 X16.926 Y68.728 E4.00220
G1 X15.796 Y63.878 E4.06158
G1 X15.666 Y63.138 E4.07054
G1 X15.106 Y58.198 E4.12983
G1 X15.066 Y57.478 E4.13843
G1 X15.066 Y52.508 E4.19769
G1 X15.106 Y51.788 E4.20629
G1 X15.666 Y46.848 E4.26558
G1 X15.796 Y46.108 E4.27454
G1 X16.926 Y41.268 E4.33381
G1 X17.126 Y40.578 E4.34237
G1 X18.796 Y35.888 E4.40174
G1 X19.086 Y35.208 E4.41056
G1 X21.276 Y30.748 E4.46981
G1 X21.636 Y30.098 E4.47867
G1 X24.326 Y25.918 E4.53794
G1 X24.756 Y25.328 E4.54665
G1 X27.906 Y21.478 E4.60597
G1 X28.396 Y20.948 E4.61458
G1 X31.956 Y17.478 E4.67386
G1 X32.526 Y16.988 E4.68282
G1 X36.416 Y13.996 E4.74134
G1 X36.466 Y13.958 E4.74209
G1 F1800.000 E3.74209
G92 E0
G1 X27.779 Y76.000 F3900.000
G1 F1800.000 E1.00000
G1 X25.627 Y71.624 F360.000 E1.05815
G1 X23.989 Y67.032 E1.11629
G1 X22.884 Y62.282 E1.17444
G1 X22.329 Y57.438 E1.23258
G1 X22.329 Y52.562 E1.29073
G1 X22.884 Y47.718 E1.34887
G1 X23.989 Y42.968 E1.40702
G1 X25.627 Y38.376 E1.46517
G1 X27.779 Y34.000 E1.52331
G1 X30.415 Y29.898 E1.58146
G1 X33.502 Y26.124 E1.63960
G1 X36.998 Y22.725 E1.69775
G1 X40.860 Y19.748 E1.75589
G1 X45.035 Y17.230 E1.81404
G1 X49.471 Y15.204 E1.87219
G1 X54.108 Y13.698 E1.93033
G1 X58.887 Y12.729 E1.98848
G1 X63.745 Y12.312 E2.04662
G1 X68.619 Y12.451 E2.10477
G1 X73.445 Y13.145 E2.16291
G1 X78.161 Y14.385 E2.22106
G1 X82.705 Y16.154 E2.27921
G1 X87.017 Y18.429 E2.33735
G1 X91.042 Y21.182 E2.39550
G1 X94.727 Y24.375 E2.45364
G1 X98.024 Y27.967 E2.51179
G1 X100.890 Y31.912 E2.56993
G1 X103.288 Y36.158 E2.62808
G1 X105.186 Y40.649 E2.68623
G1 X106.560 Y45.327 E2.74437
G1 X107.391 Y50.132 E2.80252
G1 X107.670 Y55.000 E2.86066
G1 X107.391 Y59.868 E2.91881
G1 X106.560 Y64.673 E2.97695
G1 X105.186 Y69.351 E3.03510
G1 X103.288 Y73.842 E3.09324
G1 X100.890 Y78.088 E3.15139
G1 X98.024 Y82.033 E3.20954
G1 X94.727 Y85.625 E3.26768
G1 X91.042 Y88.818 E3.32583
G1 X87.017 Y91.571 E3.38397
G1 X82.705 Y93.846 E3.44212
G1 X78.161 Y95.615 E3.50027
G1 X73.445 Y96.855 E3.55841
G1 X68.619 Y97.549 E3.61656
G1 X63.745 Y97.688 E3.67470
G1 X58.887 Y97.271 E3.73285
G1 X54.108 Y96.302 E3.79099
G1 X49.470 Y94.796 E3.84914
G1 X45.035 Y92.770 E3.90729
G1 X40.860 Y90.252 E3.96543
G1 X36.998 Y87.275 E4.02358
G1 X33.501 Y83.876 E4.08172
G1 X30.415 Y80.102 E4.13987
G1 X27.813 Y76.053 E4.19726
G1 X27.779 Y76.000 E4.19801
G1 X27.402 Y76.189 F3900.000
G1 X25.238 Y71.788 F360.000 E4.25650
G1 X23.584 Y67.150 E4.31522
G1 X22.468 Y62.354 E4.37394
G1 X21.907 Y57.462 E4.43266
G1 X21.907 Y52.538 E4.49138
G1 X22.468 Y47.646 E4.55010
G1 X23.584 Y42.850 E4.60882
G1 X25.238 Y38.212 E4.66754
G1 X27.411 Y33.793 E4.72626
G1 X30.073 Y29.650 E4.78498
G1 X33.191 Y25.838 E4.84370
G1 X36.722 Y22.406 E4.90242
G1 X40.605 Y19.412 E4.96090
G1 X44.838 Y16.857 E5.01986
G1 X49.317 Y14.811 E5.07858
G1 X54.000 Y13.289 E5.13730
G1 X58.827 Y12.311 E5.19602
G1 X63.733 Y11.890 E5.25474
G1 X68.655 Y12.031 E5.31346
G1 X73.529 Y12.731 E5.37218
G1 X78.291 Y13.983 E5.43090
G1 X82.862 Y15.763 E5.48939
G1 X87.235 Y18.068 E5.54834
G1 X91.300 Y20.847 E5.60706
G1 X95.021 Y24.072 E5.66578
G1 X98.351 Y27.700 E5.72450
G1 X101.245 Y31.684 E5.78323
G1 X103.667 Y35.971 E5.84195
G1 X105.584 Y40.507 E5.90067
G1 X106.971 Y45.232 E5.95939
G1 X107.811 Y50.084 E6.01811
G1 X108.092 Y55.000 E6.07683
G1 X107.811 Y59.916 E6.13555
G1 X106.971 Y64.768 E6.19427
G1 X105.584 Y69.493 E6.25299
G1 X103.667 Y74.029 E6.31171
G1 X101.245 Y78.316 E6.37043
G1 X98.351 Y82.300 E6.42915
G1 X95.021 Y85.928 E6.48787
G1 X91.300 Y89.153 E6.54659
G1 X87.235 Y91.932 E6.60531
G1 X82.880 Y94.230 E6.66403
G1 X78.291 Y96.017 E6.72275
G1 X73.529 Y97.269 E6.78147
G1 X68.655 Y97.969 E6.84019
G1 X63.733 Y98.110 E6.89891
G1 X58.827 Y97.689 E6.95764
G1 X54.000 Y96.711 E7.01636
G1 X49.299 Y95.181 E7.07531
G1 X44.838 Y93.143 E7.13380
G1 X40.621 Y90.601 E7.19252
G1 X36.722 Y87.594 E7.25124
G1 X33.190 Y84.162 E7.30996
G1 X30.073 Y80.350 E7.36868
G1 X27.435 Y76.244 E7.42688
G1 X27.402 Y76.189 E7.42763
G1 X27.024 Y76.375 F3900.000
G1 X24.850 Y71.953 F360.000 E7.48640
G1 X23.179 Y67.269 E7.54570
G1 X22.052 Y62.426 E7.60500
G1 X21.486 Y57.486 E7.66429
G1 X21.486 Y52.514 E7.72359
G1 X22.047 Y47.618 E7.78236
G1 X23.179 Y42.731 E7.84217
G1 X24.850 Y38.047 E7.90147
G1 X27.044 Y33.585 E7.96076
G1 X29.732 Y29.402 E8.02006
G1 X32.879 Y25.553 E8.07935
G1 X36.445 Y22.087 E8.13865
G1 X40.383 Y19.051 E8.19794
G1 X44.641 Y16.483 E8.25724
G1 X49.164 Y14.418 E8.31654
G1 X53.893 Y12.881 E8.37583
G1 X58.767 Y11.894 E8.43513
G1 X63.677 Y11.472 E8.49390
G1 X68.691 Y11.610 E8.55371
G1 X73.613 Y12.318 E8.61301
G1 X78.422 Y13.582 E8.67230
G1 X83.055 Y15.386 E8.73160
G1 X87.453 Y17.706 E8.79089
G1 X91.558 Y20.513 E8.85019
G1 X95.282 Y23.740 E8.90896
G1 X98.678 Y27.433 E8.96878
G1 X101.601 Y31.455 E9.02807
G1 X104.046 Y35.785 E9.08737
G1 X105.981 Y40.365 E9.14666
G1 X107.382 Y45.136 E9.20596
G1 X108.230 Y50.036 E9.26525
G1 X108.511 Y54.956 E9.32402
G1 X108.230 Y59.964 E9.38384
G1 X107.382 Y64.864 E9.44313
G1 X105.981 Y69.635 E9.50243
G1 X104.046 Y74.215 E9.56172
G1 X101.601 Y78.545 E9.62102
G1 X98.678 Y82.567 E9.68032
G1 X95.316 Y86.231 E9.73961
G1 X91.558 Y89.487 E9.79891
G1 X87.453 Y92.294 E9.85820
G1 X83.055 Y94.614 E9.91750
G1 X78.422 Y96.418 E9.97679
G1 X73.613 Y97.682 E10.03609
G1 X68.691 Y98.390 E10.09538
G1 X63.721 Y98.532 E10.15468
G1 X58.767 Y98.106 E10.21397
G1 X53.893 Y97.119 E10.27327
G1 X49.124 Y95.564 E10.33309
G1 X44.641 Y93.517 E10.39186
G1 X40.383 Y90.949 E10.45115
G1 X36.445 Y87.913 E10.51045
G1 X32.879 Y84.447 E10.56974
G1 X29.732 Y80.598 E10.62904
G1 X27.054 Y76.431 E10.68810
G1 X27.024 Y76.375 E10.68886
G1 X27.245 Y76.016 F3900.000
G1 F1800.000 E9.68886
G92 E0
G1 X30.997 Y80.178 F3900.000
G1 F1800.000 E1.00000
G1 X39.595 Y88.775 F720.000 E1.14539
G1 F1800.000 E0.14539
G92 E0
G1 X41.793 Y90.376 F3900.000
G1 F1800.000 E1.00000
G1 X29.698 Y78.281 F720.000 E1.20455
G1 X28.623 Y76.608 E1.22832
G1 X43.299 Y91.284 E1.47650
G1 X44.804 Y92.192 E1.49752
G1 X27.763 Y75.150 E1.78571
G1 X27.184 Y73.974 E1.80138
G1 X46.056 Y92.846 E2.12050
G1 X47.156 Y93.348 E2.13496
G1 X26.606 Y72.799 E2.48247
G1 X26.028 Y71.623 E2.49813
G1 X48.256 Y93.850 E2.87402
G1 X49.356 Y94.353 E2.88848
G1 X25.634 Y70.631 E3.28962
G1 X25.303 Y69.702 E3.30142
G1 X50.320 Y94.719 E3.72448
G1 X51.205 Y95.007 E3.73560
G1 X24.971 Y68.773 E4.17923
G1 X24.640 Y67.844 E4.19103
G1 X52.091 Y95.295 E4.65524
G1 X52.976 Y95.582 E4.66637
G1 X24.308 Y66.915 E5.15116
G1 X24.105 Y66.114 E5.16103
G1 X53.861 Y95.869 E5.66422
G1 X54.686 Y96.097 E5.67445
G1 X23.924 Y65.335 E6.19465
G1 X23.743 Y64.556 E6.20421
G1 X55.435 Y96.248 E6.74015
G1 X56.185 Y96.401 E6.74930
G1 X23.562 Y63.777 E7.30097
G1 X23.381 Y62.999 E7.31053
G1 X56.934 Y96.552 E7.87795
G1 X57.683 Y96.704 E7.88709
G1 X23.200 Y62.220 E8.47023
G1 X23.103 Y61.526 E8.47861
G1 X58.433 Y96.856 E9.07607
G1 X59.170 Y96.995 E9.08503
G1 X23.026 Y60.850 E9.69626
G1 X22.948 Y60.175 E9.70438
G1 X59.824 Y97.051 E10.32797
G1 X60.478 Y97.107 E10.33582
G1 X22.871 Y59.500 E10.97177
G1 X22.793 Y58.825 E10.97990
G1 X61.131 Y97.163 E11.62822
G1 X61.785 Y97.219 E11.63607
G1 X22.716 Y58.150 E12.29676
G1 X22.638 Y57.475 E12.30489
G1 X62.439 Y97.276 E12.97794
G1 X63.093 Y97.332 E12.98579
G1 X22.616 Y56.855 E13.67028
G1 X22.616 Y56.257 E13.67742
G1 X63.747 Y97.388 E14.37297
G1 X64.344 Y97.387 E14.38011
G1 X22.616 Y55.659 E15.08576
G1 X22.616 Y55.062 E15.09290
G1 X64.925 Y97.371 E15.80837
G1 X65.506 Y97.354 E15.81532
G1 X22.616 Y54.464 E16.54062
G1 X22.616 Y53.866 E16.54776
G1 X66.087 Y97.337 E17.28288
G1 X66.668 Y97.321 E17.28983
G1 X22.616 Y53.269 E18.03478
G1 X22.616 Y52.671 E18.04192
G1 X67.249 Y97.305 E18.79670
G1 X67.830 Y97.288 E18.80365
G1 X22.655 Y52.112 E19.56760
G1 X22.716 Y51.576 E19.57405
G1 X68.411 Y97.271 E20.34678
G1 X68.965 Y97.227 E20.35342
G1 X22.778 Y51.040 E21.13447
G1 X22.839 Y50.504 E21.14092
G1 X69.487 Y97.152 E21.92976
G1 X70.009 Y97.076 E21.93607
G1 X22.901 Y49.968 E22.73271
G1 X22.962 Y49.432 E22.73916
G1 X70.532 Y97.001 E23.54359
G1 X71.055 Y96.926 E23.54990
G1 X23.024 Y48.896 E24.36213
G1 X23.085 Y48.359 E24.36858
G1 X71.577 Y96.851 E25.18861
G1 X72.100 Y96.776 E25.19492
G1 X23.147 Y47.823 E26.02275
G1 X23.244 Y47.322 E26.02885
G1 X72.622 Y96.701 E26.86387
G1 X73.145 Y96.626 E26.87019
G1 X23.356 Y46.837 E27.71214
G1 X23.469 Y46.352 E27.71809
G1 X73.651 Y96.534 E28.56670
G1 X74.125 Y96.410 E28.57255
G1 X23.582 Y45.868 E29.42726
G1 X23.695 Y45.383 E29.43321
G1 X74.597 Y96.285 E30.29401
G1 X75.071 Y96.161 E30.29986
G1 X23.808 Y44.898 E31.16676
G1 X23.920 Y44.413 E31.17271
G1 X75.544 Y96.037 E32.04571
G1 X76.018 Y95.913 E32.05156
G1 X24.033 Y43.928 E32.93066
G1 X24.146 Y43.443 E32.93661
G1 X76.491 Y95.788 E33.82179
G1 X76.964 Y95.664 E33.82765
G1 X24.259 Y42.958 E34.71893
G1 X24.415 Y42.517 E34.72453
G1 X77.438 Y95.539 E35.62117
G1 X77.910 Y95.415 E35.62702
G1 X24.572 Y42.077 E36.52899
G1 X24.730 Y41.636 E36.53459
G1 X78.364 Y95.271 E37.44158
G1 X78.794 Y95.103 E37.44709
G1 X24.887 Y41.196 E38.35869
G1 X25.044 Y40.755 E38.36429
G1 X79.224 Y94.935 E39.28051
G1 X79.654 Y94.768 E39.28603
G1 X25.201 Y40.315 E40.20687
G1 X25.358 Y39.874 E40.21246
G1 X80.085 Y94.601 E41.13792
G1 X80.515 Y94.433 E41.14344
G1 X25.515 Y39.434 E42.07352
G1 X25.673 Y38.993 E42.07911
G1 X80.945 Y94.265 E43.01380
G1 X81.375 Y94.098 E43.01932
G1 X25.830 Y38.553 E43.95863
G1 X26.013 Y38.139 E43.96404
G1 X81.805 Y93.931 E44.90752
G1 X82.236 Y93.763 E44.91304
G1 X26.210 Y37.738 E45.86047
G1 X26.408 Y37.337 E45.86581
G1 X82.666 Y93.595 E46.81716
G1 X83.057 Y93.389 E46.82245
G1 X26.605 Y36.937 E47.77710
G1 X26.802 Y36.536 E47.78244
G1 X83.448 Y93.182 E48.74036
G1 X83.839 Y92.976 E48.74565
G1 X26.999 Y36.135 E49.70686
G1 X27.196 Y35.735 E49.71220
G1 X84.231 Y92.770 E50.67670
G1 X84.621 Y92.563 E50.68199
G1 X27.392 Y35.334 E51.64976
G1 X27.590 Y34.933 E51.65510
G1 X85.013 Y92.357 E52.62617
G1 X85.404 Y92.150 E52.63146
G1 X27.787 Y34.533 E53.60581
G1 X27.984 Y34.132 E53.61115
G1 X85.795 Y91.944 E54.58878
G1 X86.187 Y91.737 E54.59407
G1 X28.212 Y33.763 E55.57446
G1 X28.446 Y33.399 E55.57963
G1 X86.578 Y91.531 E56.56268
G1 X86.966 Y91.321 E56.56795
G1 X28.680 Y33.035 E57.55361
G1 X28.914 Y32.671 E57.55878
G1 X87.321 Y91.078 E58.54648
G1 X87.676 Y90.836 E58.55163
G1 X29.147 Y32.307 E59.54138
G1 X29.381 Y31.944 E59.54656
G1 X88.031 Y90.593 E60.53836
G1 X88.385 Y90.350 E60.54350
G1 X29.615 Y31.580 E61.53734
G1 X29.849 Y31.216 E61.54252
G1 X88.741 Y90.108 E62.53842
G1 X89.096 Y89.865 E62.54356
G1 X30.083 Y30.852 E63.54150
G1 X30.317 Y30.488 E63.54668
G1 X89.450 Y89.622 E64.54667
G1 X89.806 Y89.380 E64.55181
G1 X30.550 Y30.124 E65.55385
G1 X30.808 Y29.785 E65.55895
G1 X90.160 Y89.137 E66.56263
G1 X90.515 Y88.894 E66.56777
G1 X31.077 Y29.456 E67.57291
G1 X31.346 Y29.127 E67.57798
G1 X90.870 Y88.652 E68.58458
G1 X91.195 Y88.379 E68.58965
G1 X31.615 Y28.798 E69.59720
G1 X31.884 Y28.469 E69.60228
G1 X91.516 Y88.101 E70.61069
G1 X91.836 Y87.824 E70.61575
G1 X32.153 Y28.141 E71.62503
G1 X32.422 Y27.812 E71.63010
G1 X92.156 Y87.546 E72.64024
G1 X92.476 Y87.269 E72.64531
G1 X32.690 Y27.483 E73.65633
G1 X32.959 Y27.154 E73.66141
G1 X92.796 Y86.991 E74.67329
G1 X93.116 Y86.714 E74.67836
G1 X33.228 Y26.826 E75.69111
G1 X33.497 Y26.497 E75.69619
G1 X93.437 Y86.436 E76.70980
G1 X93.757 Y86.159 E76.71487
G1 X33.777 Y26.179 E77.72917
G1 X34.080 Y25.884 E77.73422
G1 X94.077 Y85.882 E78.74882
G1 X94.397 Y85.604 E78.75388
G1 X34.383 Y25.590 E79.76876
G1 X34.686 Y25.295 E79.77381
G1 X94.701 Y85.310 E80.78870
G1 X94.987 Y84.999 E80.79376
G1 X34.989 Y25.001 E81.80836
G1 X35.293 Y24.706 E81.81341
G1 X95.273 Y84.687 E82.82773
G1 X95.560 Y84.375 E82.83279
G1 X35.596 Y24.412 E83.84681
G1 X35.899 Y24.117 E83.85187
G1 X95.846 Y84.064 E84.86560
G1 X96.132 Y83.752 E84.87066
G1 X36.202 Y23.822 E85.88411
G1 X36.505 Y23.528 E85.88917
G1 X96.418 Y83.441 E86.90233
G1 X96.704 Y83.129 E86.90739
G1 X36.808 Y23.233 E87.92027
G1 X37.111 Y22.939 E87.92532
G1 X96.990 Y82.818 E88.93791
G1 X97.275 Y82.505 E88.94297
G1 X37.445 Y22.675 E89.95473
G1 X37.783 Y22.415 E89.95983
G1 X97.562 Y82.194 E90.97072
G1 X97.846 Y81.880 E90.97578
G1 X38.120 Y22.155 E91.98578
G1 X38.458 Y21.895 E91.99087
G1 X98.098 Y81.535 E92.99942
G1 X98.349 Y81.188 E93.00454
G1 X38.795 Y21.634 E94.01163
G1 X39.133 Y21.374 E94.01673
G1 X98.601 Y80.842 E95.02237
G1 X98.852 Y80.496 E95.02749
G1 X39.470 Y21.114 E96.03167
G1 X39.807 Y20.854 E96.03677
G1 X99.104 Y80.150 E97.03950
G1 X99.355 Y79.804 E97.04462
G1 X40.145 Y20.593 E98.04590
G1 X40.482 Y20.333 E98.05099
G1 X99.606 Y79.457 E99.05082
G1 X99.858 Y79.111 E99.05594
G1 X40.820 Y20.073 E100.05431
G1 X41.178 Y19.833 E100.05946
G1 X100.109 Y78.765 E101.05603
G1 X100.361 Y78.419 E101.06115
