; generated by Slic3r 1.0.0RC2 on 2014-03-22 at 17:06:00

; layer_height = 0.2937
; perimeters = 3
; top_solid_layers = 3
; bottom_solid_layers = 3
; fill_density = 0.3
; perimeter_speed = 30
; infill_speed = 30
; travel_speed = 130
; nozzle_diameter = 0.4
; filament_diameter = 2.93
; extrusion_multiplier = 1
; perimeters extrusion width = 0.40mm
; infill extrusion width = 0.44mm
; solid infill extrusion width = 0.44mm
; top infill extrusion width = 0.44mm
; first layer extrusion width = 0.59mm

G21 ; set units to millimeters
M107
M104 S205 ; set temperature
G28 ; home all axes
M92 X84.5834; calibrate X
M92 Y84.4486 ; calibrate Y
M92 Z2210.2522 ; calibrate Z
M92 E687.5313 ; calibrate E
M109 S205 ; wait for temperature to be reached
G90 ; use absolute coordinates
G92 E0
M82 ; use absolute distances for extrusion
G1 F1800.000 E-1.00000
G92 E0
G1 Z0.294 F7800.000
G1 X41.230 Y33.340 F7800.000
G1 E1.00000 F1800.000
G1 X42.110 Y32.260 E1.03320 F540.000
G1 X42.260 Y32.110 E1.03826
G1 X43.340 Y31.230 E1.07147
G1 X44.570 Y30.580 E1.10462
G1 X45.900 Y30.170 E1.13780
G1 X47.280 Y30.040 E1.17083
G1 X82.710 Y30.040 E2.01530
G1 X84.090 Y30.170 E2.04834
G1 X85.420 Y30.580 E2.08151
G1 X86.650 Y31.230 E2.11467
G1 X87.730 Y32.110 E2.14788
G1 X87.880 Y32.260 E2.15293
G1 X88.760 Y33.340 E2.18614
G1 X89.410 Y34.570 E2.21930
G1 X89.820 Y35.900 E2.25247
G1 X89.950 Y37.280 E2.28551
G1 X89.950 Y72.710 E3.12997
G1 X89.820 Y74.090 E3.16301
G1 X89.410 Y75.420 E3.19618
G1 X88.760 Y76.650 E3.22934
G1 X87.880 Y77.730 E3.26255
G1 X87.730 Y77.880 E3.26760
G1 X86.650 Y78.760 E3.30081
G1 X85.420 Y79.410 E3.33397
G1 X84.090 Y79.820 E3.36714
G1 X82.710 Y79.950 E3.40018
G1 X47.280 Y79.950 E4.24464
G1 X45.900 Y79.820 E4.27768
G1 X44.570 Y79.410 E4.31085
G1 X43.340 Y78.760 E4.34401
G1 X42.260 Y77.880 E4.37722
G1 X42.110 Y77.730 E4.38227
G1 X41.230 Y76.650 E4.41548
G1 X40.580 Y75.420 E4.44864
G1 X40.170 Y74.090 E4.48181
G1 X40.040 Y72.710 E4.51485
G1 X40.040 Y37.280 E5.35932
G1 X40.170 Y35.900 E5.39235
G1 X40.580 Y34.570 E5.42553
G1 X41.192 Y33.413 E5.45673
G1 X41.690 Y33.640 F7800.000
G1 X42.500 Y32.650 E5.48722 F540.000
G1 X42.650 Y32.500 E5.49227
G1 X43.640 Y31.690 E5.52276
G1 X44.770 Y31.080 E5.55337
G1 X46.000 Y30.710 E5.58398
G1 X47.280 Y30.580 E5.61465
G1 X82.710 Y30.580 E6.45912
G1 X83.990 Y30.710 E6.48978
G1 X85.220 Y31.080 E6.52040
G1 X86.350 Y31.690 E6.55100
G1 X87.340 Y32.500 E6.58149
G1 X87.490 Y32.650 E6.58655
G1 X88.300 Y33.640 E6.61704
G1 X88.910 Y34.770 E6.64764
G1 X89.280 Y36.000 E6.67826
G1 X89.410 Y37.280 E6.70892
G1 X89.410 Y72.710 E7.55339
G1 X89.280 Y73.990 E7.58406
G1 X88.910 Y75.220 E7.61467
G1 X88.300 Y76.350 E7.64528
G1 X87.490 Y77.340 E7.67577
G1 X87.340 Y77.490 E7.68082
G1 X86.350 Y78.300 E7.71131
G1 X85.220 Y78.910 E7.74192
G1 X83.990 Y79.280 E7.77253
G1 X82.710 Y79.410 E7.80320
G1 X47.280 Y79.410 E8.64766
G1 X46.000 Y79.280 E8.67833
G1 X44.770 Y78.910 E8.70894
G1 X43.640 Y78.300 E8.73955
G1 X42.650 Y77.490 E8.77004
G1 X42.500 Y77.340 E8.77510
G1 X41.690 Y76.350 E8.80558
G1 X41.080 Y75.220 E8.83619
G1 X40.710 Y73.990 E8.86681
G1 X40.580 Y72.710 E8.89747
G1 X40.580 Y37.280 E9.74194
G1 X40.710 Y36.000 E9.77260
G1 X41.080 Y34.770 E9.80322
G1 X41.651 Y33.712 E9.83187
G1 F1800.000 E8.83187
G92 E0
G1 X51.039 Y49.935 F7800.000
G1 E1.00000 F1800.000
G1 X48.525 Y47.420 E1.08476 F540.000
G1 X48.525 Y38.525 E1.29678
G1 X57.420 Y38.525 E1.50881
G1 X59.935 Y41.039 E1.59357
G1 X70.065 Y41.039 E1.83502
G1 X72.580 Y38.525 E1.91978
G1 X81.475 Y38.525 E2.13181
G1 X81.475 Y47.420 E2.34383
G1 X78.961 Y49.935 E2.42859
G1 X78.961 Y60.065 E2.67005
G1 X81.475 Y62.580 E2.75481
G1 X81.475 Y71.475 E2.96683
G1 X72.580 Y71.475 E3.17885
G1 X70.065 Y68.961 E3.26361
G1 X59.935 Y68.961 E3.50507
G1 X57.420 Y71.475 E3.58983
G1 X48.525 Y71.475 E3.80185
G1 X48.525 Y62.580 E4.01387
G1 X51.039 Y60.065 E4.09863
G1 X51.039 Y50.017 E4.33813
G1 X50.492 Y50.161 F7800.000
G1 X47.978 Y47.647 E4.42290 F540.000
G1 X47.978 Y37.978 E4.65336
G1 X57.647 Y37.978 E4.88383
G1 X60.161 Y40.492 E4.96859
G1 X69.839 Y40.492 E5.19924
G1 X72.353 Y37.978 E5.28400
G1 X82.022 Y37.978 E5.51447
G1 X82.022 Y47.647 E5.74494
G1 X79.508 Y50.161 E5.82970
G1 X79.508 Y59.839 E6.06035
G1 X82.022 Y62.353 E6.14511
G1 X82.022 Y72.022 E6.37558
G1 X72.353 Y72.022 E6.60604
G1 X69.839 Y69.508 E6.69080
G1 X60.161 Y69.508 E6.92146
G1 X57.647 Y72.022 E7.00622
G1 X47.978 Y72.022 E7.23668
G1 X47.978 Y62.353 E7.46715
G1 X50.492 Y59.839 E7.55191
G1 X50.492 Y50.244 E7.78061
G1 X49.945 Y50.388 F7800.000
G1 X47.430 Y47.873 E7.86537 F378.000
G1 X47.430 Y37.430 E8.11428
G1 X57.873 Y37.430 E8.36319
G1 X60.388 Y39.945 E8.44795
G1 X69.612 Y39.945 E8.66780
G1 X72.127 Y37.430 E8.75256
G1 X82.570 Y37.430 E9.00147
G1 X82.570 Y47.873 E9.25038
G1 X80.055 Y50.388 E9.33514
G1 X80.055 Y59.612 E9.55499
G1 X82.570 Y62.127 E9.63975
G1 X82.570 Y72.570 E9.88866
G1 X72.127 Y72.570 E10.13757
G1 X69.612 Y70.055 E10.22233
G1 X60.388 Y70.055 E10.44218
G1 X57.873 Y72.570 E10.52694
G1 X47.430 Y72.570 E10.77585
G1 X47.430 Y62.127 E11.02476
G1 X49.945 Y59.612 E11.10952
G1 X49.945 Y50.470 E11.32741
G1 X50.219 Y49.914 F7800.000
G1 X51.409 Y50.320 F7800.000
G1 X69.680 Y68.591 E11.94414 F1080.000
G1 X68.906 Y68.591 E11.96263
G1 X51.409 Y51.094 E12.55320
G1 X51.409 Y51.869 E12.57169
G1 X68.131 Y68.591 E13.13611
G1 X67.356 Y68.591 E13.15460
G1 X51.409 Y52.644 E13.69286
G1 X51.409 Y53.419 E13.71135
G1 X66.581 Y68.591 E14.22346
G1 X65.806 Y68.591 E14.24196
G1 X51.409 Y54.194 E14.72791
G1 X51.409 Y54.969 E14.74640
G1 X65.031 Y68.591 E15.20620
G1 X64.256 Y68.591 E15.22469
G1 X51.409 Y55.744 E15.65834
G1 X51.409 Y56.519 E15.67683
G1 X63.481 Y68.591 E16.08432
G1 X62.707 Y68.591 E16.10282
G1 X51.409 Y57.293 E16.48415
G1 X51.409 Y58.068 E16.50265
G1 X61.932 Y68.591 E16.85783
G1 X61.157 Y68.591 E16.87632
G1 X51.409 Y58.843 E17.20535
G1 X51.409 Y59.618 E17.22384
G1 X60.382 Y68.591 E17.52672
G1 X59.694 Y68.679 E17.54326
G1 X51.321 Y60.306 E17.82588
G1 X50.934 Y60.693 E17.83895
G1 X59.307 Y69.066 E18.12157
G1 X58.920 Y69.454 E18.13465
G1 X50.546 Y61.080 E18.41727
G1 X50.159 Y61.468 E18.43035
G1 X58.532 Y69.841 E18.71296
G1 X58.145 Y70.229 E18.72604
G1 X49.771 Y61.855 E19.00866
G1 X49.384 Y62.243 E19.02174
G1 X57.757 Y70.616 E19.30436
G1 X57.370 Y71.003 E19.31743
G1 X48.997 Y62.630 E19.60005
G1 X48.894 Y63.302 E19.61628
G1 X56.698 Y71.106 E19.87967
G1 X55.923 Y71.106 E19.89817
G1 X48.894 Y64.077 E20.13541
G1 X48.894 Y64.852 E20.15390
G1 X55.148 Y71.106 E20.36498
G1 X54.373 Y71.106 E20.38347
G1 X48.894 Y65.627 E20.56840
G1 X48.894 Y66.402 E20.58690
G1 X53.598 Y71.106 E20.74567
G1 X52.823 Y71.106 E20.76416
G1 X48.894 Y67.177 E20.89678
G1 X48.894 Y67.952 E20.91528
G1 X52.048 Y71.106 E21.02174
G1 X51.273 Y71.106 E21.04024
G1 X48.894 Y68.727 E21.12055
G1 X48.894 Y69.501 E21.13904
G1 X50.499 Y71.106 E21.19320
G1 X49.724 Y71.106 E21.21169
G1 X48.894 Y70.276 E21.23970
G1 X48.894 Y71.051 E21.25819
G1 X48.949 Y71.106 E21.26004
G1 F1800.000 E20.26004
G92 E0
G1 X48.894 Y47.030 F7800.000
G1 E1.00000 F1800.000
G1 X72.970 Y71.106 E1.81263 F1080.000
G1 X73.745 Y71.106 E1.83112
G1 X48.894 Y46.255 E2.66990
G1 X48.894 Y45.480 E2.68839
G1 X74.520 Y71.106 E3.55333
G1 X75.294 Y71.106 E3.57182
G1 X48.894 Y44.706 E4.46291
G1 X48.894 Y43.931 E4.48141
G1 X76.069 Y71.106 E5.39865
G1 X76.844 Y71.106 E5.41714
G1 X48.894 Y43.156 E6.36054
G1 X48.894 Y42.381 E6.37903
G1 X77.619 Y71.106 E7.34858
G1 X78.394 Y71.106 E7.36708
G1 X48.894 Y41.606 E8.36278
G1 X48.894 Y40.831 E8.38128
G1 X79.169 Y71.106 E9.40314
G1 X79.944 Y71.106 E9.42163
G1 X48.894 Y40.056 E10.46964
G1 X48.894 Y39.281 E10.48814
G1 X80.719 Y71.106 E11.56230
G1 X81.106 Y70.719 E11.57538
G1 X49.281 Y38.894 E12.64955
G1 X50.056 Y38.894 E12.66804
G1 X81.106 Y69.944 E13.71605
G1 X81.106 Y69.169 E13.73455
G1 X50.831 Y38.894 E14.75640
G1 X51.606 Y38.894 E14.77490
G1 X81.106 Y68.394 E15.77060
G1 X81.106 Y67.619 E15.78909
G1 X52.381 Y38.894 E16.75864
G1 X53.156 Y38.894 E16.77714
G1 X81.106 Y66.844 E17.72053
G1 X81.106 Y66.069 E17.73902
G1 X53.931 Y38.894 E18.65626
G1 X54.706 Y38.894 E18.67476
G1 X81.106 Y65.294 E19.56584
G1 X81.106 Y64.520 E19.58434
G1 X55.480 Y38.894 E20.44927
G1 X56.255 Y38.894 E20.46776
G1 X81.106 Y63.745 E21.30654
G1 X81.106 Y62.970 E21.32504
G1 X57.030 Y38.894 E22.13766
G1 X60.320 Y41.409 F7800.000
G1 X78.591 Y59.680 E22.75438 F1080.000
G1 X78.591 Y58.905 E22.77287
G1 X61.095 Y41.409 E23.36344
G1 X61.869 Y41.409 E23.38193
G1 X78.591 Y58.131 E23.94635
G1 X78.591 Y57.356 E23.96484
G1 X62.644 Y41.409 E24.50310
G1 X63.419 Y41.409 E24.52159
G1 X78.591 Y56.581 E25.03370
G1 X78.591 Y55.806 E25.05219
G1 X64.194 Y41.409 E25.53814
G1 X64.969 Y41.409 E25.55663
G1 X78.591 Y55.031 E26.01643
G1 X78.591 Y54.256 E26.03492
G1 X65.744 Y41.409 E26.46856
G1 X66.519 Y41.409 E26.48706
G1 X78.591 Y53.481 E26.89455
G1 X78.591 Y52.706 E26.91304
G1 X67.294 Y41.409 E27.29437
G1 X68.068 Y41.409 E27.31287
G1 X78.591 Y51.932 E27.66805
G1 X78.591 Y51.157 E27.68654
G1 X68.843 Y41.409 E28.01557
G1 X69.618 Y41.409 E28.03406
G1 X78.591 Y50.382 E28.33693
G1 X78.679 Y49.694 E28.35347
G1 X70.306 Y41.321 E28.63609
G1 X70.693 Y40.934 E28.64917
G1 X79.066 Y49.307 E28.93179
G1 X79.454 Y48.920 E28.94486
G1 X71.080 Y40.546 E29.22748
G1 X71.468 Y40.159 E29.24056
G1 X79.841 Y48.532 E29.52318
G1 X80.229 Y48.145 E29.53626
G1 X71.855 Y39.771 E29.81887
G1 X72.243 Y39.384 E29.83195
G1 X80.616 Y47.757 E30.11457
G1 X81.003 Y47.370 E30.12765
G1 X72.630 Y38.997 E30.41027
G1 X73.303 Y38.894 E30.42650
G1 X81.106 Y46.697 E30.68989
G1 X81.106 Y45.923 E30.70838
G1 X74.077 Y38.894 E30.94561
G1 X74.852 Y38.894 E30.96411
G1 X81.106 Y45.148 E31.17519
G1 X81.106 Y44.373 E31.19368
G1 X75.627 Y38.894 E31.37861
G1 X76.402 Y38.894 E31.39710
G1 X81.106 Y43.598 E31.55587
G1 X81.106 Y42.823 E31.57437
G1 X77.177 Y38.894 E31.70698
G1 X77.952 Y38.894 E31.72548
G1 X81.106 Y42.048 E31.83194
G1 X81.106 Y41.273 E31.85043
G1 X78.727 Y38.894 E31.93074
G1 X79.502 Y38.894 E31.94924
G1 X81.106 Y40.498 E32.00339
G1 X81.106 Y39.724 E32.02189
G1 X80.276 Y38.894 E32.04989
G1 X81.051 Y38.894 E32.06838
G1 X81.106 Y38.949 E32.07023
M106 S220
G1 F1800.000 E31.07023
G92 E0
G1 Z0.587 F7800.000
G1 X79.642 Y49.802 F7800.000
G1 E1.00000 F1800.000
G1 X79.642 Y60.198 E1.18114 F1800
G1 X82.157 Y62.713 E1.24310
G1 X82.157 Y72.157 E1.40766
G1 X72.713 Y72.157 E1.57221
G1 X70.198 Y69.642 E1.63417
G1 X59.802 Y69.642 E1.81531
G1 X57.287 Y72.157 E1.87728
G1 X47.843 Y72.157 E2.04183
G1 X47.843 Y62.713 E2.20638
G1 X50.358 Y60.198 E2.26835
G1 X50.358 Y49.802 E2.44949
G1 X47.843 Y47.287 E2.51145
G1 X47.843 Y37.843 E2.67600
G1 X57.287 Y37.843 E2.84056
G1 X59.802 Y40.358 E2.90252
G1 X70.198 Y40.358 E3.08366
G1 X72.713 Y37.843 E3.14562
G1 X82.157 Y37.843 E3.31018
G1 X82.157 Y47.287 E3.47473
G1 X79.685 Y49.759 E3.53565
G1 X80.042 Y49.968 F7800.000
G1 X80.042 Y60.032 E3.71101 F1800
G1 X82.557 Y62.547 E3.77298
G1 X82.557 Y72.557 E3.94739
G1 X72.547 Y72.557 E4.12180
G1 X70.032 Y70.042 E4.18376
G1 X59.968 Y70.042 E4.35913
G1 X57.453 Y72.557 E4.42109
G1 X47.443 Y72.557 E4.59550
G1 X47.443 Y62.547 E4.76991
G1 X49.958 Y60.032 E4.83187
G1 X49.958 Y49.968 E5.00724
G1 X47.443 Y47.453 E5.06920
G1 X47.443 Y37.443 E5.24361
G1 X57.453 Y37.443 E5.41802
G1 X59.968 Y39.958 E5.47998
G1 X70.032 Y39.958 E5.65535
G1 X72.547 Y37.443 E5.71731
G1 X82.557 Y37.443 E5.89172
G1 X82.557 Y47.453 E6.06613
G1 X80.085 Y49.925 E6.12705
G1 X80.442 Y50.133 F7800.000
G1 X80.442 Y50.416 E6.13198 F1260
M106 S255
G1 X80.442 Y59.584 E6.30284 F1800
M106 S220
G1 X80.442 Y59.867 E6.30777 F1260
G1 X82.863 Y62.288 E6.36742
M106 S255
G1 X82.957 Y62.381 E6.36989 F1800
G1 X82.957 Y72.634 E6.56097
G1 X82.634 Y72.957 E6.56949
G1 X72.381 Y72.957 E6.76057
G1 X72.288 Y72.863 E6.76304
M106 S220
G1 X69.867 Y70.442 E6.82269 F1260
G1 X69.584 Y70.442 E6.82762
M106 S255
G1 X60.416 Y70.442 E6.99848 F1800
M106 S220
G1 X60.133 Y70.442 E7.00341 F1260
G1 X57.712 Y72.863 E7.06306
M106 S255
G1 X57.619 Y72.957 E7.06553 F1800
G1 X47.366 Y72.957 E7.25661
G1 X47.043 Y72.634 E7.26513
G1 X47.043 Y62.381 E7.45621
G1 X47.137 Y62.288 E7.45868
M106 S220
G1 X49.558 Y59.867 E7.51833 F1260
G1 X49.558 Y59.584 E7.52326
M106 S255
G1 X49.558 Y50.416 E7.69412 F1800
M106 S220
G1 X49.558 Y50.133 E7.69905 F1260
G1 X47.137 Y47.712 E7.75870
M106 S255
G1 X47.043 Y47.619 E7.76117 F1800
G1 X47.043 Y37.366 E7.95225
G1 X47.366 Y37.043 E7.96077
G1 X57.619 Y37.043 E8.15185
G1 X57.712 Y37.137 E8.15432
M106 S220
G1 X60.133 Y39.558 E8.21397 F1260
G1 X60.416 Y39.558 E8.21890
M106 S255
G1 X69.584 Y39.558 E8.38976 F1800
M106 S220
G1 X69.867 Y39.558 E8.39469 F1260
G1 X72.288 Y37.137 E8.45435
M106 S255
G1 X72.381 Y37.043 E8.45681 F1800
G1 X82.634 Y37.043 E8.64789
G1 X82.957 Y37.366 E8.65641
G1 X82.957 Y47.619 E8.84749
G1 X82.863 Y47.712 E8.84996
M106 S220
G1 X80.485 Y50.091 E8.90857 F1260
G1 X80.056 Y50.237 F7800.000
G1 F1800.000 E7.90857
G92 E0
G1 X81.882 Y71.839 F7800.000
G1 E1.00000 F1800.000
G1 X81.839 Y71.882 E1.00114 F3600
G1 X81.232 Y71.882 E1.01251
G1 X81.882 Y71.232 E1.02973
G1 X81.882 Y70.624 E1.04110
G1 X80.624 Y71.882 E1.07440
G1 X80.017 Y71.882 E1.08577
G1 X81.882 Y70.017 E1.13515
G1 X81.882 Y69.409 E1.14652
G1 X79.409 Y71.882 E1.21198
G1 X78.801 Y71.882 E1.22335
G1 X81.882 Y68.801 E1.30489
G1 X81.882 Y68.194 E1.31626
G1 X78.194 Y71.882 E1.41388
G1 X77.586 Y71.882 E1.42525
G1 X81.882 Y67.586 E1.53896
G1 X81.882 Y66.979 E1.55033
G1 X76.979 Y71.882 E1.68011
G1 X76.371 Y71.882 E1.69148
G1 X81.882 Y66.371 E1.83735
G1 X81.882 Y65.763 E1.84872
G1 X75.763 Y71.882 E2.01066
G1 X75.156 Y71.882 E2.02204
G1 X81.882 Y65.156 E2.20006
G1 X81.882 Y64.548 E2.21143
G1 X74.548 Y71.882 E2.40554
G1 X73.941 Y71.882 E2.41691
G1 X81.882 Y63.941 E2.62710
G1 X81.882 Y63.333 E2.63847
G1 X73.333 Y71.882 E2.86474
G1 X72.776 Y71.832 E2.87521
G1 X81.832 Y62.776 E3.11488
G1 X81.528 Y62.472 E3.12292
G1 X72.472 Y71.528 E3.36259
G1 X72.168 Y71.224 E3.37063
G1 X81.224 Y62.168 E3.61030
G1 X80.920 Y61.865 E3.61834
G1 X71.865 Y70.920 E3.85801
G1 X71.561 Y70.616 E3.86606
G1 X80.616 Y61.561 E4.10573
G1 X80.313 Y61.257 E4.11377
G1 X71.257 Y70.313 E4.35344
G1 X70.953 Y70.009 E4.36148
G1 X80.009 Y60.953 E4.60115
G1 X79.705 Y60.649 E4.60919
G1 X70.649 Y69.705 E4.84886
G1 X70.346 Y69.401 E4.85690
G1 X79.401 Y60.346 E5.09657
G1 X79.368 Y59.772 E5.10734
G1 X69.772 Y69.368 E5.36131
G1 X69.164 Y69.368 E5.37268
G1 X79.368 Y59.164 E5.64273
G1 X79.368 Y58.556 E5.65410
G1 X68.556 Y69.368 E5.94024
G1 X67.949 Y69.368 E5.95161
G1 X79.368 Y57.949 E6.25383
G1 X79.368 Y57.341 E6.26520
G1 X67.341 Y69.368 E6.58349
G1 X66.734 Y69.368 E6.59486
G1 X79.368 Y56.734 E6.92924
G1 X79.368 Y56.126 E6.94061
G1 X66.126 Y69.368 E7.29107
G1 X65.518 Y69.368 E7.30244
G1 X79.368 Y55.518 E7.66898
G1 X79.368 Y54.911 E7.68035
G1 X64.911 Y69.368 E8.06297
G1 X64.303 Y69.368 E8.07434
G1 X79.368 Y54.303 E8.47305
G1 X79.368 Y53.696 E8.48442
G1 X63.696 Y69.368 E8.89920
G1 X63.088 Y69.368 E8.91057
G1 X79.368 Y53.088 E9.34143
G1 X79.368 Y52.480 E9.35280
G1 X62.480 Y69.368 E9.79975
G1 X61.873 Y69.368 E9.81112
G1 X79.368 Y51.873 E10.27414
G1 X79.368 Y51.265 E10.28551
G1 X61.265 Y69.368 E10.76462
G1 X60.658 Y69.368 E10.77599
G1 X79.368 Y50.658 E11.27118
G1 X79.368 Y50.050 E11.28255
G1 X60.050 Y69.368 E11.79381
G1 X56.928 Y71.882 F7800.000
G1 X81.882 Y46.928 E12.45427 F3600
G1 X81.882 Y46.320 E12.46564
G1 X56.320 Y71.882 E13.14217
G1 X55.713 Y71.882 E13.15354
G1 X81.882 Y45.713 E13.84616
G1 X81.882 Y45.105 E13.85753
G1 X55.105 Y71.882 E14.56622
G1 X54.497 Y71.882 E14.57759
G1 X81.882 Y44.497 E15.30237
G1 X81.882 Y43.890 E15.31374
G1 X53.890 Y71.882 E16.05460
G1 X53.282 Y71.882 E16.06597
G1 X81.882 Y43.282 E16.82291
G1 X81.882 Y42.675 E16.83428
G1 X52.675 Y71.882 E17.60730
G1 X52.067 Y71.882 E17.61867
G1 X81.882 Y42.067 E18.40777
G1 X81.882 Y41.459 E18.41914
G1 X51.459 Y71.882 E19.22432
G1 X50.852 Y71.882 E19.23569
G1 X81.882 Y40.852 E20.05695
G1 X81.882 Y40.244 E20.06832
G1 X50.244 Y71.882 E20.90567
G1 X49.637 Y71.882 E20.91704
G1 X81.882 Y39.637 E21.77046
G1 X81.882 Y39.029 E21.78183
G1 X49.029 Y71.882 E22.65133
G1 X48.422 Y71.882 E22.66271
G1 X81.882 Y38.422 E23.54829
